;FLAVOR:Marlin
;TIME:3261
;Filament used: 2.21007m
;Layer height: 0.2
;MINX:113.42
;MINY:108.014
;MINZ:0.2
;MAXX:186.579
;MAXY:192.004
;MAXZ:5
;Generated with Cura_SteamEngine main
M140 S65
M105
M190 S65
M104 S212
M105
M109 S212
M82 ;absolute extrusion mode
M201 X500.00 Y500.00 Z100.00 E5000.00 ;Setup machine max acceleration
M203 X500.00 Y500.00 Z10.00 E50.00 ;Setup machine max feedrate
M204 P500.00 R1000.00 T500.00 ;Setup Print/Retract/Travel acceleration
M205 X8.00 Y8.00 Z0.40 E5.00 ;Setup Jerk
M220 S100 ;Reset Feedrate
M221 S100 ;Reset Flowrate

G28 ;Home
G29 ;Auto bed Level

G92 E0 ;Reset Extruder
G1 Z2.0 F3000 ;Move Z Axis up
G1 X10.1 Y20 Z0.28 F5000.0 ;Move to start position
G1 X10.1 Y200.0 Z0.28 F1500.0 E15 ;Draw the first line
G1 X10.4 Y200.0 Z0.28 F5000.0 ;Move to side a little
G1 X10.4 Y20 Z0.28 F1500.0 E30 ;Draw the second line
G92 E0 ;Reset Extruder
G1 Z2.0 F3000 ;Move Z Axis up

G92 E0
G92 E0
G1 F2700 E-5
;LAYER_COUNT:25
;LAYER:0
M107
G0 F6000 X123.76 Y132.106 Z0.2
G0 X117.251 Y143.891
;TYPE:SKIRT
G1 F2700 E0
G1 F1200 X117.393 Y143.183 E0.02402
G1 X117.566 Y142.453 E0.04897
G1 X117.757 Y141.754 E0.07307
G1 X117.892 Y141.31 E0.08851
G1 X118.124 Y140.618 E0.11278
G1 X118.381 Y139.93 E0.13721
G1 X118.495 Y139.647 E0.14736
G1 X118.778 Y138.993 E0.17106
G1 X118.973 Y138.573 E0.18646
G1 X119.298 Y137.921 E0.21069
G1 X119.652 Y137.269 E0.23536
G1 X120.163 Y136.417 E0.26841
G1 X120.58 Y135.779 E0.29376
G1 X120.847 Y135.397 E0.30926
G1 X121.282 Y134.811 E0.33353
G1 X121.739 Y134.237 E0.35794
G1 X122.225 Y133.669 E0.3828
G1 X122.701 Y133.149 E0.40625
G1 X123.225 Y132.614 E0.43115
G1 X123.76 Y132.106 E0.45569
G1 X124.505 Y131.454 E0.48862
G1 X124.864 Y131.16 E0.50405
G1 X125.468 Y130.696 E0.52939
G1 X126.284 Y130.122 E0.56257
G1 X126.672 Y129.868 E0.57799
G1 X127.302 Y129.481 E0.60259
G1 X128.179 Y128.991 E0.636
G1 X128.849 Y128.652 E0.66097
G1 X129.269 Y128.455 E0.6764
G1 X129.921 Y128.17 E0.70007
G1 X130.854 Y127.808 E0.73335
G1 X131.584 Y127.557 E0.75903
G1 X132.27 Y127.35 E0.78286
G1 X132.717 Y127.228 E0.79827
G1 X133.437 Y127.054 E0.82291
G1 X133.715 Y126.994 E0.83237
G1 X134.522 Y126.84 E0.85969
G1 X134.982 Y126.767 E0.87519
G1 X135.63 Y126.682 E0.89692
G1 X136.161 Y126.63 E0.91467
G1 X136.155 Y126.292 E0.92591
G1 X136.17 Y125.393 E0.95582
G1 X136.208 Y124.751 E0.97721
G1 X136.27 Y124.108 E0.99869
G1 X136.352 Y123.486 E1.01956
G1 X136.458 Y122.853 E1.04091
G1 X136.582 Y122.242 E1.06164
G1 X136.736 Y121.599 E1.08363
G1 X136.831 Y121.249 E1.0957
G1 X137.012 Y120.647 E1.1166
G1 X137.211 Y120.057 E1.13731
G1 X137.443 Y119.443 E1.15914
G1 X137.803 Y118.604 E1.18951
G1 X138.072 Y118.042 E1.21023
G1 X138.238 Y117.718 E1.22234
G1 X138.547 Y117.155 E1.2437
G1 X139.015 Y116.38 E1.27381
G1 X139.377 Y115.837 E1.29552
G1 X139.737 Y115.335 E1.31607
G1 X140.139 Y114.814 E1.33795
G1 X140.555 Y114.314 E1.35959
G1 X140.795 Y114.042 E1.37165
G1 X141.199 Y113.607 E1.3914
G1 X141.668 Y113.134 E1.41355
G1 X142.11 Y112.719 E1.43372
G1 X142.441 Y112.428 E1.44838
G1 X143.001 Y111.964 E1.47256
G1 X143.312 Y111.72 E1.48571
G1 X143.859 Y111.319 E1.50827
G1 X144.342 Y110.991 E1.52769
G1 X144.646 Y110.795 E1.53972
G1 X145.212 Y110.454 E1.5617
G1 X145.818 Y110.118 E1.58474
G1 X146.107 Y109.968 E1.59557
G1 X146.685 Y109.689 E1.61692
G1 X147.229 Y109.448 E1.63671
G1 X147.848 Y109.199 E1.6589
G1 X148.451 Y108.982 E1.68022
G1 X149.045 Y108.791 E1.70097
G1 X149.394 Y108.689 E1.71306
G1 X150.285 Y108.462 E1.74364
G1 X150.914 Y108.331 E1.76501
G1 X151.556 Y108.222 E1.78667
G1 X152.17 Y108.139 E1.80728
G1 X152.79 Y108.076 E1.82801
G1 X153.153 Y108.049 E1.84011
G1 X154.073 Y108.014 E1.87073
G1 X154.714 Y108.017 E1.89205
G1 X155.358 Y108.044 E1.91349
G1 X155.974 Y108.09 E1.93404
G1 X156.619 Y108.161 E1.95562
G1 X157.27 Y108.257 E1.97751
G1 X157.966 Y108.386 E2.00105
G1 X158.322 Y108.463 E2.01317
G1 X158.957 Y108.62 E2.03492
G1 X159.491 Y108.771 E2.05338
G1 X160.07 Y108.954 E2.07358
G1 X160.675 Y109.169 E2.09493
G1 X161.265 Y109.402 E2.11603
G1 X161.854 Y109.659 E2.1374
G1 X162.711 Y110.078 E2.16913
G1 X163.244 Y110.367 E2.1893
G1 X163.87 Y110.738 E2.2135
G1 X164.396 Y111.077 E2.23431
G1 X164.934 Y111.451 E2.25611
G1 X165.226 Y111.667 E2.26819
G1 X165.709 Y112.044 E2.28857
G1 X166.206 Y112.46 E2.31012
G1 X166.67 Y112.877 E2.33087
G1 X167.138 Y113.329 E2.35251
G1 X167.755 Y113.977 E2.38227
G1 X168.197 Y114.483 E2.40462
G1 X168.586 Y114.962 E2.42514
G1 X168.973 Y115.475 E2.44651
G1 X169.326 Y115.977 E2.46693
G1 X169.69 Y116.535 E2.48908
G1 X170.024 Y117.091 E2.51066
G1 X170.317 Y117.62 E2.53077
G1 X170.606 Y118.183 E2.55182
G1 X170.763 Y118.511 E2.56391
G1 X171.034 Y119.125 E2.58624
G1 X171.262 Y119.695 E2.60665
G1 X171.481 Y120.299 E2.62802
G1 X171.703 Y121.001 E2.65251
G1 X171.806 Y121.367 E2.66516
G1 X171.972 Y122.018 E2.6875
G1 X172.064 Y122.424 E2.70135
G1 X172.178 Y123.013 E2.7213
G1 X172.238 Y123.371 E2.73338
G1 X172.328 Y124.035 E2.75566
G1 X172.397 Y124.743 E2.77932
G1 X172.422 Y125.135 E2.79239
G1 X172.448 Y125.808 E2.81479
G1 X172.453 Y126.221 E2.82852
G1 X172.437 Y126.936 E2.85231
G1 X172.399 Y127.574 E2.87357
G1 X172.367 Y127.937 E2.88569
G1 X172.295 Y128.558 E2.90648
G1 X172.196 Y129.213 E2.92852
G1 X172.089 Y129.788 E2.94797
G1 X172.016 Y130.13 E2.9596
G1 X171.876 Y130.706 E2.97931
G1 X171.782 Y131.056 E2.99137
G1 X171.511 Y131.939 E3.02209
G1 X171.296 Y132.544 E3.04344
G1 X171.165 Y132.882 E3.0555
G1 X170.919 Y133.467 E3.07661
G1 X170.654 Y134.043 E3.0977
G1 X170.234 Y134.86 E3.12825
G1 X169.919 Y135.413 E3.14942
G1 X169.595 Y135.94 E3.16999
G1 X169.232 Y136.486 E3.1918
G1 X168.859 Y137.005 E3.21306
G1 X168.488 Y137.486 E3.23326
G1 X168.051 Y138.013 E3.25603
G1 X167.658 Y138.454 E3.27568
G1 X167.323 Y138.808 E3.29189
G1 X167.766 Y138.851 E3.30669
G1 X168.506 Y138.946 E3.33151
G1 X168.966 Y139.019 E3.347
G1 X169.675 Y139.152 E3.37099
G1 X170.42 Y139.319 E3.39639
G1 X171.117 Y139.502 E3.42035
G1 X172.072 Y139.792 E3.45355
G1 X172.764 Y140.034 E3.47793
G1 X173.485 Y140.315 E3.50367
G1 X173.913 Y140.498 E3.51915
G1 X174.531 Y140.78 E3.54175
G1 X175.202 Y141.113 E3.56666
G1 X175.467 Y141.254 E3.57664
G1 X176.103 Y141.612 E3.60092
G1 X176.501 Y141.851 E3.61636
G1 X177.102 Y142.234 E3.64006
G1 X177.729 Y142.666 E3.66539
G1 X178.524 Y143.261 E3.69841
G1 X179.106 Y143.737 E3.72342
G1 X179.642 Y144.208 E3.74715
G1 X180.18 Y144.713 E3.7717
G1 X180.692 Y145.228 E3.79585
G1 X181.217 Y145.795 E3.82155
G1 X181.677 Y146.33 E3.84502
G1 X182.145 Y146.912 E3.86986
G1 X182.585 Y147.5 E3.89428
G1 X182.852 Y147.879 E3.9097
G1 X183.258 Y148.492 E3.93416
G1 X183.65 Y149.131 E3.95909
G1 X184.001 Y149.75 E3.98276
G1 X184.348 Y150.415 E4.00771
G1 X184.662 Y151.071 E4.0319
G1 X184.962 Y151.759 E4.05686
G1 X185.226 Y152.427 E4.08075
G1 X185.473 Y153.117 E4.10513
G1 X185.775 Y154.09 E4.13901
G1 X185.965 Y154.806 E4.16365
G1 X186.125 Y155.506 E4.18753
G1 X186.271 Y156.265 E4.21324
G1 X186.355 Y156.792 E4.23099
G1 X186.44 Y157.429 E4.25236
G1 X186.519 Y158.256 E4.28
G1 X186.563 Y159.003 E4.30488
G1 X186.579 Y159.647 E4.32631
G1 X186.573 Y160.439 E4.35265
G1 X186.54 Y161.204 E4.37812
G1 X186.481 Y161.937 E4.40258
G1 X186.356 Y162.953 E4.43663
G1 X186.283 Y163.411 E4.45205
G1 X186.151 Y164.115 E4.47587
G1 X185.995 Y164.822 E4.49995
G1 X185.798 Y165.575 E4.52584
G1 X185.511 Y166.518 E4.55863
G1 X185.269 Y167.209 E4.58298
G1 X184.998 Y167.904 E4.60779
G1 X184.703 Y168.586 E4.6325
G1 X184.399 Y169.229 E4.65616
G1 X184.059 Y169.89 E4.68088
G1 X183.835 Y170.296 E4.69631
G1 X183.457 Y170.935 E4.721
G1 X183.074 Y171.538 E4.74476
G1 X182.636 Y172.174 E4.77044
G1 X182.203 Y172.757 E4.7946
G1 X181.757 Y173.318 E4.81843
G1 X181.263 Y173.896 E4.84372
G1 X180.787 Y174.416 E4.86717
G1 X180.573 Y174.638 E4.87743
G1 X180.075 Y175.131 E4.90073
G1 X179.515 Y175.65 E4.92613
G1 X178.983 Y176.11 E4.94952
G1 X178.381 Y176.595 E4.97523
G1 X178.01 Y176.875 E4.99069
G1 X177.204 Y177.443 E5.02349
G1 X176.577 Y177.848 E5.04831
G1 X176.178 Y178.089 E5.06382
G1 X175.536 Y178.451 E5.08833
G1 X174.895 Y178.786 E5.11239
G1 X173.985 Y179.215 E5.14585
G1 X173.559 Y179.398 E5.16127
G1 X172.868 Y179.671 E5.18598
G1 X172.196 Y179.911 E5.20971
G1 X171.899 Y180.009 E5.22012
G1 X171.221 Y180.214 E5.24367
G1 X170.502 Y180.405 E5.26842
G1 X169.789 Y180.568 E5.29274
G1 X169.037 Y180.712 E5.31821
G1 X168.51 Y180.796 E5.33596
G1 X167.576 Y180.913 E5.36727
G1 X166.763 Y180.979 E5.3944
G1 X166.053 Y181.012 E5.41804
G1 X165.395 Y181.021 E5.43992
G1 X164.562 Y181.005 E5.46763
G1 X164.099 Y180.981 E5.48305
G1 X163.08 Y180.892 E5.51708
G1 X162.356 Y180.798 E5.54136
G1 X161.896 Y180.725 E5.55685
G1 X161.203 Y180.596 E5.58029
G1 X160.89 Y180.53 E5.59093
G1 X160.198 Y180.365 E5.61459
G1 X159.749 Y180.245 E5.63005
G1 X159.054 Y180.038 E5.65417
G1 X158.342 Y179.799 E5.67915
G1 X157.399 Y179.438 E5.71274
G1 X156.731 Y179.15 E5.73693
G1 X156.311 Y178.955 E5.75233
G1 X155.648 Y178.623 E5.77699
G1 X154.759 Y178.132 E5.81077
G1 X154.163 Y177.77 E5.83397
G1 X153.772 Y177.519 E5.84942
G1 X153.129 Y177.076 E5.87539
G1 X152.557 Y176.652 E5.89907
G1 X151.992 Y176.205 E5.92303
G1 X151.406 Y175.704 E5.94868
G1 X150.878 Y175.22 E5.9725
G1 X150.352 Y174.704 E5.99701
G1 X149.717 Y174.029 E6.02783
G1 X149.702 Y174.631 E6.04786
G1 X149.665 Y175.251 E6.06852
G1 X149.604 Y175.892 E6.08993
G1 X149.521 Y176.528 E6.11127
G1 X149.413 Y177.171 E6.13295
G1 X149.205 Y178.141 E6.16595
G1 X149.116 Y178.492 E6.17799
G1 X148.888 Y179.282 E6.20534
G1 X148.69 Y179.878 E6.22623
G1 X148.566 Y180.22 E6.23833
G1 X148.333 Y180.811 E6.25946
G1 X148.213 Y181.093 E6.26965
G1 X147.963 Y181.642 E6.28971
G1 X147.804 Y181.969 E6.30181
G1 X147.507 Y182.538 E6.32315
G1 X147.159 Y183.149 E6.34654
G1 X146.994 Y183.421 E6.35712
G1 X146.655 Y183.947 E6.37794
G1 X146.45 Y184.247 E6.39002
G1 X146.072 Y184.767 E6.4114
G1 X145.691 Y185.257 E6.43205
G1 X145.427 Y185.574 E6.44577
G1 X144.947 Y186.12 E6.46995
G1 X144.561 Y186.528 E6.48863
G1 X144.043 Y187.038 E6.51281
G1 X143.733 Y187.327 E6.5269
G1 X143.249 Y187.748 E6.54824
G1 X142.783 Y188.126 E6.5682
G1 X142.252 Y188.528 E6.59035
G1 X141.751 Y188.881 E6.61073
G1 X141.196 Y189.242 E6.63275
G1 X140.656 Y189.567 E6.65372
G1 X140.103 Y189.874 E6.67475
G1 X139.54 Y190.162 E6.69579
G1 X139.211 Y190.319 E6.70791
G1 X138.815 Y190.494 E6.72231
G1 X138.143 Y190.77 E6.74647
G1 X137.782 Y190.908 E6.75933
G1 X137.176 Y191.118 E6.78066
G1 X136.543 Y191.31 E6.80266
G1 X135.945 Y191.469 E6.82324
G1 X135.592 Y191.553 E6.83531
G1 X134.693 Y191.734 E6.86581
G1 X134.043 Y191.835 E6.88769
G1 X133.344 Y191.918 E6.9111
G1 X132.982 Y191.95 E6.92319
G1 X132.338 Y191.988 E6.94464
G1 X131.698 Y192.004 E6.96594
G1 X130.799 Y191.989 E6.99584
G1 X130.157 Y191.951 E7.01723
G1 X129.514 Y191.889 E7.03872
G1 X128.892 Y191.807 E7.05958
G1 X128.259 Y191.701 E7.08093
G1 X127.648 Y191.577 E7.10167
G1 X127.005 Y191.423 E7.12366
G1 X126.655 Y191.328 E7.13572
G1 X126.053 Y191.147 E7.15663
G1 X125.463 Y190.948 E7.17734
G1 X124.849 Y190.716 E7.19917
G1 X124.01 Y190.356 E7.22954
G1 X123.448 Y190.087 E7.25026
G1 X122.871 Y189.785 E7.27192
G1 X122.334 Y189.48 E7.29246
G1 X121.786 Y189.144 E7.31384
G1 X121.483 Y188.946 E7.32588
G1 X120.945 Y188.571 E7.34769
G1 X120.222 Y188.021 E7.3779
G1 X119.72 Y187.604 E7.39961
G1 X119.448 Y187.364 E7.41167
G1 X118.796 Y186.749 E7.44149
G1 X118.371 Y186.315 E7.46169
G1 X118.124 Y186.049 E7.47376
G1 X117.834 Y185.718 E7.4884
G1 X117.37 Y185.158 E7.51259
G1 X116.908 Y184.555 E7.53785
G1 X116.665 Y184.211 E7.55186
G1 X116.263 Y183.607 E7.57599
G1 X116.041 Y183.254 E7.58986
G1 X115.856 Y182.941 E7.60196
G1 X115.524 Y182.341 E7.62476
G1 X115.374 Y182.052 E7.63559
G1 X115.095 Y181.474 E7.65694
G1 X114.854 Y180.93 E7.67673
G1 X114.606 Y180.315 E7.69878
G1 X114.384 Y179.699 E7.72056
G1 X114.271 Y179.354 E7.73264
G1 X114.095 Y178.765 E7.75308
G1 X113.868 Y177.874 E7.78367
G1 X113.737 Y177.245 E7.80503
G1 X113.628 Y176.603 E7.82669
G1 X113.545 Y175.989 E7.8473
G1 X113.482 Y175.369 E7.86803
G1 X113.455 Y175.006 E7.88013
G1 X113.42 Y174.086 E7.91076
G1 X113.423 Y173.445 E7.93208
G1 X113.45 Y172.801 E7.95351
G1 X113.496 Y172.185 E7.97406
G1 X113.567 Y171.54 E7.99564
G1 X113.663 Y170.889 E8.01753
G1 X113.792 Y170.193 E8.04107
G1 X113.869 Y169.837 E8.05319
G1 X114.026 Y169.202 E8.07494
G1 X114.177 Y168.668 E8.0934
G1 X114.36 Y168.089 E8.1136
G1 X114.575 Y167.484 E8.13495
G1 X114.808 Y166.894 E8.15605
G1 X115.065 Y166.305 E8.17742
G1 X115.371 Y165.67 E8.20087
G1 X115.624 Y165.184 E8.21909
G1 X115.776 Y164.91 E8.22951
G1 X116.144 Y164.289 E8.25352
G1 X116.483 Y163.763 E8.27434
G1 X116.857 Y163.225 E8.29613
G1 X117.073 Y162.933 E8.30821
G1 X117.45 Y162.45 E8.32859
G1 X117.866 Y161.953 E8.35014
G1 X118.283 Y161.489 E8.37089
G1 X118.735 Y161.021 E8.39253
G1 X119.383 Y160.404 E8.42229
G1 X119.889 Y159.962 E8.44464
G1 X120.494 Y159.476 E8.47045
G1 X120.086 Y158.844 E8.49547
G1 X119.713 Y158.22 E8.51965
G1 X119.486 Y157.815 E8.53509
G1 X119.141 Y157.155 E8.55986
G1 X118.714 Y156.247 E8.59324
G1 X118.531 Y155.821 E8.60866
G1 X118.261 Y155.138 E8.63308
G1 X118.012 Y154.442 E8.65767
G1 X117.786 Y153.726 E8.68264
G1 X117.59 Y153.022 E8.70695
G1 X117.421 Y152.327 E8.73074
G1 X117.355 Y152.022 E8.74112
G1 X117.205 Y151.229 E8.76796
G1 X117.095 Y150.508 E8.79222
G1 X117.016 Y149.84 E8.81459
G1 X116.969 Y149.31 E8.83229
G1 X116.925 Y148.579 E8.85664
G1 X116.908 Y147.917 E8.87867
G1 X116.914 Y147.125 E8.90501
G1 X116.949 Y146.344 E8.93101
G1 X117.007 Y145.629 E8.95487
G1 X117.091 Y144.898 E8.97935
G1 X117.251 Y143.891 E9.01326
G1 F2700 E4.01326
G0 F6000 X117.307 Y147.909
G1 F2700 E9.01326
G1 F1200 X117.314 Y147.131 E9.03914
G1 X117.324 Y146.831 E9.04912
G1 X117.365 Y146.126 E9.07261
G1 X117.405 Y145.663 E9.08807
G1 X117.488 Y144.947 E9.11204
G1 X117.643 Y143.967 E9.14504
G1 X117.732 Y143.51 E9.16053
G1 X117.952 Y142.556 E9.19309
G1 X118.14 Y141.87 E9.21675
G1 X118.352 Y141.186 E9.24056
G1 X118.502 Y140.747 E9.25599
G1 X118.755 Y140.072 E9.27997
G1 X119.046 Y139.374 E9.30512
G1 X119.336 Y138.742 E9.32825
G1 X119.655 Y138.102 E9.35203
G1 X120.003 Y137.462 E9.37626
G1 X120.499 Y136.633 E9.40839
G1 X120.908 Y136.009 E9.43321
G1 X121.324 Y135.421 E9.45717
G1 X121.758 Y134.85 E9.48102
G1 X122.223 Y134.281 E9.50546
G1 X122.527 Y133.931 E9.52088
G1 X122.995 Y133.42 E9.54393
G1 X123.508 Y132.896 E9.56832
G1 X124.233 Y132.217 E9.60135
G1 X124.758 Y131.764 E9.62442
G1 X125.117 Y131.47 E9.63985
G1 X125.709 Y131.015 E9.66469
G1 X126.305 Y130.591 E9.68901
G1 X127.111 Y130.064 E9.72104
G1 X127.736 Y129.691 E9.74525
G1 X128.141 Y129.465 E9.76068
G1 X128.776 Y129.134 E9.78449
G1 X129.439 Y128.817 E9.80894
G1 X130.08 Y128.537 E9.8322
G1 X130.986 Y128.185 E9.86453
G1 X131.702 Y127.94 E9.8897
G1 X132.376 Y127.736 E9.91312
G1 X133.078 Y127.549 E9.93728
G1 X133.792 Y127.386 E9.96164
G1 X134.315 Y127.283 E9.97937
G1 X135.045 Y127.162 E10.00398
G1 X135.679 Y127.079 E10.02525
G1 X136.574 Y126.997 E10.05514
G1 X136.555 Y126.285 E10.07883
G1 X136.56 Y125.698 E10.09836
G1 X136.588 Y125.05 E10.11993
G1 X136.667 Y124.158 E10.14971
G1 X136.747 Y123.548 E10.17018
G1 X136.85 Y122.93 E10.19101
G1 X136.92 Y122.573 E10.20311
G1 X137.122 Y121.704 E10.23279
G1 X137.288 Y121.111 E10.25327
G1 X137.47 Y120.532 E10.27346
G1 X137.685 Y119.926 E10.29484
G1 X137.913 Y119.349 E10.31548
G1 X138.056 Y119.015 E10.32756
G1 X138.32 Y118.445 E10.34845
G1 X138.594 Y117.901 E10.36871
G1 X138.896 Y117.35 E10.38961
G1 X139.212 Y116.819 E10.41016
G1 X139.548 Y116.296 E10.43084
G1 X140.056 Y115.577 E10.46012
G1 X140.448 Y115.068 E10.48149
G1 X140.855 Y114.579 E10.50265
G1 X141.095 Y114.307 E10.51471
G1 X141.691 Y113.674 E10.54363
G1 X142.115 Y113.26 E10.56334
G1 X142.382 Y113.012 E10.57546
G1 X142.697 Y112.736 E10.58939
G1 X143.257 Y112.272 E10.61358
G1 X143.843 Y111.822 E10.63815
G1 X144.384 Y111.444 E10.6601
G1 X145.102 Y110.984 E10.68847
G1 X145.645 Y110.668 E10.70936
G1 X146.283 Y110.327 E10.73342
G1 X146.849 Y110.054 E10.75432
G1 X147.382 Y109.818 E10.77371
G1 X147.987 Y109.574 E10.79541
G1 X148.576 Y109.362 E10.81623
G1 X149.157 Y109.175 E10.83653
G1 X149.506 Y109.073 E10.84862
