;FLAVOR:Marlin
;TIME:1479
;Filament used: 1.00716m
;Layer height: 0.2
;MINX:135.95
;MINY:124.002
;MINZ:0.2
;MAXX:164.049
;MAXY:175.998
;MAXZ:5
;Generated with Cura_SteamEngine main
M140 S65
M105
M190 S65
M104 S212
M105
M109 S212
M82 ;absolute extrusion mode
M201 X500.00 Y500.00 Z100.00 E5000.00 ;Setup machine max acceleration
M203 X500.00 Y500.00 Z10.00 E50.00 ;Setup machine max feedrate
M204 P500.00 R1000.00 T500.00 ;Setup Print/Retract/Travel acceleration
M205 X8.00 Y8.00 Z0.40 E5.00 ;Setup Jerk
M220 S100 ;Reset Feedrate
M221 S100 ;Reset Flowrate

G28 ;Home
G29 ;Auto bed Level

G92 E0 ;Reset Extruder
G1 Z2.0 F3000 ;Move Z Axis up
G1 X10.1 Y20 Z0.28 F5000.0 ;Move to start position
G1 X10.1 Y200.0 Z0.28 F1500.0 E15 ;Draw the first line
G1 X10.4 Y200.0 Z0.28 F5000.0 ;Move to side a little
G1 X10.4 Y20 Z0.28 F1500.0 E30 ;Draw the second line
G92 E0 ;Reset Extruder
G1 Z2.0 F3000 ;Move Z Axis up

G92 E0
G92 E0
G1 F2700 E-5
;LAYER_COUNT:25
;LAYER:0
M107
;MESH:Buttoncap.stl
G0 F6000 X144.043 Y128.369 Z0.2
;TYPE:WALL-INNER
G1 F2700 E0
G1 F1200 X143.814 Y128.581 E0.01038
G1 X143.592 Y128.801 E0.02077
G1 X143.376 Y129.03 E0.03124
G1 X143.168 Y129.267 E0.04173
G1 X142.971 Y129.509 E0.05211
G1 X142.782 Y129.758 E0.06251
G1 X142.601 Y130.016 E0.07299
G1 X142.429 Y130.279 E0.08344
G1 X142.265 Y130.55 E0.09398
G1 X142.11 Y130.826 E0.10451
G1 X141.967 Y131.104 E0.1149
G1 X141.832 Y131.389 E0.12539
G1 X141.704 Y131.689 E0.13624
G1 X141.495 Y132.266 E0.15665
G1 X141.319 Y132.872 E0.17764
G1 X141.187 Y133.486 E0.19853
G1 X141.138 Y133.796 E0.20897
G1 X141.099 Y134.107 E0.21939
G1 X141.055 Y134.735 E0.24033
G1 X141.056 Y135.363 E0.26122
G1 X141.1 Y135.991 E0.28216
G1 X141.145 Y136.348 E0.29413
G1 X141.196 Y136.655 E0.30448
G1 X141.257 Y136.955 E0.31466
G1 X141.417 Y137.589 E0.33641
G1 X141.506 Y137.872 E0.34627
G1 X141.728 Y138.465 E0.36733
G1 X141.853 Y138.754 E0.37781
G1 X141.988 Y139.04 E0.38833
G1 X142.132 Y139.317 E0.39871
G1 X142.284 Y139.587 E0.40901
G1 X142.626 Y140.12 E0.43008
G1 X142.809 Y140.377 E0.44057
G1 X142.999 Y140.625 E0.45096
G1 X143.198 Y140.866 E0.46136
G1 X143.408 Y141.103 E0.47189
G1 X143.627 Y141.334 E0.48248
G1 X143.849 Y141.553 E0.49285
G1 X144.317 Y141.965 E0.51359
G1 X144.566 Y142.162 E0.52415
G1 X144.819 Y142.348 E0.53459
G1 X145.333 Y142.687 E0.55507
G1 X145.901 Y143.005 E0.57672
G1 X146.218 Y143.16 E0.58846
G1 X146.508 Y143.29 E0.59903
G1 X146.807 Y143.412 E0.60977
G1 X147.392 Y143.609 E0.6303
G1 X147.953 Y143.761 E0.64963
G1 X148.309 Y143.838 E0.66175
G1 X148.617 Y143.892 E0.67215
G1 X148.926 Y143.935 E0.68252
G1 X149.554 Y143.989 E0.70349
G1 X149.865 Y143.999 E0.71384
G1 X150.182 Y143.998 E0.72438
G1 X150.492 Y143.986 E0.7347
G1 X150.806 Y143.963 E0.74517
G1 X151.121 Y143.929 E0.75571
G1 X151.43 Y143.885 E0.76609
G1 X151.737 Y143.83 E0.77646
G1 X152.344 Y143.687 E0.7972
G1 X152.656 Y143.597 E0.808
G1 X152.951 Y143.5 E0.81833
G1 X153.244 Y143.391 E0.82873
G1 X153.539 Y143.27 E0.83933
G1 X154.108 Y143.002 E0.86025
G1 X154.424 Y142.829 E0.87224
G1 X154.693 Y142.671 E0.88261
G1 X155.217 Y142.321 E0.90357
G1 X155.468 Y142.134 E0.91398
G1 X155.954 Y141.731 E0.93498
G1 X156.183 Y141.52 E0.94534
G1 X156.409 Y141.296 E0.95592
G1 X156.622 Y141.07 E0.96625
G1 X157.031 Y140.587 E0.9873
G1 X157.22 Y140.34 E0.99764
G1 X157.573 Y139.819 E1.01858
G1 X157.889 Y139.275 E1.0395
G1 X158.168 Y138.709 E1.06049
G1 X158.292 Y138.422 E1.07089
G1 X158.408 Y138.12 E1.08165
G1 X158.598 Y137.532 E1.1022
G1 X158.681 Y137.226 E1.11275
G1 X158.753 Y136.921 E1.12317
G1 X158.813 Y136.614 E1.13357
G1 X158.901 Y135.992 E1.15447
G1 X158.928 Y135.677 E1.16498
G1 X158.947 Y135.186 E1.18132
G1 X158.944 Y134.738 E1.19623
G1 X158.927 Y134.423 E1.20672
G1 X158.9 Y134.11 E1.21717
G1 X158.855 Y133.749 E1.22927
G1 X158.804 Y133.444 E1.23955
G1 X158.741 Y133.136 E1.25001
G1 X158.589 Y132.533 E1.27069
G1 X158.493 Y132.225 E1.28142
G1 X158.388 Y131.929 E1.29187
G1 X158.272 Y131.634 E1.30241
G1 X158.012 Y131.062 E1.32331
G1 X157.866 Y130.781 E1.33384
G1 X157.714 Y130.51 E1.34418
G1 X157.374 Y129.977 E1.3652
G1 X157.193 Y129.723 E1.37558
G1 X157.003 Y129.475 E1.38597
G1 X156.592 Y128.997 E1.40693
G1 X156.375 Y128.768 E1.41743
G1 X156.151 Y128.549 E1.42785
G1 X155.92 Y128.338 E1.43825
G1 X155.43 Y127.936 E1.45933
G1 X155.179 Y127.75 E1.46972
G1 X154.921 Y127.574 E1.48011
G1 X154.668 Y127.414 E1.49007
G1 X154.1 Y127.096 E1.51172
G1 X153.78 Y126.94 E1.52356
G1 X153.491 Y126.81 E1.5341
G1 X153.203 Y126.693 E1.54444
G1 X152.907 Y126.586 E1.55491
G1 X152.343 Y126.415 E1.57451
G1 X152.045 Y126.339 E1.58474
G1 X151.69 Y126.262 E1.59682
G1 X151.383 Y126.208 E1.60719
G1 X151.072 Y126.165 E1.61763
G1 X150.761 Y126.133 E1.62803
G1 X150.448 Y126.111 E1.63846
G1 X149.819 Y126.102 E1.65939
G1 X149.505 Y126.114 E1.66984
G1 X149.193 Y126.137 E1.68024
G1 X148.879 Y126.171 E1.69075
G1 X148.568 Y126.215 E1.70119
G1 X147.962 Y126.335 E1.72174
G1 X147.644 Y126.414 E1.73264
G1 X147.053 Y126.597 E1.75322
G1 X146.462 Y126.83 E1.77435
G1 X145.887 Y127.1 E1.79547
G1 X145.309 Y127.429 E1.8176
G1 X145.042 Y127.6 E1.82814
G1 X144.533 Y127.964 E1.84895
G1 X144.043 Y128.369 E1.8701
G0 F6000 X142.776 Y130.102
G0 X140.856 Y133.095
G1 F1200 X140.793 Y133.416 E1.88098
G1 X140.742 Y133.74 E1.89189
G1 X140.701 Y134.066 E1.90281
G1 X140.655 Y134.721 E1.92465
G1 X140.656 Y135.378 E1.94651
G1 X140.702 Y136.033 E1.96834
G1 X140.749 Y136.406 E1.98085
G1 X140.802 Y136.727 E1.99167
G1 X140.867 Y137.044 E2.00243
G1 X141.032 Y137.698 E2.02487
G1 X141.127 Y137.999 E2.03536
G1 X141.358 Y138.618 E2.05734
G1 X141.489 Y138.919 E2.06826
G1 X141.63 Y139.217 E2.07922
G1 X141.78 Y139.507 E2.09008
G1 X141.94 Y139.791 E2.10092
G1 X142.296 Y140.346 E2.12285
G1 X142.487 Y140.615 E2.13383
G1 X142.686 Y140.874 E2.14469
G1 X142.894 Y141.126 E2.15556
G1 X143.113 Y141.373 E2.16654
G1 X143.342 Y141.614 E2.1776
G1 X143.574 Y141.843 E2.18844
G1 X143.815 Y142.064 E2.19931
G1 X144.323 Y142.48 E2.22115
G1 X144.587 Y142.675 E2.23207
G1 X144.857 Y142.859 E2.24294
G1 X145.128 Y143.03 E2.25359
G1 X145.715 Y143.359 E2.27597
G1 X146.049 Y143.523 E2.28835
G1 X146.351 Y143.658 E2.29935
G1 X146.665 Y143.786 E2.31063
G1 X147.275 Y143.992 E2.33205
G1 X147.861 Y144.151 E2.35224
G1 X148.232 Y144.231 E2.36486
G1 X148.555 Y144.287 E2.37577
G1 X148.878 Y144.332 E2.38661
G1 X149.207 Y144.366 E2.39761
G1 X149.534 Y144.389 E2.40852
G1 X149.859 Y144.399 E2.41933
G1 X150.19 Y144.398 E2.43034
G1 X150.514 Y144.386 E2.44113
G1 X151.171 Y144.326 E2.46307
G1 X151.494 Y144.28 E2.47392
G1 X151.815 Y144.222 E2.48477
G1 X152.448 Y144.074 E2.50639
G1 X152.774 Y143.98 E2.51767
G1 X153.084 Y143.878 E2.52853
G1 X153.697 Y143.638 E2.55042
G1 X153.997 Y143.502 E2.56138
G1 X154.292 Y143.357 E2.57231
G1 X154.621 Y143.177 E2.58479
G1 X154.903 Y143.011 E2.59567
G1 X155.178 Y142.834 E2.60655
G1 X155.45 Y142.646 E2.61754
G1 X155.713 Y142.451 E2.62843
G1 X156.22 Y142.03 E2.65035
G1 X156.459 Y141.809 E2.66118
G1 X156.695 Y141.576 E2.67221
G1 X156.918 Y141.339 E2.68303
G1 X157.135 Y141.091 E2.69399
G1 X157.345 Y140.835 E2.70501
G1 X157.542 Y140.577 E2.7158
G1 X157.731 Y140.308 E2.72674
G1 X157.912 Y140.032 E2.73772
G1 X158.242 Y139.465 E2.75954
G1 X158.533 Y138.874 E2.78145
G1 X158.662 Y138.573 E2.79234
G1 X158.784 Y138.256 E2.80364
G1 X158.885 Y137.96 E2.81404
G1 X158.982 Y137.643 E2.82506
G1 X159.069 Y137.324 E2.83606
G1 X159.144 Y137.005 E2.84696
G1 X159.207 Y136.684 E2.85784
G1 X159.299 Y136.034 E2.87968
G1 X159.345 Y135.377 E2.90158
G1 X159.347 Y135.192 E2.90773
G1 X159.344 Y134.724 E2.9233
G1 X159.326 Y134.395 E2.93426
G1 X159.298 Y134.068 E2.94517
G1 X159.251 Y133.692 E2.95778
G1 X159.198 Y133.371 E2.9686
G1 X159.132 Y133.049 E2.97953
G1 X159.055 Y132.725 E2.99061
G1 X158.973 Y132.422 E3.00105
G1 X158.873 Y132.099 E3.01229
G1 X158.642 Y131.481 E3.03424
G1 X158.512 Y131.182 E3.04508
G1 X158.371 Y130.884 E3.05605
G1 X158.059 Y130.307 E3.07786
G1 X157.704 Y129.751 E3.0998
G1 X157.515 Y129.485 E3.11066
G1 X157.316 Y129.225 E3.12155
G1 X156.887 Y128.727 E3.14341
G1 X156.66 Y128.487 E3.1544
G1 X156.426 Y128.258 E3.16529
G1 X156.185 Y128.038 E3.17614
G1 X155.934 Y127.826 E3.18707
G1 X155.673 Y127.619 E3.19815
G1 X155.411 Y127.424 E3.20901
G1 X155.141 Y127.239 E3.2199
G1 X154.873 Y127.07 E3.23043
G1 X154.286 Y126.741 E3.25282
G1 X153.949 Y126.577 E3.26528
G1 X153.649 Y126.442 E3.27622
G1 X153.347 Y126.319 E3.28707
G1 X153.034 Y126.206 E3.29814
G1 X152.451 Y126.029 E3.3184
G1 X152.137 Y125.949 E3.32918
G1 X151.767 Y125.869 E3.34177
G1 X151.445 Y125.813 E3.35264
G1 X151.12 Y125.768 E3.36355
G1 X150.795 Y125.734 E3.37442
G1 X150.468 Y125.712 E3.38532
G1 X150.141 Y125.702 E3.3962
G1 X149.812 Y125.702 E3.40715
G1 X149.483 Y125.714 E3.41809
G1 X148.829 Y125.774 E3.43994
G1 X148.504 Y125.82 E3.45086
G1 X148.182 Y125.878 E3.46174
G1 X147.54 Y126.028 E3.48367
G1 X147.226 Y126.12 E3.49455
G1 X146.918 Y126.221 E3.50533
G1 X146.303 Y126.462 E3.5273
G1 X145.705 Y126.743 E3.54927
G1 X145.381 Y126.921 E3.56157
G1 X145.099 Y127.089 E3.57249
G1 X144.82 Y127.267 E3.5835
G1 X144.549 Y127.454 E3.59445
G1 X144.289 Y127.647 E3.60522
G1 X143.778 Y128.07 E3.62728
G1 X143.538 Y128.291 E3.63813
G1 X143.08 Y128.761 E3.65996
G1 X142.863 Y129.009 E3.67092
G1 X142.656 Y129.262 E3.68179
G1 X142.459 Y129.522 E3.69264
G1 X142.27 Y129.791 E3.70357
G1 X142.09 Y130.066 E3.71451
G1 X141.919 Y130.349 E3.7255
G1 X141.757 Y130.637 E3.73649
G1 X141.608 Y130.927 E3.74734
G1 X141.468 Y131.225 E3.75829
G1 X141.333 Y131.539 E3.76966
G1 X141.114 Y132.142 E3.79099
G1 X141.017 Y132.458 E3.80199
G1 X140.931 Y132.774 E3.81288
G1 X140.856 Y133.095 E3.82385
G0 F6000 X140.465 Y133.011
G1 F1200 X140.399 Y133.346 E3.8352
G1 X140.346 Y133.684 E3.84658
G1 X140.303 Y134.024 E3.85798
G1 X140.255 Y134.707 E3.88075
G1 X140.256 Y135.392 E3.90354
G1 X140.304 Y136.075 E3.92631
G1 X140.353 Y136.463 E3.93932
G1 X140.409 Y136.8 E3.95068
G1 X140.477 Y137.133 E3.96198
G1 X140.647 Y137.807 E3.9851
G1 X140.747 Y138.126 E3.99622
G1 X140.862 Y138.448 E4.00759
G1 X140.988 Y138.77 E4.01909
G1 X141.124 Y139.084 E4.03047
G1 X141.271 Y139.395 E4.04192
G1 X141.428 Y139.698 E4.05327
G1 X141.596 Y139.995 E4.06462
G1 X141.966 Y140.573 E4.08744
G1 X142.165 Y140.852 E4.09884
G1 X142.372 Y141.123 E4.11018
G1 X142.59 Y141.387 E4.12157
G1 X142.819 Y141.644 E4.13302
G1 X143.056 Y141.894 E4.14448
G1 X143.299 Y142.133 E4.15581
G1 X143.551 Y142.364 E4.16718
G1 X143.81 Y142.583 E4.17846
G1 X144.08 Y142.798 E4.18994
G1 X144.356 Y143.001 E4.20134
G1 X144.637 Y143.193 E4.21266
G1 X144.923 Y143.374 E4.22391
G1 X145.529 Y143.714 E4.24703
G1 X145.879 Y143.885 E4.25998
G1 X146.193 Y144.026 E4.27143
G1 X146.522 Y144.16 E4.28325
G1 X147.158 Y144.375 E4.30558
G1 X147.769 Y144.54 E4.32663
G1 X148.156 Y144.623 E4.33979
G1 X148.493 Y144.683 E4.35117
G1 X148.83 Y144.73 E4.36249
G1 X149.173 Y144.765 E4.37396
G1 X149.514 Y144.788 E4.38533
G1 X149.854 Y144.799 E4.39664
G1 X150.198 Y144.798 E4.40808
G1 X150.536 Y144.785 E4.41933
G1 X150.878 Y144.76 E4.43074
G1 X151.22 Y144.723 E4.44218
G1 X151.558 Y144.675 E4.45353
G1 X151.894 Y144.614 E4.46489
G1 X152.552 Y144.46 E4.48737
G1 X152.892 Y144.362 E4.49914
G1 X153.217 Y144.255 E4.51052
G1 X153.536 Y144.136 E4.52184
G1 X153.855 Y144.005 E4.53331
G1 X154.167 Y143.864 E4.5447
G1 X154.476 Y143.713 E4.55614
G1 X154.818 Y143.525 E4.56912
G1 X155.113 Y143.352 E4.58049
G1 X155.683 Y142.972 E4.60328
G1 X155.958 Y142.767 E4.61469
G1 X156.486 Y142.329 E4.6375
G1 X156.736 Y142.098 E4.64883
G1 X156.981 Y141.855 E4.6603
G1 X157.214 Y141.608 E4.6716
G1 X157.441 Y141.35 E4.68303
G1 X157.659 Y141.083 E4.69449
G1 X157.865 Y140.813 E4.70579
G1 X158.062 Y140.533 E4.71717
G1 X158.25 Y140.245 E4.72861
G1 X158.426 Y139.954 E4.73992
G1 X158.595 Y139.654 E4.75138
G1 X158.898 Y139.038 E4.77421
G1 X159.033 Y138.724 E4.78558
G1 X159.16 Y138.393 E4.79737
G1 X159.266 Y138.084 E4.80823
G1 X159.367 Y137.754 E4.81971
G1 X159.457 Y137.422 E4.83115
G1 X159.535 Y137.089 E4.84253
G1 X159.601 Y136.754 E4.85388
G1 X159.697 Y136.076 E4.87666
G1 X159.745 Y135.391 E4.8995
G1 X159.747 Y135.197 E4.90595
G1 X159.744 Y134.71 E4.92215
G1 X159.725 Y134.367 E4.93357
G1 X159.696 Y134.026 E4.94496
G1 X159.647 Y133.635 E4.95806
G1 X159.591 Y133.298 E4.96943
G1 X159.523 Y132.963 E4.9808
G1 X159.443 Y132.627 E4.99228
G1 X159.357 Y132.31 E5.00321
G1 X159.252 Y131.972 E5.01498
G1 X159.137 Y131.649 E5.02638
G1 X159.012 Y131.329 E5.03781
G1 X158.876 Y131.016 E5.04916
G1 X158.729 Y130.706 E5.06057
G1 X158.57 Y130.4 E5.07204
G1 X158.403 Y130.104 E5.08335
G1 X158.224 Y129.812 E5.09474
G1 X158.034 Y129.525 E5.10618
G1 X157.837 Y129.248 E5.11749
G1 X157.628 Y128.976 E5.1289
G1 X157.411 Y128.714 E5.14021
G1 X157.181 Y128.456 E5.15171
G1 X156.945 Y128.207 E5.16312
G1 X156.7 Y127.968 E5.1745
G1 X156.449 Y127.738 E5.18583
G1 X156.188 Y127.516 E5.19722
G1 X155.643 Y127.098 E5.22007
G1 X155.361 Y126.905 E5.23143
G1 X155.078 Y126.726 E5.24257
G1 X154.471 Y126.386 E5.26571
G1 X154.119 Y126.215 E5.27873
G1 X153.806 Y126.074 E5.29015
G1 X153.49 Y125.946 E5.30149
G1 X153.16 Y125.826 E5.31316
G1 X152.558 Y125.644 E5.33408
G1 X152.229 Y125.56 E5.34538
G1 X151.844 Y125.477 E5.35847
G1 X151.507 Y125.417 E5.36986
G1 X151.168 Y125.37 E5.38124
G1 X150.829 Y125.335 E5.39258
G1 X150.488 Y125.312 E5.40395
G1 X149.804 Y125.302 E5.4267
G1 X149.461 Y125.315 E5.43811
G1 X149.12 Y125.34 E5.44949
G1 X148.78 Y125.377 E5.46086
G1 X148.44 Y125.425 E5.47228
G1 X148.104 Y125.486 E5.48364
G1 X147.78 Y125.556 E5.49466
G1 X147.435 Y125.642 E5.50649
G1 X147.107 Y125.738 E5.51786
G1 X146.782 Y125.844 E5.52923
G1 X146.145 Y126.095 E5.552
G1 X145.524 Y126.387 E5.57482
G1 X145.183 Y126.574 E5.58776
G1 X144.889 Y126.748 E5.59912
G1 X144.599 Y126.934 E5.61058
G1 X144.316 Y127.129 E5.62201
G1 X144.045 Y127.33 E5.63323
G1 X143.774 Y127.547 E5.64478
G1 X143.512 Y127.771 E5.65625
G1 X143.261 Y128.002 E5.66759
G1 X143.019 Y128.242 E5.67893
G1 X142.784 Y128.492 E5.69034
G1 X142.558 Y128.75 E5.70175
G1 X142.342 Y129.014 E5.71309
G1 X142.135 Y129.286 E5.72446
G1 X141.938 Y129.567 E5.73587
G1 X141.752 Y129.853 E5.74722
G1 X141.574 Y130.147 E5.75865
G1 X141.405 Y130.447 E5.77011
G1 X141.249 Y130.751 E5.78147
G1 X141.103 Y131.061 E5.79287
G1 X140.962 Y131.389 E5.80474
G1 X140.734 Y132.018 E5.82699
G1 X140.633 Y132.346 E5.83841
G1 X140.543 Y132.676 E5.84979
G1 X140.465 Y133.011 E5.86123
G0 F6000 X140.074 Y132.927
;TYPE:WALL-OUTER
G1 F1200 X140.005 Y133.276 E5.87306
G1 X139.95 Y133.628 E5.88491
G1 X139.905 Y133.982 E5.89678
G1 X139.855 Y134.693 E5.92048
G1 X139.856 Y135.406 E5.9442
G1 X139.906 Y136.117 E5.9679
G1 X139.957 Y136.521 E5.98145
G1 X140.015 Y136.872 E5.99328
G1 X140.087 Y137.222 E6.00517
G1 X140.262 Y137.916 E6.02897
G1 X140.368 Y138.254 E6.04075
G1 X140.618 Y138.922 E6.06447
G1 X140.76 Y139.249 E6.07633
G1 X140.913 Y139.573 E6.08825
G1 X141.076 Y139.888 E6.10005
G1 X141.252 Y140.199 E6.11193
G1 X141.439 Y140.501 E6.12375
G1 X141.636 Y140.799 E6.13563
G1 X141.843 Y141.09 E6.1475
G1 X142.059 Y141.372 E6.15932
G1 X142.286 Y141.647 E6.17118
G1 X142.524 Y141.914 E6.18308
G1 X142.77 Y142.174 E6.19498
G1 X143.023 Y142.423 E6.20679
G1 X143.287 Y142.664 E6.21868
G1 X143.556 Y142.893 E6.23043
G1 X143.837 Y143.116 E6.24236
G1 X144.124 Y143.327 E6.25421
G1 X144.417 Y143.527 E6.266
G1 X144.718 Y143.718 E6.27786
G1 X145.343 Y144.068 E6.30169
G1 X145.709 Y144.247 E6.31524
G1 X146.036 Y144.394 E6.32716
G1 X146.38 Y144.534 E6.33952
G1 X147.041 Y144.757 E6.36272
G1 X147.677 Y144.93 E6.38464
G1 X148.079 Y145.016 E6.39831
G1 X148.431 Y145.078 E6.4102
G1 X148.782 Y145.127 E6.42199
G1 X149.139 Y145.163 E6.43392
G1 X149.494 Y145.188 E6.44576
G1 X149.848 Y145.199 E6.45754
G1 X150.206 Y145.198 E6.46945
G1 X150.558 Y145.185 E6.48116
G1 X150.914 Y145.158 E6.49304
G1 X151.27 Y145.12 E6.50494
G1 X151.622 Y145.07 E6.51677
G1 X151.972 Y145.006 E6.5286
G1 X152.322 Y144.93 E6.54052
G1 X152.656 Y144.846 E6.55197
G1 X153.01 Y144.744 E6.56422
G1 X153.349 Y144.633 E6.57609
G1 X153.682 Y144.508 E6.58792
G1 X154.013 Y144.373 E6.59981
G1 X154.338 Y144.226 E6.61167
G1 X154.66 Y144.068 E6.6236
G1 X155.016 Y143.873 E6.6371
