;FLAVOR:Marlin
;TIME:2358
;Filament used: 1.2167m
;Layer height: 0.2
;MINX:125.289
;MINY:133.116
;MINZ:0.24
;MAXX:174.25
;MAXY:173.351
;MAXZ:29.89
;Generated with Cura_SteamEngine main
M140 S65
M105
M190 S65
M104 S212
M105
M109 S212
M82 ;absolute extrusion mode
M201 X500.00 Y500.00 Z100.00 E5000.00 ;Setup machine max acceleration
M203 X500.00 Y500.00 Z10.00 E50.00 ;Setup machine max feedrate
M204 P500.00 R1000.00 T500.00 ;Setup Print/Retract/Travel acceleration
M205 X8.00 Y8.00 Z0.40 E5.00 ;Setup Jerk
M220 S100 ;Reset Feedrate
M221 S100 ;Reset Flowrate

G28 ;Home
G29 ;Auto bed Level

G92 E0 ;Reset Extruder
G1 Z2.0 F3000 ;Move Z Axis up
G1 X10.1 Y20 Z0.28 F5000.0 ;Move to start position
G1 X10.1 Y200.0 Z0.28 F1500.0 E15 ;Draw the first line
G1 X10.4 Y200.0 Z0.28 F5000.0 ;Move to side a little
G1 X10.4 Y20 Z0.28 F1500.0 E30 ;Draw the second line
G92 E0 ;Reset Extruder
G1 Z2.0 F3000 ;Move Z Axis up

G92 E0
G92 E0
G1 F2700 E-5
;LAYER_COUNT:144
;LAYER:-6
M107
G0 F9000 X135.523 Y139.994 Z0.24
;TYPE:SUPPORT-INTERFACE
G1 F2700 E0
G1 F1125 X134.821 Y140.804 E0.08556
G1 X134.143 Y141.718 E0.1764
G1 X133.645 Y142.498 E0.25027
G1 X133.531 Y142.692 E0.26824
G1 X133.145 Y143.259 E0.32299
G1 X132.709 Y143.75 E0.3754
G1 X131.305 Y144.958 E0.52325
G1 X130.558 Y145.7 E0.6073
G1 X129.853 Y146.513 E0.6932
G1 X129.18 Y147.42 E0.78335
G1 X128.646 Y148.261 E0.86287
G1 X128.107 Y149.267 E0.95398
G1 X127.689 Y150.195 E1.03522
G1 X127.304 Y151.264 E1.12592
G1 X127.084 Y151.946 E1.18312
G1 X126.863 Y152.691 E1.24515
G1 X126.621 Y153.726 E1.33
G1 X126.464 Y154.696 E1.40844
G1 X126.369 Y155.763 E1.49395
G1 X126.353 Y156.839 E1.57985
G1 X126.415 Y157.893 E1.66413
G1 X126.557 Y158.963 E1.75029
G1 X126.793 Y160.068 E1.84048
G1 X127.069 Y161.041 E1.92122
G1 X127.324 Y161.828 E1.98725
G1 X127.519 Y162.39 E2.03474
G1 X127.955 Y163.446 E2.12593
G1 X128.437 Y164.406 E2.21168
G1 X128.981 Y165.311 E2.29597
G1 X129.591 Y166.18 E2.38072
G1 X130.268 Y167.008 E2.4661
G1 X131.063 Y167.839 E2.5579
G1 X131.847 Y168.546 E2.64217
G1 X132.603 Y169.14 E2.71891
G1 X133.29 Y169.641 E2.78679
G1 X133.981 Y170.116 E2.85372
G1 X134.908 Y170.671 E2.93997
G1 X135.726 Y171.088 E3.01326
G1 X136.716 Y171.511 E3.0992
G1 X137.789 Y171.876 E3.18967
G1 X138.807 Y172.139 E3.2736
G1 X139.857 Y172.329 E3.35877
G1 X140.886 Y172.44 E3.44139
G1 X142.133 Y172.529 E3.54118
G1 X142.67 Y172.596 E3.58438
G1 X143.652 Y172.768 E3.66396
G1 X144.819 Y172.929 E3.758
G1 X145.808 Y172.989 E3.83709
G1 X146.928 Y172.981 E3.9265
G1 X147.825 Y172.939 E3.99818
G1 X148.706 Y172.968 E4.06854
G1 X149.482 Y173.057 E4.13089
G1 X151.777 Y173.24 E4.31467
G1 X152.366 Y173.274 E4.36176
G1 X154.631 Y173.351 E4.54267
G1 X155.834 Y173.346 E4.6387
G1 X156.849 Y173.26 E4.72001
G1 X159.31 Y172.963 E4.91788
G1 X160.508 Y172.765 E5.01481
G1 X161.631 Y172.48 E5.1073
G1 X162.461 Y172.209 E5.17699
G1 X163.546 Y171.77 E5.27042
G1 X164.565 Y171.255 E5.36156
G1 X165.403 Y170.755 E5.43946
G1 X166.316 Y170.119 E5.52828
G1 X167.072 Y169.549 E5.60385
G1 X168.216 Y168.595 E5.72276
G1 X168.914 Y167.904 E5.80116
G1 X169.675 Y167.04 E5.89307
G1 X170.319 Y166.183 E5.97864
G1 X170.846 Y165.358 E6.05678
G1 X171.359 Y164.424 E6.14184
G1 X171.841 Y163.372 E6.23421
G1 X172.211 Y162.362 E6.32008
G1 X172.476 Y161.543 E6.38879
G1 X172.645 Y160.98 E6.43571
G1 X172.925 Y159.802 E6.53236
G1 X173.071 Y158.896 E6.60562
G1 X173.17 Y157.826 E6.69139
G1 X173.18 Y157.283 E6.73475
G1 X173.189 Y156.76 E6.7765
G1 X173.128 Y155.621 E6.86755
G1 X172.985 Y154.563 E6.95277
G1 X172.748 Y153.452 E7.04345
G1 X172.46 Y152.443 E7.12721
G1 X172.197 Y151.637 E7.19489
G1 X172.032 Y151.168 E7.23458
G1 X171.587 Y150.086 E7.32797
G1 X171.11 Y149.137 E7.41275
G1 X170.562 Y148.225 E7.49768
G1 X169.953 Y147.358 E7.58226
G1 X169.276 Y146.53 E7.66763
G1 X168.48 Y145.697 E7.7596
G1 X167.694 Y144.988 E7.8441
G1 X166.94 Y144.396 E7.92062
G1 X166.274 Y143.909 E7.98648
G1 X164.905 Y143.012 E8.11713
G1 X164.286 Y142.561 E8.17827
G1 X163.797 Y142.088 E8.23257
G1 X163.372 Y141.561 E8.28661
G1 X163.019 Y141.071 E8.33482
G1 X162.347 Y140.259 E8.41896
G1 X161.603 Y139.482 E8.50483
G1 X160.883 Y138.825 E8.58263
G1 X160.002 Y138.135 E8.67196
G1 X158.46 Y137.013 E8.82419
G1 X157.931 Y136.644 E8.87567
G1 X156.956 Y136.045 E8.96701
G1 X156.01 Y135.559 E9.05191
G1 X155.025 Y135.141 E9.13732
G1 X154.021 Y134.801 E9.22194
G1 X152.917 Y134.517 E9.31293
G1 X152.035 Y134.354 E9.38453
G1 X150.961 Y134.229 E9.47084
G1 X149.829 Y134.182 E9.56128
G1 X147.865 Y134.182 E9.71806
G1 X147.242 Y134.194 E9.76779
G1 X146.091 Y134.283 E9.85995
G1 X145.132 Y134.434 E9.93744
G1 X144.002 Y134.689 E10.02991
G1 X142.906 Y135.034 E10.12163
G1 X141.989 Y135.393 E10.20024
G1 X141.021 Y135.859 E10.286
G1 X140.176 Y136.342 E10.36369
G1 X139.262 Y136.952 E10.45141
G1 X137.65 Y138.124 E10.6105
G1 X137.02 Y138.606 E10.67382
G1 X136.269 Y139.252 E10.75289
G1 X135.523 Y139.994 E10.83688
G0 F9000 X135.78 Y140.306
G1 F1125 X165.602 Y170.127 E14.20339
G0 F9000 X166.903 Y169.166
G1 F1125 X136.939 Y139.202 E17.58599
G0 F9000 X138.211 Y138.211
G1 F1125 X168.123 Y168.123 E20.96271
G0 F9000 X169.217 Y166.954
G1 F1125 X139.522 Y137.259 E24.31494
G0 F9000 X140.908 Y136.383
G1 F1125 X170.18 Y165.655 E27.61941
G0 F9000 X171.01 Y164.222
G1 F1125 X142.436 Y135.647 E30.84515
G0 F9000 X144.123 Y135.072
G1 F1125 X171.685 Y162.634 E33.95659
G0 F9000 X172.242 Y160.929
G1 F1125 X146.014 Y134.701 E36.91743
G0 F9000 X148.158 Y134.582
G1 F1125 X172.638 Y159.062 E39.68095
G0 F9000 X172.785 Y156.946
G1 F1125 X150.447 Y134.608 E42.20265
G0 F9000 X153.072 Y134.97
G1 F1125 X172.551 Y154.449 E44.40161
G0 F9000 X171.645 Y151.281
G1 F1125 X156.759 Y136.394 E46.08213
G1 F2700 E41.08213
G0 F9000 X157.4 Y135.076
G0 X155.52 Y134.194
G0 X154.23 Y133.754
G0 X152.203 Y133.302
G0 X150.877 Y133.155
G0 X147 Y133.141
G0 X144.942 Y133.385
G0 X143.631 Y133.688
G0 X141.67 Y134.376
G0 X140.44 Y134.964
G0 X138.554 Y136.147
G0 X136.342 Y137.785
G0 X135.106 Y138.928
G0 X133.934 Y140.213
G0 X134.763 Y141.552
G1 F2700 E46.08213
G1 F1125 X164.2 Y170.989 E49.40523
G0 F9000 X162.648 Y171.699
G1 F1125 X133.86 Y142.911 E52.65507
G0 F9000 X132.846 Y144.159
G1 F1125 X160.93 Y172.244 E55.82549
G0 F9000 X159.017 Y172.594
G1 F1125 X131.63 Y145.206 E58.91723
G0 F9000 X130.517 Y146.356
G1 F1125 X156.998 Y172.837 E61.90663
G0 F9000 X154.846 Y172.948
G1 F1125 X129.524 Y147.626 E64.7652
G0 F9000 X128.679 Y149.044
G1 F1125 X152.513 Y172.877 E67.45573
G0 F9000 X150.074 Y172.702
G1 F1125 X127.969 Y150.596 E69.95119
G0 F9000 X127.398 Y152.288
G1 F1125 X147.655 Y172.545 E72.23797
G0 F9000 X145.41 Y172.563
G1 F1125 X126.963 Y154.116 E74.32043
G0 F9000 X126.763 Y156.178
G1 F1125 X142.795 Y172.211 E76.13032
G0 F9000 X140.294 Y171.973
G1 F1125 X126.91 Y158.588 E77.64128
G0 F9000 X127.675 Y161.616
G1 F1125 X137.368 Y171.309 E78.7355
G1 F2700 E73.7355
G0 F9000 X136.497 Y172.565
G0 X135.267 Y172.048
G0 X133.412 Y171.016
G0 X133 Y170.725
G0 X131.024 Y169.243
G0 X131.398 Y167.602
G1 F2700 E78.7355
G1 F1125 X131.217 Y167.42 E78.75599
G1 F2700 E73.75599
G0 F300 X131.217 Y167.42 Z0.54
G0 F9000 X130.151 Y168.432
G0 X128.813 Y166.909
G0 X128.023 Y165.786
G0 X127.027 Y163.974
G0 X126.313 Y162.164
G0 X125.711 Y160.134
G0 X125.369 Y158.101
G0 X125.289 Y156.729
G0 X125.396 Y154.673
G0 X125.609 Y153.352
G0 X126.066 Y151.626
G0 X126.76 Y149.664
G0 X127.681 Y147.805
G0 X128.395 Y146.686
G0 X129.718 Y145.045
G0 X134.815 Y139.198
G0 X136.342 Y137.785
G0 X139.463 Y135.532
G0 X140.378 Y136.685
;TIME_ELAPSED:62.903428
;LAYER:-5
;TYPE:SUPPORT
G1 F2700 E78.75599
G1 F1125 X139.489 Y137.279 E78.86268
G1 X137.885 Y138.443 E79.06043
G1 X137.269 Y138.919 E79.1381
G1 X136.545 Y139.541 E79.23334
G1 X135.765 Y140.324 E79.34362
G1 X135.171 Y141.009 E79.43409
G1 X134.478 Y141.934 E79.54942
G1 X133.978 Y142.718 E79.6422
G1 X133.875 Y142.892 E79.66238
G1 X133.467 Y143.494 E79.73494
G1 X132.854 Y144.176 E79.82644
G1 X132.348 Y144.588 E79.89155
G1 X131.569 Y145.258 E79.99407
G1 X130.799 Y146.031 E80.10294
G1 X130.164 Y146.762 E80.19955
G1 X129.547 Y147.587 E80.30235
G1 X129.457 Y147.728 E80.31904
G1 X140.662 Y136.523 E81.90018
G1 X141.14 Y136.25 E81.95511
G1 X142.083 Y135.792 E82.05971
G1 X143.1 Y135.386 E82.16898
G1 X143.263 Y135.336 E82.18599
G1 X127.949 Y150.65 E84.34696
G1 X127.68 Y151.393 E84.42581
G1 X127.431 Y152.166 E84.50684
G1 X127.259 Y152.754 E84.56797
G1 X145.183 Y134.83 E87.09724
G1 X146.062 Y134.691 E87.18604
G1 X146.801 Y134.627 E87.26005
G1 X126.877 Y154.551 E90.07154
G1 X126.775 Y155.695 E90.18614
G1 X126.767 Y156.075 E90.22407
G1 X148.261 Y134.58 E93.25717
G1 X149.675 Y134.581 E93.39826
G1 X126.789 Y157.467 E96.62773
G1 X126.812 Y157.847 E96.66571
G1 X126.934 Y158.736 E96.75525
G1 X151.032 Y134.638 E100.15574
G1 X151.978 Y134.749 E100.25078
G1 X152.28 Y134.804 E100.28141
G1 X127.166 Y159.919 E103.82533
G1 X127.477 Y161.021 E103.93959
G1 X153.437 Y135.061 E107.60282
G1 X153.899 Y135.181 E107.65045
G1 X154.521 Y135.391 E107.71596
G1 X127.837 Y162.076 E111.48143
G1 X127.945 Y162.385 E111.51409
G1 X128.238 Y163.089 E111.59017
G1 X155.534 Y135.793 E115.44193
G1 X155.839 Y135.921 E115.47494
G1 X156.488 Y136.253 E115.54768
G1 X128.69 Y164.051 E119.47028
G1 X129.22 Y164.936 E119.57321
G1 X157.392 Y136.763 E123.54865
G1 X158.23 Y137.339 E123.65011
G1 X129.785 Y165.785 E127.66408
G1 X130.421 Y166.563 E127.76435
G1 X159.048 Y137.936 E131.80393
G1 X159.864 Y138.534 E131.90487
G1 X131.101 Y167.297 E135.96364
G1 X131.347 Y167.555 E135.99921
G1 X131.825 Y167.988 E136.06357
G1 X160.653 Y139.159 E140.13158
G1 X161.39 Y139.836 E140.23143
G1 X132.6 Y168.627 E144.29408
G1 X132.856 Y168.828 E144.32656
G1 X133.409 Y169.232 E144.3949
G1 X162.079 Y140.562 E148.44054
G1 X162.717 Y141.338 E148.54078
G1 X134.245 Y169.81 E152.55849
G1 X135.133 Y170.337 E152.66152
G1 X163.326 Y142.143 E156.63993
G1 X163.5 Y142.358 E156.66753
G1 X164.023 Y142.861 E156.73993
G1 X136.079 Y170.804 E160.68306
G1 X137.072 Y171.226 E160.79072
G1 X164.847 Y143.45 E164.71014
G1 X165.701 Y144.011 E164.8121
G1 X138.153 Y171.558 E168.69935
G1 X138.811 Y171.727 E168.76713
G1 X139.306 Y171.82 E168.81739
G1 X166.537 Y144.589 E172.65998
G1 X167.329 Y145.211 E172.76046
G1 X140.543 Y171.998 E176.54032
G1 X140.937 Y172.041 E176.57987
G1 X141.847 Y172.107 E176.67091
G1 X168.087 Y145.867 E180.37366
G1 X168.78 Y146.589 E180.47351
G1 X143.103 Y172.266 E184.09682
G1 X143.715 Y172.372 E184.15879
G1 X144.326 Y172.457 E184.22034
G1 X169.43 Y147.353 E187.76279
G1 X169.642 Y147.612 E187.79619
G1 X170.032 Y148.165 E187.86371
G1 X145.606 Y172.591 E191.31048
G1 X147.037 Y172.574 E191.45327
G1 X170.58 Y149.031 E194.77545
G1 X170.761 Y149.333 E194.81058
G1 X171.073 Y149.953 E194.87983
G1 X148.466 Y172.559 E198.06985
G1 X148.719 Y172.567 E198.09511
G1 X149.466 Y172.652 E198.17013
G1 X149.763 Y172.676 E198.19986
G1 X171.503 Y150.937 E201.26754
G1 X171.652 Y151.294 E201.30614
G1 X171.884 Y151.97 E201.37745
G1 X151.072 Y172.782 E204.31425
G1 X151.808 Y172.84 E204.38791
G1 X152.394 Y172.874 E204.44648
G1 X172.215 Y153.053 E207.24344
G1 X172.394 Y153.689 E207.30937
G1 X172.495 Y154.188 E207.36017
G1 X153.762 Y172.92 E210.00353
G1 X154.7 Y172.951 E210.09717
G1 X155.148 Y172.949 E210.14187
G1 X172.695 Y155.402 E212.61794
G1 X172.729 Y155.652 E212.64312
G1 X172.787 Y156.723 E212.75014
G1 X156.628 Y172.883 E215.03042
G1 X158.235 Y172.69 E215.19192
G1 X172.734 Y158.191 E217.23789
G1 X172.677 Y158.825 E217.3014
G1 X172.515 Y159.824 E217.40238
G1 X159.876 Y172.464 E219.18595
G1 X160.446 Y172.369 E219.24361
G1 X161.352 Y172.144 E219.33676
G1 X161.731 Y172.022 E219.37649
G1 X171.981 Y161.773 E220.8228
G1 X171.832 Y162.23 E220.87077
G1 X171.435 Y163.297 E220.98436
G1 X171.044 Y164.165 E221.07935
G1 X170.572 Y165.037 E221.17829
G1 X169.99 Y165.953 E221.28658
G1 X169.408 Y166.728 E221.38328
G1 X168.683 Y167.57 E221.49415
G1 X167.942 Y168.305 E221.59829
G1 X166.84 Y169.223 E221.7414
G1 X166.03 Y169.831 E221.84246
G1 X165.117 Y170.457 E221.95292
G1 X164.352 Y170.914 E222.04183
G1 X164.152 Y171.015 E222.06419
G1 X171.077 Y164.091 E223.04131
G1 F2700 E218.04131
G0 F300 X171.077 Y164.091 Z0.74
G0 F9000 X172.412 Y164.694
G0 X173.223 Y162.691
G0 X173.713 Y161.111
G0 X174.127 Y159.039
G0 X174.241 Y157.723
G0 X174.195 Y155.651
G0 X174.017 Y154.295
G0 X173.477 Y152.127
G0 X172.954 Y150.599
G0 X172.087 Y148.709
G0 X171.89 Y148.381
G0 X170.865 Y146.802
G0 X169.506 Y147.444
;TIME_ELAPSED:142.111838
;LAYER:-4
;TYPE:SUPPORT-INTERFACE
G1 F2700 E223.04131
G1 F1500 X167.068 Y145.006 E223.15599
G0 F9000 X168.975 Y146.793
G1 F1500 X168.193 Y145.977 E223.19358
G1 X167.449 Y145.305 E223.22692
G1 X166.686 Y144.706 E223.25919
G1 X166.038 Y144.232 E223.28589
G1 X165.139 Y143.643 E223.32164
G1 X170.692 Y149.196 E223.58283
G1 X171.191 Y150.187 E223.61974
G1 X171.244 Y150.313 E223.62428
G1 X158.379 Y137.448 E224.22941
G1 X157.589 Y136.899 E224.26141
G1 X156.766 Y136.401 E224.29341
G1 X171.647 Y151.282 E224.99336
G1 X171.94 Y152.141 E225.02355
G1 X155.634 Y135.835 E225.79053
G1 X154.814 Y135.492 E225.8201
G1 X154.68 Y135.447 E225.8248
G1 X172.187 Y152.954 E226.64827
G1 X172.403 Y153.736 E226.67526
G1 X153.831 Y135.164 E227.54883
G1 X153.07 Y134.968 E227.57496
G1 X172.548 Y154.446 E228.49115
G1 X172.604 Y154.722 E228.50052
G1 X172.658 Y155.122 E228.51394
G1 X152.355 Y134.819 E229.46893
G1 X151.978 Y134.749 E229.48169
G1 X151.685 Y134.715 E229.4915
G1 X172.735 Y155.765 E230.48162
G1 X172.768 Y156.363 E230.50154
G1 X151.035 Y134.63 E231.5238
G1 X150.447 Y134.608 E231.54337
G1 X172.785 Y156.946 E232.59408
G1 X172.775 Y157.502 E232.61257
G1 X149.857 Y134.584 E233.69057
G1 X149.29 Y134.582 E233.70943
G1 X172.749 Y158.041 E234.81286
G1 X172.702 Y158.56 E234.8302
G1 X148.723 Y134.581 E235.9581
G1 X148.157 Y134.581 E235.97692
G1 X172.639 Y159.062 E237.12846
G1 X172.56 Y159.55 E237.1449
G1 X147.599 Y134.588 E238.31901
G1 X147.052 Y134.606 E238.33721
G1 X172.464 Y160.018 E239.53252
G1 X172.357 Y160.477 E239.54819
G1 X146.53 Y134.651 E240.76299
G1 X146.013 Y134.699 E240.78026
G1 X172.241 Y160.927 E242.01395
G1 X172.112 Y161.364 E242.0291
G1 X145.524 Y134.776 E243.27972
G1 X145.036 Y134.853 E243.29615
G1 X171.975 Y161.793 E244.5633
G1 X171.836 Y162.219 E244.57821
G1 X144.583 Y134.966 E245.8601
G1 X144.125 Y135.074 E245.87575
G1 X171.683 Y162.632 E247.172
G1 X171.529 Y163.044 E247.18663
G1 X143.691 Y135.206 E248.49604
G1 X143.258 Y135.338 E248.5111
G1 X171.368 Y163.448 E249.83331
G1 X171.191 Y163.838 E249.84755
G1 X142.843 Y135.489 E251.18098
G1 X142.438 Y135.65 E251.19547
G1 X171.013 Y164.224 E252.53953
G1 X170.814 Y164.591 E252.55341
G1 X142.037 Y135.815 E253.90697
G1 X141.656 Y135.999 E253.92105
G1 X170.615 Y164.958 E255.28319
G1 X170.4 Y165.308 E255.29685
G1 X141.268 Y136.177 E256.66711
G1 X140.908 Y136.383 E256.6809
G1 X170.18 Y165.655 E258.05777
G1 X169.957 Y165.997 E258.07135
G1 X140.548 Y136.588 E259.45466
G1 X140.199 Y136.805 E259.46832
G1 X169.714 Y166.32 E260.85662
G1 X169.472 Y166.644 E260.87007
G1 X139.86 Y137.032 E262.26293
G1 X139.521 Y137.258 E262.27648
G1 X169.215 Y166.952 E263.67319
G1 X168.953 Y167.256 E263.68654
G1 X139.192 Y137.495 E265.08641
G1 X138.864 Y137.733 E265.09989
G1 X168.692 Y167.56 E266.50288
G1 X168.408 Y167.842 E266.51619
G1 X138.537 Y137.971 E267.92123
G1 X138.208 Y138.208 E267.93472
G1 X168.123 Y168.123 E269.34183
G1 X167.841 Y168.406 E269.35512
G1 X137.881 Y138.447 E270.76432
G1 X137.562 Y138.694 E270.77774
G1 X167.522 Y168.654 E272.18696
G1 X167.214 Y168.911 E272.20031
G1 X137.244 Y138.941 E273.61
G1 X136.94 Y139.203 E273.62335
G1 X166.905 Y169.168 E275.03281
G1 X166.585 Y169.414 E275.04624
G1 X136.629 Y139.457 E276.4553
G1 X136.346 Y139.74 E276.46861
G1 X166.262 Y169.656 E277.87577
G1 X165.936 Y169.895 E277.88921
G1 X136.064 Y140.024 E279.29428
G1 X135.781 Y140.306 E279.30756
G1 X165.6 Y170.125 E280.71016
G1 X165.264 Y170.356 E280.72372
G1 X135.517 Y140.608 E282.12295
G1 X135.254 Y140.911 E282.1363
G1 X164.919 Y170.576 E283.53165
G1 X164.564 Y170.787 E283.54538
G1 X135.006 Y141.229 E284.9357
G1 X134.763 Y141.552 E284.94914
G1 X164.202 Y170.99 E286.33384
G1 X163.826 Y171.179 E286.34784
