;FLAVOR:Marlin
;TIME:1204
;Filament used: 1.02041m
;Layer height: 0.2
;MINX:124.004
;MINY:123.986
;MINZ:0.24
;MAXX:176.012
;MAXY:175.988
;MAXZ:6.09
;Generated with Cura_SteamEngine main
M140 S65
M105
M190 S65
M104 S212
M105
M109 S212
M82 ;absolute extrusion mode
M201 X500.00 Y500.00 Z100.00 E5000.00 ;Setup machine max acceleration
M203 X500.00 Y500.00 Z10.00 E50.00 ;Setup machine max feedrate
M204 P500.00 R1000.00 T500.00 ;Setup Print/Retract/Travel acceleration
M205 X8.00 Y8.00 Z0.40 E5.00 ;Setup Jerk
M220 S100 ;Reset Feedrate
M221 S100 ;Reset Flowrate

G28 ;Home
G29 ;Auto bed Level

G92 E0 ;Reset Extruder
G1 Z2.0 F3000 ;Move Z Axis up
G1 X10.1 Y20 Z0.28 F5000.0 ;Move to start position
G1 X10.1 Y200.0 Z0.28 F1500.0 E15 ;Draw the first line
G1 X10.4 Y200.0 Z0.28 F5000.0 ;Move to side a little
G1 X10.4 Y20 Z0.28 F1500.0 E30 ;Draw the second line
G92 E0 ;Reset Extruder
G1 Z2.0 F3000 ;Move Z Axis up

G92 E0
G92 E0
G1 F2700 E-5
;LAYER_COUNT:25
;LAYER:-6
M107
G0 F9000 X131.374 Y133.402 Z0.24
;TYPE:SUPPORT-INTERFACE
G1 F2700 E0
G1 F1125 X130.82 Y134.046 E0.06781
G1 X130.576 Y134.343 E0.09849
G1 X130.021 Y135.056 E0.17062
G1 X129.519 Y135.754 E0.23925
G1 X129 Y136.531 E0.31384
G1 X128.562 Y137.239 E0.38029
G1 X128.149 Y137.961 E0.44669
G1 X127.718 Y138.775 E0.52021
G1 X127.35 Y139.539 E0.5879
G1 X126.992 Y140.351 E0.65874
G1 X126.792 Y140.838 E0.70077
G1 X126.488 Y141.654 E0.77028
G1 X126.206 Y142.494 E0.84101
G1 X126.102 Y142.833 E0.86931
G1 X125.87 Y143.66 E0.93787
G1 X125.738 Y144.187 E0.98124
G1 X125.552 Y145.023 E1.04961
G1 X125.484 Y145.369 E1.07775
G1 X125.332 Y146.263 E1.15014
G1 X125.219 Y147.104 E1.21788
G1 X125.16 Y147.668 E1.26314
G1 X125.098 Y148.471 E1.32743
G1 X125.056 Y149.442 E1.40501
G1 X125.058 Y150.58 E1.49585
G1 X125.099 Y151.527 E1.57152
G1 X125.16 Y152.321 E1.63509
G1 X125.222 Y152.908 E1.6822
G1 X125.349 Y153.839 E1.75721
G1 X125.499 Y154.706 E1.82744
G1 X125.675 Y155.538 E1.89533
G1 X125.886 Y156.397 E1.96594
G1 X125.994 Y156.789 E1.99839
G1 X126.247 Y157.64 E2.06926
G1 X126.399 Y158.092 E2.10733
G1 X126.705 Y158.934 E2.17884
G1 X127.151 Y160.019 E2.27248
G1 X127.526 Y160.836 E2.34424
G1 X127.947 Y161.67 E2.41881
G1 X128.197 Y162.131 E2.46068
G1 X128.627 Y162.872 E2.52906
G1 X129.09 Y163.608 E2.59847
G1 X129.303 Y163.93 E2.62929
G1 X129.739 Y164.557 E2.69025
G1 X130.083 Y165.025 E2.73662
G1 X130.619 Y165.71 E2.80605
G1 X130.868 Y166.014 E2.83741
G1 X131.466 Y166.702 E2.91018
G1 X132.047 Y167.324 E2.97812
G1 X132.666 Y167.946 E3.04817
G1 X133.245 Y168.487 E3.11142
G1 X133.985 Y169.13 E3.18968
G1 X134.643 Y169.662 E3.25722
G1 X135.296 Y170.157 E3.32263
G1 X135.791 Y170.509 E3.37111
G1 X136.482 Y170.97 E3.43742
G1 X137.304 Y171.477 E3.51451
G1 X138.318 Y172.045 E3.60729
G1 X138.828 Y172.306 E3.65302
G1 X139.621 Y172.687 E3.72325
G1 X140.496 Y173.069 E3.79946
G1 X141.334 Y173.396 E3.87127
G1 X142.14 Y173.678 E3.93943
G1 X143.218 Y174.008 E4.02942
G1 X143.712 Y174.142 E4.07028
G1 X144.579 Y174.352 E4.14149
G1 X145.466 Y174.533 E4.21375
G1 X145.855 Y174.603 E4.2453
G1 X146.769 Y174.739 E4.31907
G1 X147.26 Y174.798 E4.35854
G1 X148.074 Y174.875 E4.42381
G1 X149.042 Y174.931 E4.50121
G1 X149.886 Y174.948 E4.56859
G1 X150.733 Y174.938 E4.63621
G1 X151.659 Y174.894 E4.71021
G1 X152.061 Y174.864 E4.74239
G1 X152.861 Y174.784 E4.80657
G1 X153.682 Y174.677 E4.87266
G1 X154.574 Y174.526 E4.94487
G1 X155.082 Y174.426 E4.9862
G1 X155.94 Y174.231 E5.05644
G1 X156.856 Y173.987 E5.13211
G1 X157.639 Y173.752 E5.19736
G1 X157.979 Y173.64 E5.22594
G1 X158.787 Y173.35 E5.29446
G1 X159.622 Y173.018 E5.36619
G1 X160.464 Y172.648 E5.43961
G1 X161.135 Y172.327 E5.49898
G1 X161.772 Y171.999 E5.55618
G1 X162.526 Y171.576 E5.62519
G1 X162.852 Y171.384 E5.65539
G1 X163.601 Y170.915 E5.72593
G1 X164.276 Y170.461 E5.79087
G1 X165.015 Y169.925 E5.86374
G1 X165.518 Y169.537 E5.91445
G1 X166.376 Y168.822 E6.0036
G1 X166.801 Y168.445 E6.04895
G1 X167.417 Y167.863 E6.1166
G1 X168.051 Y167.221 E6.18862
G1 X168.628 Y166.597 E6.25646
G1 X168.862 Y166.331 E6.28474
G1 X169.426 Y165.658 E6.35484
G1 X169.979 Y164.943 E6.42699
G1 X170.29 Y164.517 E6.46909
G1 X170.778 Y163.805 E6.538
G1 X171.254 Y163.066 E6.60816
G1 X171.437 Y162.763 E6.63642
G1 X171.851 Y162.039 E6.70299
G1 X172.282 Y161.225 E6.77652
G1 X172.651 Y160.46 E6.84432
G1 X172.852 Y160.014 E6.88337
G1 X173.209 Y159.158 E6.9574
G1 X173.341 Y158.815 E6.98674
G1 X173.629 Y158.009 E7.05506
G1 X173.898 Y157.165 E7.12577
G1 X174.13 Y156.34 E7.19418
G1 X174.262 Y155.813 E7.23755
G1 X174.448 Y154.978 E7.30583
G1 X174.516 Y154.631 E7.33406
G1 X174.668 Y153.737 E7.40645
G1 X174.781 Y152.896 E7.47418
G1 X174.84 Y152.332 E7.51945
G1 X174.902 Y151.529 E7.58374
G1 X174.944 Y150.558 E7.66132
G1 X174.946 Y150.358 E7.67729
G1 X174.942 Y149.401 E7.75368
G1 X174.901 Y148.473 E7.82783
G1 X174.839 Y147.669 E7.8922
G1 X174.778 Y147.092 E7.93851
G1 X174.646 Y146.128 E8.01618
G1 X174.5 Y145.292 E8.08392
G1 X174.421 Y144.901 E8.11577
G1 X174.236 Y144.081 E8.18287
G1 X174.005 Y143.209 E8.25488
G1 X173.753 Y142.36 E8.32557
G1 X173.585 Y141.861 E8.3676
G1 X173.295 Y141.065 E8.43522
G1 X172.966 Y140.254 E8.50508
G1 X172.613 Y139.457 E8.57467
G1 X172.461 Y139.138 E8.60287
G1 X172.052 Y138.329 E8.67523
G1 X171.803 Y137.869 E8.71699
G1 X171.366 Y137.116 E8.78648
G1 X171.181 Y136.815 E8.81469
G1 X170.697 Y136.069 E8.88567
G1 X170.26 Y135.442 E8.94668
G1 X169.916 Y134.974 E8.99304
G1 X169.356 Y134.257 E9.06566
G1 X169.132 Y133.986 E9.09373
G1 X168.533 Y133.297 E9.16661
G1 X167.954 Y132.676 E9.23438
G1 X167.318 Y132.039 E9.30624
G1 X166.755 Y131.512 E9.36779
G1 X166.016 Y130.871 E9.44588
G1 X165.355 Y130.337 E9.51371
G1 X164.965 Y130.037 E9.55299
G1 X164.207 Y129.49 E9.62761
G1 X163.517 Y129.028 E9.69389
G1 X162.686 Y128.517 E9.77176
G1 X161.682 Y127.955 E9.86361
G1 X160.778 Y127.502 E9.94432
G1 X160.024 Y127.154 E10.01061
G1 X159.196 Y126.807 E10.08228
G1 X158.329 Y126.482 E10.15619
G1 X157.546 Y126.221 E10.22207
G1 X156.783 Y125.992 E10.28566
G1 X156.287 Y125.858 E10.32667
G1 X155.42 Y125.647 E10.3979
G1 X155.068 Y125.572 E10.42663
G1 X154.154 Y125.399 E10.50088
G1 X153.232 Y125.261 E10.5753
G1 X152.74 Y125.202 E10.61486
G1 X151.928 Y125.125 E10.67996
G1 X150.957 Y125.069 E10.7576
G1 X150.114 Y125.052 E10.82491
G1 X149.267 Y125.062 E10.89252
G1 X148.34 Y125.106 E10.9666
G1 X147.939 Y125.136 E10.9987
G1 X147.139 Y125.216 E11.06288
G1 X146.317 Y125.323 E11.12905
G1 X145.747 Y125.416 E11.17515
G1 X144.917 Y125.574 E11.2426
G1 X144.06 Y125.769 E11.31275
G1 X143.145 Y126.013 E11.38835
G1 X142.018 Y126.36 E11.48248
G1 X141.544 Y126.527 E11.52259
G1 X140.71 Y126.846 E11.59387
G1 X139.861 Y127.204 E11.66742
G1 X138.87 Y127.671 E11.75487
G1 X138.23 Y128.002 E11.81238
G1 X137.474 Y128.424 E11.8815
G1 X137.148 Y128.616 E11.9117
G1 X136.399 Y129.085 E11.98224
G1 X135.722 Y129.54 E12.04735
G1 X135.301 Y129.841 E12.08866
G1 X134.48 Y130.464 E12.17093
G1 X133.899 Y130.942 E12.23099
G1 X133.198 Y131.557 E12.30543
G1 X132.938 Y131.796 E12.33362
G1 X132.348 Y132.37 E12.39933
G1 X131.95 Y132.779 E12.44488
G1 X131.374 Y133.402 E12.51261
G0 F9000 X131.548 Y133.811
G1 F1125 X166.189 Y168.451 E16.42313
G0 F9000 X167.355 Y167.355
G1 F1125 X132.642 Y132.642 E20.34183
G0 F9000 X133.812 Y131.549
G1 F1125 X168.452 Y166.189 E24.25229
G0 F9000 X169.47 Y164.945
G1 F1125 X135.055 Y130.529 E28.13741
G0 F9000 X136.373 Y129.585
G1 F1125 X170.415 Y163.627 E31.98037
G0 F9000 X171.281 Y162.23
G1 F1125 X137.768 Y128.717 E35.7636
G0 F9000 X139.248 Y127.934
G1 F1125 X172.065 Y160.752 E39.46833
G0 F9000 X172.763 Y159.187
G1 F1125 X140.813 Y127.236 E43.07518
G0 F9000 X142.476 Y126.637
G1 F1125 X173.363 Y157.524 E46.56197
G0 F9000 X173.862 Y155.76
G1 F1125 X144.24 Y126.138 E49.90596
G0 F9000 X146.125 Y125.76
G1 F1125 X174.238 Y153.873 E53.07959
G0 F9000 X174.476 Y151.849
G1 F1125 X148.148 Y125.521 E56.05173
G0 F9000 X150.347 Y125.457
G1 F1125 X174.542 Y149.652 E58.78307
G0 F9000 X174.39 Y147.238
G1 F1125 X152.76 Y125.607 E61.2249
G0 F9000 X155.492 Y126.077
G1 F1125 X173.92 Y144.505 E63.30522
G0 F9000 X172.941 Y141.262
G1 F1125 X158.744 Y127.065 E64.9079
G1 F2700 E59.9079
G0 F9000 X159.59 Y125.819
G0 X161.92 Y126.893
G0 X163.777 Y127.933
G0 X163.318 Y129.377
G1 F2700 E64.9079
G1 F1125 X170.607 Y136.666 E65.73074
G1 F2700 E60.73074
G0 F9000 X172.082 Y136.249
G0 X173.418 Y138.671
G0 X174.125 Y140.264
G0 X174.875 Y142.381
G0 X175.359 Y144.196
G0 X175.836 Y146.967
G0 X175.996 Y149.458
G0 X175.986 Y151.207
G0 X175.826 Y153.148
G0 X175.29 Y156.134
G0 X174.517 Y158.698
G0 X173.46 Y161.241
G0 X172.158 Y163.628
G0 X170.838 Y165.573
G0 X169.079 Y167.683
G0 X167.455 Y169.258
G0 X166.118 Y170.419
G0 X164.946 Y169.471
G1 F2700 E65.73074
G1 F1125 X130.528 Y135.053 E69.61614
G0 F9000 X129.585 Y136.373
G1 F1125 X163.625 Y170.414 E73.45893
G0 F9000 X162.23 Y171.281
G1 F1125 X128.718 Y137.769 E77.24205
G0 F9000 X127.933 Y139.247
G1 F1125 X160.752 Y172.065 E80.94689
G0 F9000 X159.184 Y172.761
G1 F1125 X127.234 Y140.811 E84.55368
G0 F9000 X126.634 Y142.473
G1 F1125 X157.527 Y173.366 E88.04115
G0 F9000 X155.759 Y173.861
G1 F1125 X126.136 Y144.238 E91.38525
G0 F9000 X125.761 Y146.125
G1 F1125 X153.872 Y174.237 E94.55872
G0 F9000 X151.85 Y174.477
G1 F1125 X125.522 Y148.15 E97.53079
G0 F9000 X125.457 Y150.347
G1 F1125 X149.652 Y174.542 E100.26214
G0 F9000 X147.238 Y174.391
G1 F1125 X125.608 Y152.761 E102.70392
G0 F9000 X126.075 Y155.49
G1 F1125 X144.505 Y173.921 E104.78451
G0 F9000 X141.256 Y172.934
G1 F1125 X127.059 Y158.737 E106.38719
G1 F2700 E101.38719
G0 F9000 X125.886 Y159.737
G0 X126.738 Y161.625
G0 X127.919 Y163.753
G0 X129.387 Y163.328
G1 F2700 E106.38719
G1 F1125 X136.676 Y170.617 E107.21004
G1 F2700 E102.21004
G0 F300 X136.676 Y170.617 Z0.54
G0 F9000 X136.271 Y172.072
G0 X138.353 Y173.259
G0 X140.468 Y174.204
G0 X142.928 Y175.034
G0 X144.768 Y175.482
G0 X146.628 Y175.795
G0 X148.365 Y175.964
G0 X151.138 Y175.988
G0 X152.952 Y175.846
G0 X154.067 Y175.698
G0 X156.658 Y175.155
G0 X159.215 Y174.327
G0 X161.679 Y173.245
G0 X163.84 Y172.025
G0 X163.381 Y170.58
;TIME_ELAPSED:83.096024
;LAYER:-5
;TYPE:SUPPORT
G1 F2700 E107.21004
G1 F1125 X164.056 Y170.126 E107.2912
G1 X164.502 Y169.806 E107.34598
G1 X165.262 Y169.228 E107.44125
G1 X165.841 Y168.753 E107.51598
G1 X166.54 Y168.14 E107.60874
G1 X167.145 Y167.569 E107.69175
G1 X167.778 Y166.93 E107.7815
G1 X168.329 Y166.331 E107.86271
G1 X168.559 Y166.068 E107.89757
G1 X169.133 Y165.381 E107.9869
G1 X169.666 Y164.693 E108.07374
G1 X170.204 Y163.944 E108.16575
G1 X170.663 Y163.251 E108.24869
G1 X170.932 Y162.821 E108.2993
G1 X162.826 Y170.927 E109.44315
G1 X162.232 Y171.283 E109.51225
G1 X161.607 Y171.631 E109.58362
G1 X160.962 Y171.966 E109.65614
G1 X159.86 Y172.479 E109.77743
G1 X172.481 Y159.858 E111.55839
G1 X172.834 Y159.016 E111.64949
G1 X173.138 Y158.201 E111.73629
G1 X173.347 Y157.578 E111.80185
G1 X157.579 Y173.346 E114.02689
G1 X157.008 Y173.526 E114.08663
G1 X156.216 Y173.748 E114.1687
G1 X155.617 Y173.894 E114.23022
G1 X173.896 Y155.615 E116.80958
G1 X174.057 Y154.891 E116.88359
G1 X174.243 Y153.853 E116.98881
G1 X153.846 Y174.25 E119.86705
G1 X152.833 Y174.384 E119.969
G1 X152.239 Y174.443 E120.02857
G1 X174.447 Y152.235 E123.16235
G1 X174.503 Y151.494 E123.2365
G1 X174.535 Y150.733 E123.3125
G1 X150.732 Y174.536 E126.67136
G1 X149.893 Y174.547 E126.75509
G1 X149.318 Y174.536 E126.81247
G1 X174.536 Y149.318 E130.371
G1 X174.501 Y148.498 E130.4529
G1 X174.46 Y147.979 E130.50484
G1 X147.975 Y174.465 E134.24223
G1 X147.309 Y174.4 E134.309
G1 X146.703 Y174.323 E134.36996
G1 X174.325 Y146.701 E138.26772
G1 X174.248 Y146.18 E138.32027
G1 X174.126 Y145.485 E138.39068
G1 X145.485 Y174.126 E142.43223
G1 X145.011 Y174.036 E142.48037
G1 X144.318 Y173.879 E142.55127
G1 X173.88 Y144.317 E146.72279
G1 X173.592 Y143.191 E146.83876
G1 X143.197 Y173.586 E151.12782
G1 X142.58 Y173.401 E151.1921
G1 X142.122 Y173.247 E151.24031
G1 X173.248 Y142.121 E155.63252
G1 X172.869 Y141.086 E155.7425
G1 X141.085 Y172.869 E160.2275
G1 X140.66 Y172.702 E160.27306
G1 X140.087 Y172.453 E160.3354
G1 X172.456 Y140.084 E164.90302
G1 X172.011 Y139.115 E165.00941
G1 X139.122 Y172.004 E169.6504
G1 X138.493 Y171.684 E169.72082
G1 X138.194 Y171.517 E169.75499
G1 X171.525 Y138.186 E174.45836
G1 X171.003 Y137.294 E174.56148
G1 X137.295 Y171.003 E179.31812
G1 X136.685 Y170.624 E179.38977
G1 X136.429 Y170.455 E179.42038
G1 X170.455 Y136.428 E184.22189
G1 X169.876 Y135.594 E184.32319
G1 X135.592 Y169.877 E189.16097
G1 X134.789 Y169.266 E189.26165
G1 X169.265 Y134.79 E194.12658
G1 X169.043 Y134.506 E194.16255
G1 X168.627 Y134.014 E194.22684
G1 X134.015 Y168.626 E199.11097
G1 X133.51 Y168.187 E199.17773
G1 X133.267 Y167.96 E199.21091
G1 X167.959 Y133.268 E204.10633
G1 X167.725 Y133.017 E204.14057
G1 X167.261 Y132.551 E204.20619
G1 X132.551 Y167.261 E209.10414
G1 X132.274 Y166.981 E209.14344
G1 X131.86 Y166.538 E209.20394
G1 X166.539 Y131.859 E214.09752
G1 X166.02 Y131.398 E214.16679
G1 X165.783 Y131.201 E214.19754
G1 X131.199 Y165.785 E219.07772
G1 X130.926 Y165.457 E219.1203
G1 X130.57 Y165 E219.1781
G1 X165 Y130.57 E224.03654
G1 X164.733 Y130.362 E224.07032
G1 X164.188 Y129.968 E224.13742
G1 X129.969 Y164.186 E228.96602
G1 X129.396 Y163.345 E229.06756
G1 X163.346 Y129.395 E233.85827
G1 X162.473 Y128.854 E233.96075
G1 X128.857 Y162.47 E238.70433
G1 X128.542 Y161.929 E238.7668
G1 X128.349 Y161.564 E238.80799
G1 X161.564 Y128.349 E243.49499
G1 X160.982 Y128.046 E243.56046
G1 X160.627 Y127.871 E243.59995
G1 X127.873 Y160.626 E248.22197
G1 X127.74 Y160.355 E248.25209
G1 X127.426 Y159.658 E248.32837
G1 X159.654 Y127.43 E252.87608
G1 X159.342 Y127.297 E252.90993
G1 X158.645 Y127.025 E252.98458
G1 X127.027 Y158.643 E257.44622
G1 X126.9 Y158.278 E257.48478
G1 X126.891 Y158.278 E257.48568
G1 X126.775 Y157.959 E257.51955
G1 X126.658 Y157.598 E257.55742
G1 X157.598 Y126.658 E261.92338
G1 X156.974 Y126.461 E261.98868
G1 X156.51 Y126.332 E262.03673
G1 X126.331 Y156.511 E266.29531
G1 X126.108 Y155.647 E266.38435
G1 X126.049 Y155.378 E266.41183
G1 X155.377 Y126.05 E270.55033
G1 X154.995 Y125.964 E270.5894
G1 X154.198 Y125.815 E270.6703
G1 X125.814 Y154.2 E274.67566
G1 X125.625 Y152.974 E274.79943
G1 X152.966 Y125.633 E278.65754
G1 X152.689 Y125.599 E278.68539
G1 X151.683 Y125.502 E278.78624
G1 X125.504 Y151.681 E282.48038
G1 X125.448 Y150.323 E282.61599
G1 X150.323 Y125.447 E286.12619
G1 X149.285 Y125.461 E286.22978
G1 X148.877 Y125.48 E286.27053
G1 X125.476 Y148.881 E289.57266
G1 X125.527 Y148.063 E289.65444
G1 X125.596 Y147.346 E289.72632
G1 X147.346 Y125.597 E292.79541
G1 X146.373 Y125.719 E292.89325
G1 X145.695 Y125.833 E292.96185
G1 X125.833 Y145.695 E295.7646
G1 X125.942 Y145.108 E295.82417
G1 X126.125 Y144.277 E295.90907
G1 X126.227 Y143.887 E295.9493
G1 X143.892 Y126.222 E298.44202
G1 X142.991 Y126.473 E298.53534
G1 X142.148 Y126.738 E298.62352
G1 X141.858 Y126.842 E298.65426
G1 X126.839 Y141.861 E300.7736
G1 X127.165 Y140.982 E300.86714
G1 X127.522 Y140.13 E300.95932
G1 X127.831 Y139.454 E301.03348
G1 X139.452 Y127.834 E302.67326
G1 X139.036 Y128.032 E302.71923
G1 X138.416 Y128.354 E302.78894
G1 X137.767 Y128.716 E302.86309
G1 X137.331 Y128.972 E302.91354
G1 X136.609 Y129.425 E302.99859
G1 X136.115 Y129.756 E303.05792
G1 X129.751 Y136.12 E303.95595
G1 X130.027 Y135.724 E304.00411
G1 X130.555 Y135.01 E304.09272
G1 X130.879 Y134.601 E304.14478
G1 X131.47 Y133.895 E304.23665
G1 X131.663 Y133.675 E304.26586
G1 X132.221 Y133.069 E304.34805
G1 X132.854 Y132.429 E304.43787
G1 X133.464 Y131.853 E304.52158
G1 X134.157 Y131.245 E304.61357
G1 X134.736 Y130.77 E304.6883
G1 X135.526 Y130.17 E304.78728
G1 X136.004 Y129.831 E304.84575
G1 F2700 E299.84575
G0 F300 X136.004 Y129.831 Z0.74
G0 F9000 X135.172 Y128.627
G0 X137.398 Y127.242
G0 X139.43 Y126.231
G0 X142.053 Y125.229
G0 X143.808 Y124.734
G0 X145.959 Y124.298
G0 X148.273 Y124.043
G0 X150.999 Y124.005
G0 X153.571 Y124.228
G0 X155.423 Y124.555
G0 X157.864 Y125.203
G0 X160.451 Y126.178
G0 X162.87 Y127.394
G0 X164.445 Y128.383
G0 X166.012 Y129.498
G0 X165.346 Y130.839
;TIME_ELAPSED:191.130685
;LAYER:-4
