;FLAVOR:Marlin
;TIME:3222
;Filament used: 2.12728m
;Layer height: 0.2
;MINX:115.481
;MINY:118.803
;MINZ:0.24
;MAXX:179.462
;MAXY:181.231
;MAXZ:8.49
;Generated with Cura_SteamEngine main
M140 S65
M105
M190 S65
M104 S212
M105
M109 S212
M82 ;absolute extrusion mode
M201 X500.00 Y500.00 Z100.00 E5000.00 ;Setup machine max acceleration
M203 X500.00 Y500.00 Z10.00 E50.00 ;Setup machine max feedrate
M204 P500.00 R1000.00 T500.00 ;Setup Print/Retract/Travel acceleration
M205 X8.00 Y8.00 Z0.40 E5.00 ;Setup Jerk
M220 S100 ;Reset Feedrate
M221 S100 ;Reset Flowrate

G28 ;Home
G29 ;Auto bed Level

G92 E0 ;Reset Extruder
G1 Z2.0 F3000 ;Move Z Axis up
G1 X10.1 Y20 Z0.28 F5000.0 ;Move to start position
G1 X10.1 Y200.0 Z0.28 F1500.0 E15 ;Draw the first line
G1 X10.4 Y200.0 Z0.28 F5000.0 ;Move to side a little
G1 X10.4 Y20 Z0.28 F1500.0 E30 ;Draw the second line
G92 E0 ;Reset Extruder
G1 Z2.0 F3000 ;Move Z Axis up

G92 E0
G92 E0
G1 F2700 E-5
;LAYER_COUNT:37
;LAYER:-6
M107
G0 F9000 X121.324 Y126.05 Z0.24
;TYPE:SUPPORT-INTERFACE
G1 F2700 E0
G1 F1125 X120.445 Y127.083 E0.10827
G1 X119.906 Y127.804 E0.18013
G1 X119.506 Y128.397 E0.23723
G1 X119.023 Y129.155 E0.30897
G1 X118.469 Y130.167 E0.40107
G1 X118.001 Y131.226 E0.49349
G1 X117.697 Y132.061 E0.56442
G1 X117.42 Y132.871 E0.63276
G1 X117.188 Y133.7 E0.70147
G1 X117.088 Y134.152 E0.73843
G1 X116.941 Y134.743 E0.78704
G1 X116.742 Y135.711 E0.86593
G1 X116.607 Y136.758 E0.95019
G1 X116.545 Y137.833 E1.03615
G1 X116.539 Y138.159 E1.06217
G1 X116.583 Y139.694 E1.18476
G1 X116.706 Y140.751 E1.2697
G1 X116.892 Y141.714 E1.34799
G1 X116.956 Y141.998 E1.37123
G1 X116.949 Y142.009 E1.37227
G1 X117.066 Y142.604 E1.42067
G1 X117.103 Y142.869 E1.44203
G1 X117.309 Y143.909 E1.52666
G1 X117.592 Y144.939 E1.61193
G1 X117.893 Y145.8 E1.68474
G1 X118.337 Y146.839 E1.77493
G1 X118.824 Y147.772 E1.85894
G1 X119.375 Y148.75 E1.94855
G1 X119.846 Y149.51 E2.01992
G1 X120.373 Y150.257 E2.09289
G1 X120.812 Y150.819 E2.14982
G1 X121.162 Y151.38 E2.2026
G1 X121.455 Y152.015 E2.25843
G1 X121.665 Y152.677 E2.31386
G1 X121.784 Y153.333 E2.36708
G1 X121.904 Y154.36 E2.44962
G1 X122.127 Y155.484 E2.54109
G1 X122.401 Y156.497 E2.62486
G1 X122.575 Y157.106 E2.67542
G1 X122.933 Y158.116 E2.76096
G1 X123.537 Y159.497 E2.88128
G1 X124.019 Y160.415 E2.96404
G1 X124.568 Y161.377 E3.05246
G1 X124.712 Y161.614 E3.07459
G1 X124.956 Y162.061 E3.11524
G1 X125.125 Y162.398 E3.14534
G1 X125.583 Y163.192 E3.21851
G1 X126.212 Y164.129 E3.30859
G1 X126.876 Y164.968 E3.394
G1 X127.6 Y165.756 E3.47942
G1 X128.378 Y166.489 E3.56475
G1 X129.142 Y167.109 E3.64329
G1 X129.736 Y167.532 E3.7015
G1 X130.162 Y167.862 E3.74451
G1 X130.656 Y168.346 E3.79972
G1 X131.064 Y168.859 E3.85204
G1 X131.42 Y169.444 E3.9067
G1 X131.647 Y169.852 E3.94397
G1 X132.387 Y171.356 E4.07777
G1 X132.839 Y172.138 E4.14987
G1 X133.467 Y173.075 E4.23991
G1 X134.076 Y173.843 E4.31816
G1 X134.854 Y174.698 E4.41043
G1 X135.636 Y175.435 E4.49621
G1 X136.463 Y176.106 E4.58122
G1 X137.33 Y176.712 E4.66566
G1 X138.237 Y177.25 E4.74984
G1 X138.606 Y177.451 E4.78338
G1 X139.358 Y177.827 E4.85049
G1 X140.323 Y178.238 E4.93422
G1 X140.914 Y178.462 E4.98467
G1 X141.349 Y178.65 E5.0225
G1 X142.145 Y178.963 E5.09077
G1 X143.032 Y179.272 E5.16575
G1 X143.529 Y179.426 E5.20728
G1 X144.573 Y179.704 E5.29352
G1 X145.469 Y179.88 E5.36641
G1 X146.584 Y180.023 E5.45615
G1 X147.656 Y180.075 E5.54182
G1 X148.711 Y180.049 E5.62606
G1 X149.641 Y180.079 E5.70033
G1 X150.038 Y180.12 E5.73219
G1 X151.014 Y180.168 E5.81019
G1 X153.388 Y180.109 E5.99976
G1 X154.443 Y180.007 E6.08436
G1 X155.928 Y179.756 E6.20458
G1 X156.979 Y179.506 E6.29082
G1 X157.545 Y179.334 E6.33804
G1 X158.416 Y179.05 E6.41117
G1 X159.496 Y178.611 E6.50423
G1 X161.345 Y177.682 E6.66941
G1 X161.725 Y177.473 E6.70403
G1 X162.893 Y176.758 E6.81334
G1 X163.676 Y176.184 E6.89084
G1 X164.161 Y175.804 E6.94002
G1 X164.908 Y175.166 E7.01844
G1 X165.603 Y174.481 E7.09634
G1 X165.99 Y174.082 E7.14071
G1 X166.748 Y173.208 E7.23306
G1 X167.615 Y172.061 E7.34783
G1 X168.183 Y171.175 E7.43184
G1 X168.909 Y169.842 E7.553
G1 X169.202 Y169.196 E7.60963
G1 X169.521 Y168.6 E7.66359
G1 X169.921 Y168.035 E7.71885
G1 X170.401 Y167.52 E7.77504
G1 X170.91 Y167.093 E7.82808
G1 X171.14 Y166.924 E7.85086
G1 X171.837 Y166.357 E7.92258
G1 X172.606 Y165.699 E8.00337
G1 X173.36 Y164.951 E8.08815
G1 X174.009 Y164.204 E8.16714
G1 X174.702 Y163.292 E8.25857
G1 X175.225 Y162.473 E8.33614
G1 X175.513 Y161.965 E8.38276
G1 X175.791 Y161.496 E8.42628
G1 X175.994 Y161.124 E8.46011
G1 X176.259 Y160.674 E8.50179
G1 X176.735 Y159.799 E8.5813
G1 X177.177 Y158.819 E8.66712
G1 X177.518 Y157.888 E8.74627
G1 X177.832 Y156.799 E8.83674
G1 X178.032 Y155.842 E8.91478
G1 X178.195 Y154.987 E8.98426
G1 X178.326 Y153.999 E9.06381
G1 X178.39 Y152.889 E9.15257
G1 X178.396 Y152.6 E9.17564
G1 X178.348 Y151.004 E9.3031
G1 X178.343 Y150.313 E9.35826
G1 X178.365 Y149.941 E9.388
G1 X178.372 Y149.611 E9.41435
G1 X178.331 Y148.123 E9.53318
G1 X178.295 Y147.56 E9.57821
G1 X178.274 Y146.899 E9.631
G1 X178.148 Y145.837 E9.71637
G1 X177.964 Y144.895 E9.79298
G1 X177.748 Y144.021 E9.86485
G1 X177.515 Y143.15 E9.93682
G1 X177.358 Y142.641 E9.97934
G1 X177.027 Y141.704 E10.05866
G1 X176.611 Y140.745 E10.14211
G1 X175.788 Y139.194 E10.28227
G1 X175.513 Y138.712 E10.32656
G1 X175.02 Y137.921 E10.40096
G1 X174.46 Y137.128 E10.47846
G1 X173.828 Y136.356 E10.5581
G1 X173.322 Y135.772 E10.61978
G1 X172.644 Y135.06 E10.69826
G1 X171.87 Y134.357 E10.78172
G1 X171.011 Y133.644 E10.87084
G1 X170.826 Y133.505 E10.88931
G1 X170.197 Y132.974 E10.95502
G1 X169.732 Y132.45 E11.01094
G1 X169.347 Y131.881 E11.06578
G1 X169.111 Y131.436 E11.10599
G1 X169.117 Y131.421 E11.10728
G1 X168.337 Y129.95 E11.24019
G1 X168.092 Y129.52 E11.27969
G1 X167.582 Y128.695 E11.35711
G1 X167.05 Y127.94 E11.43084
G1 X166.67 Y127.433 E11.48142
G1 X166.046 Y126.677 E11.55966
G1 X165.315 Y125.91 E11.64424
G1 X164.482 Y125.156 E11.73393
G1 X164.101 Y124.835 E11.7737
G1 X163.526 Y124.375 E11.83248
G1 X162.461 Y123.609 E11.9372
G1 X161.48 Y122.889 E12.03433
G1 X160.572 Y122.331 E12.11941
G1 X159.626 Y121.836 E12.20463
G1 X158.572 Y121.387 E12.29608
G1 X157.975 Y121.179 E12.34655
G1 X157.66 Y121.061 E12.3734
G1 X156.768 Y120.751 E12.44878
G1 X156.306 Y120.608 E12.48738
G1 X155.23 Y120.318 E12.57634
G1 X153.925 Y120.058 E12.68256
G1 X152.808 Y119.915 E12.77245
G1 X151.739 Y119.863 E12.85788
G1 X150.751 Y119.887 E12.93677
G1 X150.462 Y119.909 E12.95991
G1 X149.682 Y119.927 E13.02219
G1 X148.824 Y119.885 E13.09076
G1 X147.856 Y119.908 E13.16805
G1 X147.339 Y119.938 E13.20939
G1 X146.59 Y119.956 E13.2692
G1 X145.505 Y120.062 E13.35622
G1 X144.539 Y120.228 E13.43446
G1 X144.338 Y120.272 E13.45088
G1 X143.398 Y120.416 E13.52679
G1 X142.711 Y120.417 E13.58163
G1 X142.024 Y120.329 E13.63692
G1 X141.061 Y120.14 E13.71526
G1 X140.089 Y120.021 E13.79343
G1 X138.947 Y119.959 E13.88472
G1 X137.978 Y119.982 E13.96209
G1 X137.575 Y120.011 E13.99434
G1 X136.831 Y120.028 E14.05375
G1 X135.914 Y119.984 E14.12703
G1 X134.925 Y120.008 E14.206
G1 X134.277 Y120.051 E14.25784
G1 X133.725 Y120.064 E14.30192
G1 X132.716 Y120.162 E14.38284
G1 X131.678 Y120.335 E14.46684
G1 X131.043 Y120.464 E14.51856
G1 X130.001 Y120.728 E14.60437
G1 X128.653 Y121.176 E14.71776
G1 X127.586 Y121.61 E14.80971
G1 X126.579 Y122.115 E14.89963
G1 X125.702 Y122.592 E14.97932
G1 X124.475 Y123.344 E15.0942
G1 X123.265 Y124.239 E15.21433
G1 X122.518 Y124.879 E15.29286
G1 X122.027 Y125.344 E15.34684
G1 X121.324 Y126.05 E15.42637
G0 F9000 X121.706 Y126.231
G1 F1125 X167.295 Y171.82 E20.57285
G0 F9000 X166.312 Y173.1
G1 F1125 X120.665 Y127.453 E25.72587
G0 F9000 X119.732 Y128.783
G1 F1125 X165.232 Y174.283 E30.86231
G0 F9000 X164.054 Y175.368
G1 F1125 X118.899 Y130.213 E35.95979
G0 F9000 X118.218 Y131.794
G1 F1125 X162.773 Y176.349 E40.98955
G0 F9000 X161.37 Y177.21
G1 F1125 X117.659 Y133.498 E45.92408
G0 F9000 X117.228 Y135.33
G1 F1125 X159.871 Y177.973 E50.73799
G0 F9000 X158.299 Y178.664
G1 F1125 X116.974 Y137.339 E55.40311
G0 F9000 X116.979 Y139.606
G1 F1125 X156.564 Y179.192 E59.87187
G0 F9000 X154.671 Y179.561
G1 F1125 X117.414 Y142.304 E64.07776
G0 F9000 X118.139 Y145.292
G1 F1125 X152.574 Y179.727 E67.96508
G0 F9000 X150.316 Y179.732
G1 F1125 X121.021 Y150.436 E71.27221
G0 F9000 X122.255 Y153.934
G1 F1125 X147.987 Y179.665 E74.177
G0 F9000 X145.544 Y179.485
G1 F1125 X122.921 Y156.862 E76.73088
G1 F2700 E71.73088
G0 F9000 X121.561 Y157.433
G0 X122.325 Y159.393
G0 X123.345 Y161.388
G0 X124.837 Y161.041
G1 F2700 E76.73088
G1 F1125 X142.436 Y178.639 E78.71755
G0 F9000 X138.434 Y176.901
G1 F1125 X132.793 Y171.26 E79.35436
G1 F2700 E74.35436
G0 F9000 X131.527 Y171.995
G0 X132.686 Y173.803
G0 X134.035 Y175.381
G0 X135.022 Y176.309
G0 X136.676 Y177.554
G0 X138.116 Y178.396
G0 X139.93 Y179.227
G0 X142.802 Y180.318
G0 X144.341 Y180.744
G0 X146.403 Y181.073
G0 X151.13 Y181.231
G0 X153.552 Y181.162
G0 X155.228 Y180.957
G0 X157.255 Y180.534
G0 X158.97 Y179.978
G0 X160.997 Y179.05
G0 X162.266 Y178.389
G0 X164.078 Y177.214
G0 X165.701 Y175.877
G0 X166.777 Y174.798
G0 X167.828 Y173.551
G0 X168.517 Y172.562
G0 X169.282 Y171.383
G0 X168.145 Y170.408
G1 F2700 E79.35436
G1 F1125 X122.854 Y125.116 E84.46725
G0 F9000 X124.11 Y124.11
G1 F1125 X168.905 Y168.905 E89.5241
G0 F9000 X169.819 Y167.556
G1 F1125 X125.467 Y123.204 E94.53094
G0 F9000 X126.918 Y122.393
G1 F1125 X171.025 Y166.499 E99.51006
G0 F9000 X172.258 Y165.47
G1 F1125 X128.47 Y121.682 E104.45323
G0 F9000 X130.152 Y121.101
G1 F1125 X173.374 Y164.323 E109.3325
G0 F9000 X174.374 Y163.06
G1 F1125 X132 Y120.686 E114.11604
G0 F9000 X134.033 Y120.457
G1 F1125 X175.234 Y161.658 E118.76717
G0 F9000 X176.053 Y160.214
G1 F1125 X136.239 Y120.4 E123.26172
G0 F9000 X138.472 Y120.37
G1 F1125 X176.794 Y158.692 E127.58784
G0 F9000 X177.359 Y156.994
G1 F1125 X140.886 Y120.521 E131.70522
G0 F9000 X143.438 Y120.811
G1 F1125 X177.759 Y155.132 E135.57967
G0 F9000 X177.977 Y153.087
G1 F1125 X145.38 Y120.49 E139.25951
G0 F9000 X147.483 Y120.33
G1 F1125 X177.945 Y150.792 E142.69832
G0 F9000 X177.941 Y148.525
G1 F1125 X149.741 Y120.326 E145.88172
G0 F9000 X151.952 Y120.273
G1 F1125 X177.776 Y146.098 E148.79702
G0 F9000 X177.098 Y143.157
G1 F1125 X154.527 Y120.586 E151.34503
G0 F9000 X157.71 Y121.507
G1 F1125 X175.233 Y139.029 E153.32312
G1 F2700 E148.32312
G0 F9000 X176.428 Y138.168
G0 X175.464 Y136.731
G0 X168.466 Y128.099
G0 X166.923 Y128.457
G1 F2700 E153.32312
G1 F1125 X162.848 Y124.381 E153.78319
G1 F2700 E148.78319
G0 F300 X162.848 Y124.381 Z0.54
G0 F9000 X163.327 Y122.921
G0 X161.976 Y121.945
G0 X160.181 Y120.925
G0 X158.027 Y120.061
G0 X155.573 Y119.307
G0 X153.936 Y118.981
G0 X151.862 Y118.803
G0 X134.56 Y118.967
G0 X132.408 Y119.129
G0 X129.92 Y119.644
G0 X128.128 Y120.236
G0 X127.036 Y120.73
G0 X125.496 Y121.489
G0 X125.896 Y122.941
;TIME_ELAPSED:115.125701
;LAYER:-5
;TYPE:SUPPORT
G1 F2700 E153.78319
G1 F1125 X124.713 Y123.665 E153.92159
G1 X123.501 Y124.561 E154.07198
G1 X122.782 Y125.178 E154.16651
G1 X122.302 Y125.634 E154.23258
G1 X121.623 Y126.315 E154.32853
G1 X120.763 Y127.321 E154.46059
G1 X120.224 Y128.042 E154.55041
G1 X119.83 Y128.628 E154.62087
G1 X119.358 Y129.369 E154.70853
G1 X119.15 Y129.751 E154.75193
G1 X126.037 Y122.864 E155.72376
G1 X126.764 Y122.466 E155.80646
G1 X127.693 Y122.002 E155.91008
G1 X128.754 Y121.561 E156.02473
G1 X118.057 Y132.257 E157.53412
G1 X117.834 Y132.883 E157.60043
G1 X117.571 Y133.807 E157.69629
G1 X117.473 Y134.256 E157.74214
G1 X130.795 Y120.934 E159.62202
G1 X131.125 Y120.853 E159.65592
G1 X131.75 Y120.726 E159.71956
G1 X132.55 Y120.593 E159.80048
G1 X117.102 Y136.041 E161.98036
G1 X117.001 Y136.82 E162.05874
G1 X116.958 Y137.6 E162.13669
G1 X134.102 Y120.456 E164.55589
G1 X134.927 Y120.408 E164.63835
G1 X135.581 Y120.391 E164.70363
G1 X116.963 Y139.009 E167.33083
G1 X116.982 Y139.666 E167.39641
G1 X117.057 Y140.328 E167.46289
G1 X136.961 Y120.425 E170.27149
G1 X137.61 Y120.411 E170.33626
G1 X137.99 Y120.382 E170.37429
G1 X138.43 Y120.37 E170.41821
G1 X117.264 Y141.536 E173.40496
G1 X117.528 Y142.69 E173.52308
G1 X139.824 Y120.39 E176.66957
G1 X141.079 Y120.55 E176.79581
G1 X117.723 Y143.906 E180.09159
G1 X118.027 Y145.016 E180.20642
G1 X142.279 Y120.764 E183.62864
G1 X142.676 Y120.816 E183.6686
G1 X143.387 Y120.816 E183.73954
G1 X143.387 Y120.868 E183.74473
G1 X143.64 Y120.816 E183.7705
G1 X118.426 Y146.03 E187.32847
G1 X118.668 Y146.595 E187.3898
G1 X118.875 Y146.996 E187.43483
G1 X145.398 Y120.473 E191.17751
G1 X146.745 Y120.341 E191.31256
G1 X146.745 Y120.375 E191.31595
G1 X146.921 Y120.364 E191.33354
G1 X119.366 Y147.919 E195.22185
G1 X119.713 Y148.534 E195.29231
G1 X119.886 Y148.814 E195.32515
G1 X148.406 Y120.294 E199.34963
G1 X148.807 Y120.285 E199.38965
G1 X149.784 Y120.33 E199.48724
G1 X120.446 Y149.668 E203.62715
G1 X120.684 Y150.007 E203.66848
G1 X121.051 Y150.477 E203.72798
G1 X151.255 Y120.273 E207.99009
G1 X151.738 Y120.261 E208.0383
G1 X152.631 Y120.311 E208.12754
G1 X121.591 Y151.351 E212.50762
G1 X121.828 Y151.866 E212.56419
G1 X121.988 Y152.368 E212.61676
G1 X153.894 Y120.462 E217.11904
G1 X155.074 Y120.696 E217.23908
G1 X122.212 Y153.558 E221.87626
G1 X122.296 Y154.29 E221.94978
G1 X122.395 Y154.789 E222.00054
G1 X156.195 Y120.99 E226.77002
G1 X156.634 Y121.127 E226.8159
G1 X157.256 Y121.343 E226.8816
G1 X122.662 Y155.937 E231.76319
G1 X122.748 Y156.259 E231.79644
G1 X122.975 Y157.038 E231.87741
G1 X158.305 Y121.708 E236.86285
G1 X159.297 Y122.13 E236.97042
G1 X123.351 Y158.077 E242.04286
G1 X123.782 Y159.06 E242.14995
G1 X160.244 Y122.598 E247.29514
G1 X161.119 Y123.137 E247.39768
G1 X124.254 Y160.002 E252.59973
G1 X124.372 Y160.229 E252.62526
G1 X124.761 Y160.909 E252.70342
G1 X161.947 Y123.723 E257.95077
G1 X162.768 Y124.317 E258.05188
G1 X125.275 Y161.81 E263.34255
G1 X125.477 Y162.213 E263.38753
G1 X125.774 Y162.725 E263.44659
G1 X163.575 Y124.924 E268.78072
G1 X164.35 Y125.563 E268.88095
G1 X126.328 Y163.585 E274.24626
G1 X126.531 Y163.888 E274.28265
G1 X126.933 Y164.394 E274.34714
G1 X165.082 Y126.245 E279.73037
G1 X165.769 Y126.973 E279.83025
G1 X127.589 Y165.152 E285.21779
G1 X127.837 Y165.423 E285.25444
G1 X128.296 Y165.86 E285.31768
G1 X166.404 Y127.752 E290.69513
G1 X166.737 Y128.189 E290.74995
G1 X167.001 Y128.568 E290.79604
G1 X129.05 Y166.52 E296.15141
G1 X129.388 Y166.794 E296.19482
G1 X129.857 Y167.127 E296.25221
G1 X167.563 Y129.421 E301.57294
G1 X167.74 Y129.712 E301.60692
G1 X168.085 Y130.313 E301.67607
G1 X130.635 Y167.763 E306.96067
G1 X130.942 Y168.063 E307.0035
G1 X131.3 Y168.512 E307.0608
G1 X168.568 Y131.244 E312.31972
G1 X168.938 Y131.999 E312.40361
G1 X169.055 Y132.171 E312.42437
G1 X131.844 Y169.383 E317.67531
G1 X131.994 Y169.655 E317.70631
G1 X132.325 Y170.316 E317.78007
G1 X169.663 Y132.977 E323.04893
G1 X169.914 Y133.257 E323.08645
G1 X170.392 Y133.662 E323.14897
G1 X132.794 Y171.261 E328.45452
G1 X133.184 Y171.934 E328.53213
G1 X133.325 Y172.144 E328.55737
G1 X171.172 Y134.297 E333.89799
G1 X171.604 Y134.657 E333.9541
G1 X171.93 Y134.954 E333.99811
G1 X133.903 Y172.98 E339.36406
G1 X134.529 Y173.768 E339.46448
G1 X172.651 Y135.647 E344.84383
G1 X173.024 Y136.038 E344.89775
G1 X173.325 Y136.387 E344.94374
G1 X135.222 Y174.49 E350.32048
G1 X135.945 Y175.181 E350.42027
G1 X173.968 Y137.158 E355.78573
G1 X174.141 Y137.367 E355.8128
G1 X174.565 Y137.975 E355.88676
G1 X136.734 Y175.806 E361.22512
G1 X137.57 Y176.384 E361.32654
G1 X175.118 Y138.836 E366.62496
G1 X175.424 Y139.365 E366.68594
G1 X175.625 Y139.744 E366.72875
G1 X138.455 Y176.914 E371.97384
G1 X138.79 Y177.096 E372.01188
G1 X139.387 Y177.396 E372.07855
G1 X176.116 Y140.667 E377.2614
G1 X176.244 Y140.907 E377.28854
G1 X176.558 Y141.639 E377.36802
G1 X140.373 Y177.824 E382.47411
G1 X141.057 Y178.087 E382.54724
G1 X141.383 Y178.229 E382.58272
G1 X176.942 Y142.669 E387.60055
G1 X177.127 Y143.248 E387.6612
G1 X177.265 Y143.761 E387.7142
G1 X142.398 Y178.627 E392.63424
G1 X143.17 Y178.896 E392.71582
G1 X143.454 Y178.985 E392.74551
G1 X177.556 Y144.884 E397.5576
