;FLAVOR:Marlin
;TIME:7984
;Filament used: 6.36249m
;Layer height: 0.2
;MINX:100.088
;MINY:100.086
;MINZ:0.24
;MAXX:199.912
;MAXY:199.888
;MAXZ:6.09
;Generated with Cura_SteamEngine main
M140 S65
M105
M190 S65
M104 S212
M105
M109 S212
M82 ;absolute extrusion mode
M201 X500.00 Y500.00 Z100.00 E5000.00 ;Setup machine max acceleration
M203 X500.00 Y500.00 Z10.00 E50.00 ;Setup machine max feedrate
M204 P500.00 R1000.00 T500.00 ;Setup Print/Retract/Travel acceleration
M205 X8.00 Y8.00 Z0.40 E5.00 ;Setup Jerk
M220 S100 ;Reset Feedrate
M221 S100 ;Reset Flowrate

G28 ;Home
G29 ;Auto bed Level

G92 E0 ;Reset Extruder
G1 Z2.0 F3000 ;Move Z Axis up
G1 X10.1 Y20 Z0.28 F5000.0 ;Move to start position
G1 X10.1 Y200.0 Z0.28 F1500.0 E15 ;Draw the first line
G1 X10.4 Y200.0 Z0.28 F5000.0 ;Move to side a little
G1 X10.4 Y20 Z0.28 F1500.0 E30 ;Draw the second line
G92 E0 ;Reset Extruder
G1 Z2.0 F3000 ;Move Z Axis up

G92 E0
G92 E0
G1 F2700 E-5
;LAYER_COUNT:25
;LAYER:-6
M107
G0 F9000 X107.474 Y109.502 Z0.24
;TYPE:SUPPORT-INTERFACE
G1 F2700 E0
G1 F1125 X106.92 Y110.146 E0.06781
G1 X106.676 Y110.443 E0.09849
G1 X106.121 Y111.156 E0.17062
G1 X105.619 Y111.854 E0.23925
G1 X105.1 Y112.631 E0.31384
G1 X104.662 Y113.339 E0.38029
G1 X104.249 Y114.061 E0.44669
G1 X103.818 Y114.875 E0.52021
G1 X103.45 Y115.639 E0.5879
G1 X103.092 Y116.451 E0.65874
G1 X102.892 Y116.938 E0.70077
G1 X102.588 Y117.754 E0.77028
G1 X102.306 Y118.594 E0.84101
G1 X102.202 Y118.933 E0.86931
G1 X101.97 Y119.76 E0.93787
G1 X101.838 Y120.287 E0.98124
G1 X101.652 Y121.123 E1.04961
G1 X101.584 Y121.469 E1.07775
G1 X101.432 Y122.363 E1.15014
G1 X101.319 Y123.204 E1.21788
G1 X101.26 Y123.768 E1.26314
G1 X101.198 Y124.571 E1.32743
G1 X101.156 Y125.542 E1.40501
G1 X101.158 Y126.68 E1.49585
G1 X101.199 Y127.627 E1.57152
G1 X101.26 Y128.421 E1.63509
G1 X101.322 Y129.008 E1.6822
G1 X101.449 Y129.939 E1.75721
G1 X101.599 Y130.806 E1.82744
G1 X101.775 Y131.638 E1.89533
G1 X101.986 Y132.497 E1.96594
G1 X102.094 Y132.889 E1.99839
G1 X102.347 Y133.74 E2.06926
G1 X102.499 Y134.192 E2.10733
G1 X102.805 Y135.035 E2.17892
G1 X103.166 Y135.927 E2.25573
G1 X103.464 Y136.825 E2.33126
G1 X103.577 Y137.508 E2.38652
G1 X103.602 Y138.177 E2.43996
G1 X103.539 Y138.886 E2.49677
G1 X103.392 Y139.55 E2.55106
G1 X103.167 Y140.176 E2.60416
G1 X102.892 Y140.839 E2.66146
G1 X102.588 Y141.654 E2.73089
G1 X102.306 Y142.494 E2.80162
G1 X102.202 Y142.833 E2.82993
G1 X101.97 Y143.66 E2.89849
G1 X101.838 Y144.187 E2.94186
G1 X101.652 Y145.023 E3.01022
G1 X101.584 Y145.369 E3.03837
G1 X101.432 Y146.263 E3.11076
G1 X101.319 Y147.104 E3.17849
G1 X101.26 Y147.668 E3.22376
G1 X101.198 Y148.471 E3.28805
G1 X101.156 Y149.442 E3.36563
G1 X101.158 Y150.58 E3.45647
G1 X101.199 Y151.527 E3.53214
G1 X101.26 Y152.321 E3.5957
G1 X101.322 Y152.908 E3.64282
G1 X101.449 Y153.839 E3.71782
G1 X101.599 Y154.706 E3.78806
G1 X101.775 Y155.538 E3.85594
G1 X101.986 Y156.397 E3.92655
G1 X102.094 Y156.789 E3.95901
G1 X102.347 Y157.64 E4.02988
G1 X102.499 Y158.092 E4.06794
G1 X102.805 Y158.935 E4.13953
G1 X103.166 Y159.827 E4.21635
G1 X103.465 Y160.729 E4.2922
G1 X103.577 Y161.409 E4.34721
G1 X103.6 Y162.114 E4.40352
G1 X103.541 Y162.775 E4.45649
G1 X103.392 Y163.449 E4.51159
G1 X103.167 Y164.076 E4.56477
G1 X102.892 Y164.739 E4.62206
G1 X102.588 Y165.554 E4.6915
G1 X102.306 Y166.394 E4.76223
G1 X102.202 Y166.733 E4.79053
G1 X101.97 Y167.56 E4.8591
G1 X101.838 Y168.087 E4.90246
G1 X101.652 Y168.923 E4.97083
G1 X101.584 Y169.269 E4.99898
G1 X101.432 Y170.163 E5.07136
G1 X101.319 Y171.004 E5.1391
G1 X101.26 Y171.568 E5.18436
G1 X101.198 Y172.371 E5.24865
G1 X101.156 Y173.342 E5.32624
G1 X101.158 Y174.48 E5.41708
G1 X101.199 Y175.427 E5.49274
G1 X101.26 Y176.221 E5.55631
G1 X101.322 Y176.808 E5.60343
G1 X101.449 Y177.739 E5.67843
G1 X101.599 Y178.606 E5.74867
G1 X101.775 Y179.438 E5.81655
G1 X101.986 Y180.297 E5.88716
G1 X102.094 Y180.689 E5.91961
G1 X102.347 Y181.54 E5.99048
G1 X102.499 Y181.992 E6.02855
G1 X102.805 Y182.834 E6.10006
G1 X103.251 Y183.919 E6.1937
G1 X103.626 Y184.736 E6.26546
G1 X104.047 Y185.57 E6.34004
G1 X104.297 Y186.031 E6.3819
G1 X104.727 Y186.772 E6.45029
G1 X105.19 Y187.508 E6.51969
G1 X105.403 Y187.83 E6.55051
G1 X105.839 Y188.457 E6.61147
G1 X106.183 Y188.925 E6.65784
G1 X106.719 Y189.61 E6.72727
G1 X106.968 Y189.914 E6.75864
G1 X107.566 Y190.602 E6.8314
G1 X108.147 Y191.224 E6.89934
G1 X108.766 Y191.846 E6.96939
G1 X109.345 Y192.387 E7.03264
G1 X110.085 Y193.03 E7.1109
G1 X110.743 Y193.562 E7.17844
G1 X111.396 Y194.057 E7.24385
G1 X111.891 Y194.409 E7.29234
G1 X112.582 Y194.87 E7.35864
G1 X113.404 Y195.377 E7.43574
G1 X114.418 Y195.945 E7.52851
G1 X114.928 Y196.206 E7.57424
G1 X115.721 Y196.587 E7.64447
G1 X116.596 Y196.969 E7.72068
G1 X117.434 Y197.296 E7.79249
G1 X118.24 Y197.578 E7.86065
G1 X119.318 Y197.908 E7.95064
G1 X119.812 Y198.042 E7.9915
G1 X120.679 Y198.252 E8.06271
G1 X121.566 Y198.433 E8.13497
G1 X121.955 Y198.503 E8.16652
G1 X122.869 Y198.639 E8.24029
G1 X123.36 Y198.698 E8.27976
G1 X124.174 Y198.775 E8.34503
G1 X125.142 Y198.831 E8.42243
G1 X125.986 Y198.848 E8.48981
G1 X126.833 Y198.838 E8.55743
G1 X127.759 Y198.794 E8.63143
G1 X128.161 Y198.764 E8.66361
G1 X128.961 Y198.684 E8.72779
G1 X129.782 Y198.577 E8.79388
G1 X130.674 Y198.426 E8.86609
G1 X131.182 Y198.326 E8.90742
G1 X132.04 Y198.131 E8.97766
G1 X132.956 Y197.887 E9.05333
G1 X133.737 Y197.652 E9.11843
G1 X134.559 Y197.372 E9.18775
G1 X135.392 Y197.054 E9.25892
G1 X135.932 Y196.83 E9.30559
G1 X136.803 Y196.541 E9.37884
G1 X137.499 Y196.423 E9.43519
G1 X138.202 Y196.398 E9.49135
G1 X138.865 Y196.457 E9.54448
G1 X139.54 Y196.605 E9.59964
G1 X140.165 Y196.828 E9.65261
G1 X140.805 Y197.093 E9.70791
G1 X141.333 Y197.296 E9.75306
G1 X142.14 Y197.578 E9.8213
G1 X143.218 Y197.908 E9.91129
G1 X143.712 Y198.042 E9.95215
G1 X144.579 Y198.252 E10.02336
G1 X145.466 Y198.433 E10.09562
G1 X145.855 Y198.503 E10.12717
G1 X146.769 Y198.639 E10.20093
G1 X147.26 Y198.698 E10.24041
G1 X148.074 Y198.775 E10.30568
G1 X149.042 Y198.831 E10.38308
G1 X149.886 Y198.848 E10.45046
G1 X150.733 Y198.838 E10.51808
G1 X151.659 Y198.794 E10.59208
G1 X152.061 Y198.764 E10.62426
G1 X152.861 Y198.684 E10.68843
G1 X153.682 Y198.577 E10.75452
G1 X154.574 Y198.426 E10.82674
G1 X155.082 Y198.326 E10.86807
G1 X155.94 Y198.131 E10.93831
G1 X156.856 Y197.887 E11.01397
G1 X157.637 Y197.652 E11.07908
G1 X158.459 Y197.372 E11.1484
G1 X159.292 Y197.054 E11.21957
G1 X159.838 Y196.828 E11.26674
G1 X160.736 Y196.533 E11.34219
G1 X161.41 Y196.422 E11.39672
G1 X162.102 Y196.398 E11.45199
G1 X162.758 Y196.456 E11.50456
G1 X163.43 Y196.602 E11.55945
G1 X164.064 Y196.828 E11.61318
G1 X164.705 Y197.093 E11.66855
G1 X165.233 Y197.296 E11.7137
G1 X166.04 Y197.578 E11.78194
G1 X167.118 Y197.908 E11.87193
G1 X167.612 Y198.042 E11.91279
G1 X168.479 Y198.252 E11.984
G1 X169.366 Y198.433 E12.05626
G1 X169.755 Y198.503 E12.08781
G1 X170.669 Y198.639 E12.16158
G1 X171.16 Y198.698 E12.20105
G1 X171.974 Y198.775 E12.26632
G1 X172.942 Y198.831 E12.34372
G1 X173.786 Y198.848 E12.4111
G1 X174.633 Y198.838 E12.47872
G1 X175.559 Y198.794 E12.55272
G1 X175.961 Y198.764 E12.5849
G1 X176.761 Y198.684 E12.64908
G1 X177.582 Y198.577 E12.71517
G1 X178.474 Y198.426 E12.78738
G1 X178.982 Y198.326 E12.82871
G1 X179.84 Y198.131 E12.89895
G1 X180.756 Y197.887 E12.97462
G1 X181.539 Y197.652 E13.03987
G1 X181.879 Y197.54 E13.06845
G1 X182.687 Y197.25 E13.13697
G1 X183.522 Y196.918 E13.2087
G1 X184.364 Y196.548 E13.28212
G1 X185.035 Y196.227 E13.34149
G1 X185.672 Y195.899 E13.39869
G1 X186.426 Y195.476 E13.4677
G1 X186.752 Y195.284 E13.4979
G1 X187.5 Y194.816 E13.56833
G1 X188.176 Y194.361 E13.63338
G1 X188.915 Y193.825 E13.70625
G1 X189.418 Y193.437 E13.75696
G1 X190.276 Y192.722 E13.84611
G1 X190.701 Y192.345 E13.89146
G1 X191.317 Y191.763 E13.95911
G1 X191.951 Y191.121 E14.03113
G1 X192.528 Y190.497 E14.09898
G1 X192.762 Y190.231 E14.12726
G1 X193.326 Y189.558 E14.19735
G1 X193.879 Y188.843 E14.2695
G1 X194.19 Y188.417 E14.3116
G1 X194.678 Y187.705 E14.38051
G1 X195.154 Y186.966 E14.45068
G1 X195.337 Y186.663 E14.47893
G1 X195.751 Y185.939 E14.54551
G1 X196.182 Y185.125 E14.61903
G1 X196.551 Y184.36 E14.68683
G1 X196.752 Y183.914 E14.72588
G1 X197.109 Y183.058 E14.79991
G1 X197.241 Y182.715 E14.82925
G1 X197.529 Y181.909 E14.89757
G1 X197.798 Y181.065 E14.96828
G1 X198.03 Y180.24 E15.03669
G1 X198.162 Y179.713 E15.08006
G1 X198.348 Y178.878 E15.14834
G1 X198.416 Y178.531 E15.17657
G1 X198.568 Y177.637 E15.24896
G1 X198.681 Y176.796 E15.31669
G1 X198.74 Y176.232 E15.36196
G1 X198.802 Y175.429 E15.42625
G1 X198.844 Y174.458 E15.50383
G1 X198.846 Y174.258 E15.5198
G1 X198.842 Y173.301 E15.59619
G1 X198.801 Y172.373 E15.67034
G1 X198.739 Y171.569 E15.73471
G1 X198.678 Y170.992 E15.78102
G1 X198.546 Y170.028 E15.85869
G1 X198.4 Y169.192 E15.92644
G1 X198.321 Y168.801 E15.95828
G1 X198.136 Y167.981 E16.02538
G1 X197.905 Y167.109 E16.09739
G1 X197.653 Y166.26 E16.16808
G1 X197.485 Y165.761 E16.21011
G1 X197.195 Y164.965 E16.27773
G1 X196.834 Y164.072 E16.35462
G1 X196.536 Y163.175 E16.43007
G1 X196.423 Y162.489 E16.48557
G1 X196.4 Y161.786 E16.54172
G1 X196.461 Y161.114 E16.59558
G1 X196.608 Y160.449 E16.64994
G1 X196.833 Y159.824 E16.70297
G1 X197.109 Y159.159 E16.76044
G1 X197.241 Y158.815 E16.78985
G1 X197.529 Y158.009 E16.85818
G1 X197.798 Y157.165 E16.92889
G1 X198.03 Y156.34 E16.9973
G1 X198.162 Y155.813 E17.04066
G1 X198.348 Y154.978 E17.10895
G1 X198.416 Y154.631 E17.13718
G1 X198.568 Y153.737 E17.20956
G1 X198.681 Y152.896 E17.2773
G1 X198.74 Y152.332 E17.32256
G1 X198.802 Y151.529 E17.38685
G1 X198.844 Y150.558 E17.46444
G1 X198.842 Y149.401 E17.55679
G1 X198.801 Y148.473 E17.63094
G1 X198.739 Y147.669 E17.69531
G1 X198.678 Y147.092 E17.74163
G1 X198.546 Y146.128 E17.8193
G1 X198.4 Y145.292 E17.88704
G1 X198.321 Y144.901 E17.91888
G1 X198.136 Y144.081 E17.98598
G1 X197.905 Y143.209 E18.05799
G1 X197.653 Y142.36 E18.12868
G1 X197.485 Y141.861 E18.17071
G1 X197.195 Y141.065 E18.23834
G1 X196.834 Y140.172 E18.31523
G1 X196.535 Y139.271 E18.391
G1 X196.423 Y138.588 E18.44625
G1 X196.4 Y137.886 E18.50232
G1 X196.459 Y137.225 E18.55529
G1 X196.608 Y136.551 E18.61039
G1 X196.833 Y135.924 E18.66357
G1 X197.109 Y135.259 E18.72104
G1 X197.241 Y134.915 E18.75045
G1 X197.529 Y134.109 E18.81878
G1 X197.798 Y133.265 E18.88949
G1 X198.03 Y132.44 E18.9579
G1 X198.162 Y131.913 E19.00126
G1 X198.348 Y131.078 E19.06955
G1 X198.416 Y130.731 E19.09778
G1 X198.568 Y129.837 E19.17016
G1 X198.681 Y128.996 E19.2379
G1 X198.74 Y128.432 E19.28316
G1 X198.802 Y127.629 E19.34745
G1 X198.844 Y126.658 E19.42504
G1 X198.842 Y125.501 E19.51739
G1 X198.801 Y124.573 E19.59154
G1 X198.739 Y123.769 E19.65591
G1 X198.678 Y123.192 E19.70223
G1 X198.546 Y122.228 E19.7799
G1 X198.4 Y121.392 E19.84764
G1 X198.321 Y121.001 E19.87948
G1 X198.136 Y120.181 E19.94658
G1 X197.905 Y119.309 E20.01859
G1 X197.653 Y118.46 E20.08928
G1 X197.485 Y117.961 E20.13131
G1 X197.195 Y117.165 E20.19894
G1 X196.866 Y116.354 E20.2688
G1 X196.513 Y115.557 E20.33838
G1 X196.361 Y115.238 E20.36659
G1 X195.952 Y114.429 E20.43895
G1 X195.703 Y113.969 E20.4807
G1 X195.266 Y113.216 E20.5502
G1 X195.081 Y112.915 E20.5784
G1 X194.597 Y112.169 E20.64939
G1 X194.16 Y111.542 E20.71039
G1 X193.816 Y111.074 E20.75676
G1 X193.256 Y110.357 E20.82938
G1 X193.032 Y110.086 E20.85744
G1 X192.433 Y109.397 E20.93032
G1 X191.854 Y108.776 E20.9981
G1 X191.218 Y108.139 E21.06995
G1 X190.655 Y107.612 E21.13151
G1 X189.916 Y106.971 E21.2096
G1 X189.255 Y106.437 E21.27743
G1 X188.865 Y106.137 E21.31671
G1 X188.107 Y105.59 E21.39132
G1 X187.417 Y105.128 E21.45761
G1 X186.586 Y104.617 E21.53548
G1 X185.582 Y104.055 E21.62732
G1 X184.678 Y103.602 E21.70804
G1 X183.924 Y103.254 E21.77433
G1 X183.096 Y102.907 E21.84599
G1 X182.229 Y102.582 E21.9199
G1 X181.446 Y102.321 E21.98578
G1 X180.683 Y102.092 E22.04937
G1 X180.187 Y101.958 E22.09039
G1 X179.322 Y101.748 E22.16144
G1 X178.435 Y101.567 E22.2337
G1 X178.056 Y101.499 E22.26444
G1 X177.132 Y101.361 E22.33902
G1 X176.64 Y101.302 E22.37857
G1 X175.828 Y101.225 E22.44368
G1 X174.857 Y101.169 E22.52132
G1 X174.014 Y101.152 E22.58862
G1 X173.167 Y101.162 E22.65624
G1 X172.24 Y101.206 E22.73032
G1 X171.839 Y101.236 E22.76242
G1 X171.039 Y101.316 E22.8266
G1 X170.217 Y101.423 E22.89277
G1 X169.647 Y101.516 E22.93887
G1 X168.817 Y101.674 E23.00631
G1 X167.96 Y101.869 E23.07647
G1 X167.043 Y102.113 E23.15221
G1 X166.262 Y102.348 E23.21732
G1 X165.439 Y102.628 E23.28671
G1 X164.605 Y102.946 E23.35796
G1 X164.066 Y103.17 E23.40455
G1 X163.197 Y103.459 E23.47766
G1 X162.501 Y103.577 E23.53401
G1 X161.798 Y103.602 E23.59016
G1 X161.135 Y103.543 E23.64329
G1 X160.482 Y103.402 E23.69662
G1 X159.831 Y103.171 E23.75176
G1 X159.505 Y103.032 E23.78005
G1 X158.677 Y102.708 E23.85102
G1 X158.331 Y102.582 E23.88042
G1 X157.546 Y102.321 E23.94645
G1 X156.783 Y102.092 E24.01004
G1 X156.287 Y101.958 E24.05105
G1 X155.421 Y101.748 E24.12218
G1 X154.534 Y101.567 E24.19445
G1 X154.143 Y101.497 E24.22616
G1 X153.272 Y101.367 E24.29645
G1 X152.74 Y101.302 E24.33923
G1 X151.928 Y101.225 E24.40434
G1 X150.958 Y101.169 E24.4819
G1 X150.114 Y101.152 E24.54929
G1 X149.267 Y101.162 E24.6169
G1 X148.34 Y101.206 E24.69098
G1 X147.939 Y101.236 E24.72308
G1 X147.139 Y101.316 E24.78726
G1 X146.317 Y101.423 E24.85343
G1 X145.747 Y101.516 E24.89953
G1 X144.917 Y101.674 E24.96697
G1 X144.06 Y101.869 E25.03713
G1 X143.143 Y102.113 E25.11288
G1 X142.362 Y102.348 E25.17798
G1 X141.539 Y102.628 E25.24738
G1 X140.705 Y102.946 E25.31862
G1 X140.166 Y103.17 E25.36522
G1 X139.264 Y103.467 E25.44102
G1 X138.59 Y103.578 E25.49555
G1 X137.898 Y103.602 E25.55082
G1 X137.242 Y103.544 E25.60339
G1 X136.58 Y103.401 E25.65745
G1 X135.931 Y103.171 E25.71241
G1 X135.605 Y103.032 E25.7407
G1 X134.777 Y102.708 E25.81168
G1 X134.431 Y102.582 E25.84107
G1 X133.646 Y102.321 E25.90711
G1 X132.883 Y102.092 E25.9707
G1 X132.387 Y101.958 E26.01171
G1 X131.521 Y101.748 E26.08284
G1 X130.634 Y101.567 E26.1551
G1 X130.243 Y101.497 E26.18681
G1 X129.372 Y101.367 E26.25711
G1 X128.84 Y101.302 E26.29989
G1 X128.028 Y101.225 E26.365
G1 X127.058 Y101.169 E26.44256
G1 X126.214 Y101.152 E26.50994
G1 X125.367 Y101.162 E26.57756
G1 X124.44 Y101.206 E26.65164
G1 X124.039 Y101.236 E26.68374
G1 X123.239 Y101.316 E26.74792
G1 X122.417 Y101.423 E26.81409
G1 X121.847 Y101.516 E26.86019
G1 X121.017 Y101.674 E26.92763
G1 X120.16 Y101.869 E26.99779
G1 X119.245 Y102.113 E27.07338
G1 X118.118 Y102.46 E27.16751
G1 X117.644 Y102.627 E27.20763
G1 X116.81 Y102.946 E27.2789
G1 X115.961 Y103.304 E27.35245
G1 X114.97 Y103.771 E27.4399
G1 X114.33 Y104.102 E27.49742
G1 X113.574 Y104.524 E27.56653
G1 X113.248 Y104.716 E27.59673
G1 X112.499 Y105.185 E27.66727
G1 X111.822 Y105.64 E27.73239
G1 X111.401 Y105.941 E27.7737
G1 X110.58 Y106.564 E27.85597
G1 X109.999 Y107.042 E27.91602
G1 X109.298 Y107.657 E27.99046
G1 X109.038 Y107.896 E28.01865
G1 X108.448 Y108.47 E28.08436
G1 X108.05 Y108.879 E28.12991
G1 X107.474 Y109.502 E28.19764
G0 F9000 X107.648 Y109.911
G1 F1125 X190.088 Y192.351 E37.50418
G0 F9000 X191.256 Y191.256
G1 F1125 X108.742 Y108.742 E46.81908
G0 F9000 X109.912 Y107.649
G1 F1125 X192.352 Y190.09 E56.12567
G0 F9000 X193.371 Y188.845
G1 F1125 X111.155 Y106.629 E65.40692
G0 F9000 X112.473 Y105.684
G1 F1125 X194.315 Y187.526 E74.64596
G0 F9000 X195.181 Y186.13
G1 F1125 X113.868 Y104.817 E83.82527
G0 F9000 X115.348 Y104.034
G1 F1125 X195.966 Y184.652 E92.92613
G0 F9000 X196.663 Y183.086
G1 F1125 X116.913 Y103.336 E101.929
G0 F9000 X118.576 Y102.737
G1 F1125 X197.263 Y181.424 E110.81187
G0 F9000 X197.762 Y179.66
G1 F1125 X120.34 Y102.238 E119.55193
G0 F9000 X122.224 Y101.86
G1 F1125 X198.138 Y177.773 E128.1217
G0 F9000 X198.376 Y175.749
G1 F1125 X124.248 Y101.621 E136.48991
G0 F9000 X126.446 Y101.556
G1 F1125 X198.442 Y173.552 E144.61744
G0 F9000 X198.291 Y171.138
G1 F1125 X128.86 Y101.707 E152.45541
G0 F9000 X131.592 Y102.176
G1 F1125 X197.82 Y168.405 E159.93186
G0 F9000 X196.84 Y165.162
G1 F1125 X134.84 Y103.161 E166.93101
