;FLAVOR:Marlin
;TIME:1981
;Filament used: 1.1101m
;Layer height: 0.2
;MINX:126.331
;MINY:125.43
;MINZ:0.24
;MAXX:175.133
;MAXY:174.918
;MAXZ:20.09
;Generated with Cura_SteamEngine main
M140 S50
M105
M190 S50
M104 S200
M105
M109 S200
M82 ;absolute extrusion mode
M201 X500.00 Y500.00 Z100.00 E5000.00 ;Setup machine max acceleration
M203 X500.00 Y500.00 Z10.00 E50.00 ;Setup machine max feedrate
M204 P500.00 R1000.00 T500.00 ;Setup Print/Retract/Travel acceleration
M205 X8.00 Y8.00 Z0.40 E5.00 ;Setup Jerk
M220 S100 ;Reset Feedrate
M221 S100 ;Reset Flowrate

G28 ;Home
G29 ;Auto bed Level

G92 E0 ;Reset Extruder
G1 Z2.0 F3000 ;Move Z Axis up
G1 X10.1 Y20 Z0.28 F5000.0 ;Move to start position
G1 X10.1 Y200.0 Z0.28 F1500.0 E15 ;Draw the first line
G1 X10.4 Y200.0 Z0.28 F5000.0 ;Move to side a little
G1 X10.4 Y20 Z0.28 F1500.0 E30 ;Draw the second line
G92 E0 ;Reset Extruder
G1 Z2.0 F3000 ;Move Z Axis up

G92 E0
G92 E0
G1 F2700 E-5
;LAYER_COUNT:95
;LAYER:-6
M107
G0 F9000 X136.174 Y131.107 Z0.24
;TYPE:SUPPORT-INTERFACE
G1 F2700 E0
G1 F1125 X135.421 Y131.981 E0.09209
G1 X134.826 Y132.774 E0.17123
G1 X134.264 Y133.651 E0.25437
G1 X133.792 Y134.518 E0.33317
G1 X133.309 Y135.573 E0.42579
G1 X132.978 Y136.471 E0.50219
G1 X132.885 Y136.757 E0.5262
G1 X132.5 Y137.647 E0.6036
G1 X132.123 Y138.239 E0.65963
G1 X131.703 Y138.751 E0.71249
G1 X131.11 Y139.306 E0.77732
G1 X130.461 Y139.93 E0.84919
G1 X129.758 Y140.707 E0.93283
G1 X129.091 Y141.561 E1.01933
G1 X128.458 Y142.509 E1.11032
G1 X127.933 Y143.444 E1.19592
G1 X127.477 Y144.417 E1.28169
G1 X127.101 Y145.408 E1.3663
G1 X126.78 Y146.494 E1.4567
G1 X126.552 Y147.536 E1.54184
G1 X126.408 Y148.523 E1.62146
G1 X126.331 Y149.594 E1.70718
G1 X126.336 Y150.736 E1.79834
G1 X126.409 Y151.711 E1.87638
G1 X126.566 Y152.765 E1.96145
G1 X126.643 Y153.387 E2.01148
G1 X126.679 Y153.933 E2.05516
G1 X126.817 Y155.206 E2.15737
G1 X127.013 Y156.224 E2.24012
G1 X127.177 Y156.876 E2.29379
G1 X127.51 Y157.929 E2.38195
G1 X127.86 Y158.822 E2.45851
G1 X128.482 Y160.253 E2.58306
G1 X128.813 Y160.965 E2.64574
G1 X129.08 Y161.493 E2.69297
G1 X129.537 Y162.337 E2.76958
G1 X129.698 Y162.613 E2.79509
G1 X130.068 Y163.212 E2.85129
G1 X130.564 Y163.931 E2.92101
G1 X131.211 Y164.749 E3.00427
G1 X132.038 Y165.649 E3.10183
G1 X133.133 Y166.747 E3.22561
G1 X133.759 Y167.335 E3.29417
G1 X134.645 Y168.066 E3.38586
G1 X135.466 Y168.641 E3.46587
G1 X135.662 Y168.768 E3.48451
G1 X136.308 Y169.231 E3.54796
G1 X136.709 Y169.505 E3.58673
G1 X137.203 Y169.88 E3.63623
G1 X138.01 Y170.458 E3.71547
G1 X138.917 Y171.014 E3.80039
G1 X139.919 Y171.532 E3.89043
G1 X140.542 Y171.826 E3.94542
G1 X141.481 Y172.295 E4.02921
G1 X142.402 Y172.661 E4.10832
G1 X143.48 Y173.004 E4.19862
G1 X143.916 Y173.123 E4.23469
G1 X144.759 Y173.325 E4.30389
G1 X145.716 Y173.491 E4.38142
G1 X146.273 Y173.57 E4.42633
G1 X146.905 Y173.644 E4.47712
G1 X148.618 Y173.8 E4.61443
G1 X149.579 Y173.852 E4.69125
G1 X150.492 Y173.846 E4.76413
G1 X151.561 Y173.765 E4.84971
G1 X152.602 Y173.609 E4.93374
G1 X153.817 Y173.332 E5.03321
G1 X154.301 Y173.237 E5.07258
G1 X156.282 Y173.057 E5.23137
G1 X157.235 Y172.891 E5.30858
G1 X158.405 Y172.6 E5.40482
G1 X159.286 Y172.313 E5.47879
G1 X160.331 Y171.888 E5.56884
G1 X160.745 Y171.7 E5.60513
G1 X161.479 Y171.337 E5.6705
G1 X162.327 Y170.858 E5.74824
G1 X163.207 Y170.275 E5.8325
G1 X164.06 Y169.616 E5.91855
G1 X164.851 Y168.906 E6.00339
G1 X165.602 Y168.123 E6.09
G1 X166.313 Y167.256 E6.1795
G1 X166.89 Y166.448 E6.25876
G1 X167.483 Y165.459 E6.35081
G1 X167.958 Y164.52 E6.43481
G1 X168.317 Y163.673 E6.50824
G1 X168.66 Y162.674 E6.59255
G1 X168.744 Y162.395 E6.61581
G1 X168.759 Y162.386 E6.61721
G1 X168.92 Y161.879 E6.65967
G1 X169.22 Y161.249 E6.71537
G1 X169.595 Y160.672 E6.7703
G1 X170.014 Y160.175 E6.82219
G1 X170.764 Y159.335 E6.91208
G1 X171.403 Y158.496 E6.99627
G1 X171.946 Y157.661 E7.07577
G1 X172.505 Y156.663 E7.16708
G1 X172.963 Y155.668 E7.25452
G1 X173.323 Y154.699 E7.33704
G1 X173.643 Y153.591 E7.4291
G1 X173.851 Y152.627 E7.50782
G1 X174 Y151.563 E7.59358
G1 X174.068 Y150.509 E7.67789
G1 X174.067 Y149.992 E7.71916
G1 X174.064 Y149.447 E7.76266
G1 X173.977 Y148.374 E7.8486
G1 X173.817 Y147.334 E7.93259
G1 X173.557 Y146.229 E8.0232
G1 X173.284 Y145.338 E8.09759
G1 X172.902 Y144.341 E8.18282
G1 X172.376 Y143.237 E8.28044
G1 X171.671 Y141.887 E8.40201
G1 X171.002 Y140.703 E8.51056
G1 X170.495 Y139.911 E8.58563
G1 X170.347 Y139.698 E8.60633
G1 X170.35 Y139.678 E8.60795
G1 X169.417 Y138.383 E8.73535
G1 X168.886 Y137.684 E8.80543
G1 X168.563 Y137.31 E8.84487
G1 X168.034 Y136.668 E8.91128
G1 X167.695 Y136.306 E8.95086
G1 X167.314 Y135.875 E8.99678
G1 X166.631 Y135.166 E9.07537
G1 X165.905 Y134.515 E9.15321
G1 X165.513 Y134.139 E9.19657
G1 X164.863 Y133.56 E9.26605
G1 X163.997 Y132.888 E9.35355
G1 X161.653 Y131.222 E9.5831
G1 X160.532 Y130.502 E9.68946
G1 X159.317 Y129.858 E9.79922
G1 X159.13 Y129.749 E9.8165
G1 X158.206 Y129.269 E9.89962
G1 X157.552 Y128.984 E9.95656
G1 X156.852 Y128.655 E10.01831
G1 X155.897 Y128.287 E10.1
G1 X155.024 Y127.973 E10.17406
G1 X154.501 Y127.799 E10.21806
G1 X153.02 Y127.377 E10.34098
G1 X152.209 Y127.179 E10.40762
G1 X150.868 Y126.924 E10.51658
G1 X150.205 Y126.82 E10.57015
G1 X148.862 Y126.634 E10.67838
G1 X147.693 Y126.517 E10.77216
G1 X146.618 Y126.494 E10.85799
G1 X145.465 Y126.558 E10.95017
G1 X144.504 Y126.678 E11.02748
G1 X143.375 Y126.908 E11.11945
G1 X142.352 Y127.196 E11.20429
G1 X141.495 Y127.503 E11.27695
G1 X140.527 Y127.924 E11.36121
G1 X139.487 Y128.469 E11.45494
G1 X138.524 Y129.084 E11.54615
G1 X137.744 Y129.659 E11.6235
G1 X136.997 Y130.299 E11.70202
G1 X136.174 Y131.107 E11.79409
G0 F9000 X136.206 Y131.68
G1 F1125 X167.971 Y163.445 E15.38
G0 F9000 X167.265 Y165.002
G1 F1125 X135.2 Y132.938 E18.99971
G0 F9000 X134.342 Y134.342
G1 F1125 X166.418 Y166.418 E22.62073
G0 F9000 X165.433 Y167.696
G1 F1125 X133.62 Y135.883 E26.21206
G0 F9000 X132.992 Y137.518
G1 F1125 X164.318 Y168.844 E29.74841
G0 F9000 X163.079 Y169.867
G1 F1125 X132.103 Y138.892 E33.24519
G0 F9000 X130.956 Y140.007
G1 F1125 X161.7 Y170.751 E36.71584
G0 F9000 X160.195 Y171.508
G1 F1125 X129.882 Y141.196 E40.13777
G0 F9000 X128.935 Y142.511
G1 F1125 X158.553 Y172.129 E43.48131
G0 F9000 X156.731 Y172.57
G1 F1125 X128.128 Y143.967 E46.71026
G0 F9000 X127.468 Y145.57
G1 F1125 X154.695 Y172.797 E49.78388
G0 F9000 X152.79 Y173.154
G1 F1125 X126.998 Y147.363 E52.69545
G0 F9000 X126.747 Y149.374
G1 F1125 X150.792 Y173.42 E55.40991
G0 F9000 X148.495 Y173.386
G1 F1125 X126.811 Y151.701 E57.85785
G0 F9000 X127.118 Y154.27
G1 F1125 X145.968 Y173.121 E59.98585
G0 F9000 X143.022 Y172.437
G1 F1125 X127.658 Y157.073 E61.72027
G0 F9000 X129.235 Y160.914
G1 F1125 X138.781 Y170.46 E62.79791
G1 F2700 E57.79791
G0 F9000 X138.313 Y171.893
G0 X141.166 Y173.315
G0 X143.241 Y174.044
G0 X144.552 Y174.37
G0 X146.887 Y174.711
G0 X149.564 Y174.918
G0 X151.672 Y174.824
G0 X157.629 Y173.896
G0 X159.643 Y173.315
G0 X161.798 Y172.372
G0 X162.964 Y171.714
G0 X164.648 Y170.508
G0 X165.663 Y169.597
G0 X167.057 Y168.034
G0 X167.839 Y166.936
G0 X168.853 Y165.119
G0 X169.148 Y164.419
G0 X169.911 Y162.271
G0 X168.541 Y161.752
G1 F2700 E62.79791
G1 F1125 X137.33 Y130.541 E66.32128
G0 F9000 X138.585 Y129.534
G1 F1125 X169.371 Y160.32 E69.79667
G0 F9000 X170.426 Y159.112
G1 F1125 X139.977 Y128.663 E73.23401
G0 F9000 X141.509 Y127.933
G1 F1125 X171.377 Y157.8 E76.60571
G0 F9000 X172.201 Y156.362
G1 F1125 X143.209 Y127.37 E79.87858
G0 F9000 X145.108 Y127.006
G1 F1125 X172.869 Y154.767 E83.01248
G0 F9000 X173.361 Y152.996
G1 F1125 X147.273 Y126.908 E85.95752
G0 F9000 X149.794 Y127.167
G1 F1125 X173.635 Y151.007 E88.64884
G0 F9000 X173.602 Y148.712
G1 F1125 X152.569 Y127.679 E91.02323
G0 F9000 X155.851 Y128.698
G1 F1125 X173.031 Y145.878 E92.96266
G1 F2700 E87.96266
G0 F9000 X174.295 Y145
G0 X173.907 Y144.005
G0 X172.61 Y141.384
G0 X171.091 Y141.675
G1 F2700 E92.96266
G1 F1125 X160.19 Y130.774 E94.19326
G1 F2700 E89.19326
G0 F300 X160.19 Y130.774 Z0.54
G0 F9000 X160.874 Y129.477
G0 X158.654 Y128.303
G0 X156.269 Y127.29
G0 X154.186 Y126.596
G0 X152.436 Y126.137
G0 X148.93 Y125.57
G0 X146.712 Y125.43
G0 X145.359 Y125.498
G0 X143.291 Y125.832
G0 X142.018 Y126.185
G0 X140.445 Y126.812
G0 X139.063 Y127.489
G0 X139.692 Y128.811
;TIME_ELAPSED:73.400453
;LAYER:-5
;TYPE:SUPPORT
G1 F2700 E94.19326
G1 F1125 X138.747 Y129.414 E94.30511
G1 X137.994 Y129.971 E94.39857
G1 X137.249 Y130.608 E94.49637
G1 X136.467 Y131.376 E94.60574
G1 X135.731 Y132.232 E94.71838
G1 X135.217 Y132.916 E94.80375
G1 X134.599 Y133.868 E94.917
G1 X134.321 Y134.379 E94.97505
G1 X140.111 Y128.588 E95.79215
G1 X140.608 Y128.325 E95.84826
G1 X141.508 Y127.927 E95.94645
G1 X142.575 Y127.539 E96.05973
G1 X133.292 Y136.821 E97.36959
G1 X132.861 Y137.823 E97.47843
G1 X132.463 Y138.452 E97.5527
G1 X131.912 Y139.122 E97.63926
G1 X131.381 Y139.599 E97.71048
G1 X130.635 Y140.324 E97.81428
G1 X129.966 Y141.08 E97.91501
G1 X129.407 Y141.804 E98.00627
G1 X128.79 Y142.738 E98.11797
G1 X144.441 Y127.087 E100.32649
G1 X145.584 Y126.946 E100.44141
G1 X146.018 Y126.924 E100.48477
G1 X127.507 Y145.435 E103.09687
G1 X127.164 Y146.597 E103.21776
G1 X126.999 Y147.358 E103.29546
G1 X147.441 Y126.915 E106.18011
G1 X147.744 Y126.924 E106.21036
G1 X148.749 Y127.022 E106.31112
G1 X126.775 Y148.996 E109.41189
G1 X126.729 Y149.607 E109.47302
G1 X126.734 Y150.451 E109.55724
G1 X149.992 Y127.193 E112.83919
G1 X150.785 Y127.315 E112.91925
G1 X151.205 Y127.394 E112.96189
G1 X126.823 Y151.776 E116.40246
G1 X126.999 Y153.015 E116.52733
G1 X152.382 Y127.632 E120.10914
G1 X152.932 Y127.766 E120.16563
G1 X153.501 Y127.926 E120.2246
G1 X127.123 Y154.304 E123.94682
G1 X127.214 Y155.146 E124.03133
G1 X127.291 Y155.55 E124.07237
G1 X154.589 Y128.253 E127.92434
G1 X154.893 Y128.349 E127.95615
G1 X155.638 Y128.618 E128.03518
G1 X127.543 Y156.713 E131.99969
G1 X127.883 Y157.788 E132.11219
G1 X156.661 Y129.009 E136.17315
G1 X157.629 Y129.455 E136.27949
G1 X128.286 Y158.799 E140.42018
G1 X128.714 Y159.784 E140.52734
G1 X158.586 Y129.913 E144.74253
G1 X158.93 Y130.094 E144.78132
G1 X159.128 Y130.21 E144.80421
G1 X159.504 Y130.408 E144.84662
G1 X129.157 Y160.756 E149.12898
G1 X129.428 Y161.298 E149.18944
G1 X129.639 Y161.688 E149.23369
G1 X160.422 Y130.905 E153.5775
G1 X161.281 Y131.46 E153.67954
G1 X130.154 Y162.587 E158.0719
G1 X130.401 Y162.988 E158.11889
G1 X130.714 Y163.442 E158.17392
G1 X162.116 Y132.039 E162.60515
G1 X162.943 Y132.627 E162.7064
G1 X131.324 Y164.246 E167.16818
G1 X131.516 Y164.49 E167.19916
G1 X131.984 Y165 E167.26823
G1 X163.77 Y133.214 E171.75358
G1 X164.567 Y133.831 E171.85415
G1 X132.677 Y165.721 E176.35417
G1 X133.382 Y166.43 E176.45393
G1 X165.312 Y134.5 E180.9596
G1 X165.637 Y134.812 E181.00456
G1 X166.047 Y135.179 E181.05946
G1 X134.115 Y167.111 E185.56541
G1 X134.894 Y167.746 E185.66569
G1 X166.76 Y135.881 E190.16226
G1 X167.032 Y136.159 E190.20107
G1 X167.439 Y136.616 E190.26213
G1 X135.729 Y168.326 E194.73675
G1 X136.554 Y168.915 E194.8379
G1 X168.096 Y137.373 E199.28881
G1 X168.569 Y137.928 E199.36158
G1 X168.736 Y138.148 E199.38914
G1 X137.376 Y169.507 E203.8143
G1 X138.197 Y170.1 E203.91535
G1 X169.338 Y138.959 E208.30969
G1 X169.924 Y139.787 E208.4109
G1 X139.069 Y170.643 E212.76495
G1 X140.002 Y171.124 E212.86968
G1 X170.486 Y140.64 E217.17131
G1 X170.655 Y140.904 E217.20258
G1 X171.009 Y141.531 E217.27443
G1 X140.956 Y171.584 E221.51523
G1 X141.639 Y171.925 E221.5914
G1 X141.919 Y172.036 E221.62146
G1 X171.509 Y142.445 E225.797
G1 X171.993 Y143.375 E225.90161
G1 X142.95 Y172.419 E229.99996
G1 X143.606 Y172.624 E230.06854
G1 X144.041 Y172.741 E230.11348
G1 X172.464 Y144.319 E234.1242
G1 X172.857 Y145.34 E234.23337
G1 X145.202 Y172.995 E238.13579
G1 X145.784 Y173.097 E238.19474
G1 X146.426 Y173.186 E238.25941
G1 X173.193 Y146.419 E242.03653
G1 X173.461 Y147.565 E242.15396
G1 X147.709 Y173.316 E245.78778
G1 X148.594 Y173.398 E245.87646
G1 X149.018 Y173.422 E245.91883
G1 X173.61 Y148.83 E249.38903
G1 X173.663 Y149.545 E249.46057
G1 X173.667 Y150.187 E249.52463
G1 X150.408 Y173.446 E252.80673
G1 X151.67 Y173.35 E252.93301
G1 X151.963 Y173.305 E252.96259
G1 X173.577 Y151.692 E256.01249
G1 X173.443 Y152.621 E256.10614
G1 X173.267 Y153.416 E256.18739
G1 X153.743 Y172.939 E258.94237
G1 X154.369 Y172.813 E259.00608
G1 X154.965 Y172.773 E259.06569
G1 X155.359 Y172.738 E259.10515
G1 X172.595 Y155.501 E261.53741
G1 X172.118 Y156.535 E261.65103
G1 X171.611 Y157.443 E261.7548
G1 X171.09 Y158.246 E261.85031
G1 X170.523 Y158.988 E261.94349
G1 X156.986 Y172.524 E263.85364
G1 X157.295 Y172.469 E263.88495
G1 X158.314 Y172.21 E263.98986
G1 X158.913 Y172.012 E264.05281
G1 X168.23 Y162.695 E265.36754
G1 X167.971 Y163.459 E265.44803
G1 X167.596 Y164.349 E265.5444
G1 X167.132 Y165.265 E265.64686
G1 X166.556 Y166.228 E265.75882
G1 X165.998 Y167.008 E265.85451
G1 X165.301 Y167.859 E265.96427
G1 X164.514 Y168.669 E266.07696
G1 X163.804 Y169.307 E266.17221
G1 X162.978 Y169.946 E266.27641
G1 X162.186 Y170.473 E266.37133
G0 F9000 X161.441 Y170.898
G1 F1125 X167.191 Y165.148 E267.18272
G1 F2700 E262.18272
G0 F300 X167.191 Y165.148 Z0.74
G0 F9000 X168.498 Y165.815
G0 X173.499 Y157.05
G0 X174.303 Y155.122
G0 X174.679 Y153.84
G0 X175.044 Y151.788
G0 X175.133 Y150.429
G0 X175.045 Y148.37
G0 X174.837 Y147.014
G0 X174.295 Y145
G0 X173.814 Y143.771
G0 X172.153 Y140.575
G0 X171.695 Y139.777
G0 X169.824 Y137.154
G0 X168.569 Y137.928
;TIME_ELAPSED:168.259422
;LAYER:-4
;TYPE:SUPPORT-INTERFACE
G1 F2700 E267.18272
G1 F1500 X168.26 Y137.57 E267.19845
G1 X167.724 Y136.921 E267.22644
G1 X167.4 Y136.574 E267.24223
G1 X167.032 Y136.159 E267.26068
G1 X166.3 Y135.406 E267.29561
G1 X165.637 Y134.812 E267.32522
G1 X165.23 Y134.423 E267.34394
G1 X164.521 Y133.79 E267.37555
G1 X163.742 Y133.195 E267.40816
G1 X168.87 Y138.323 E267.64936
G1 X169.089 Y138.609 E267.66134
G1 X169.81 Y139.621 E267.70267
G1 X170.247 Y140.266 E267.72858
G1 X161.786 Y131.804 E268.12659
G1 X161.506 Y131.606 E268.13799
G1 X160.331 Y130.846 E268.18454
G1 X160.185 Y130.769 E268.19003
G1 X171.092 Y141.676 E268.70306
G1 X171.312 Y142.066 E268.71795
G1 X171.744 Y142.894 E268.74901
G1 X158.965 Y130.115 E269.3501
G1 X158.173 Y129.696 E269.3799
G1 X157.828 Y129.544 E269.39244
G1 X172.309 Y144.025 E270.07358
G1 X172.531 Y144.493 E270.09081
G1 X172.731 Y145.012 E270.10931
G1 X156.785 Y129.066 E270.85936
G1 X155.851 Y128.699 E270.89274
G1 X173.029 Y145.876 E271.70071
G1 X173.204 Y146.455 E271.72083
G1 X173.253 Y146.665 E271.728
G1 X154.962 Y128.375 E272.58833
G1 X154.13 Y128.109 E272.61739
G1 X173.422 Y147.4 E273.5248
G1 X173.526 Y148.07 E273.54735
G1 X153.337 Y127.881 E274.49698
G1 X152.932 Y127.766 E274.51098
G1 X152.568 Y127.678 E274.52344
G1 X173.601 Y148.711 E275.51276
G1 X173.647 Y149.322 E275.53314
G1 X151.839 Y127.515 E276.5589
G1 X151.141 Y127.383 E276.58253
G1 X173.666 Y149.907 E277.64201
G1 X173.669 Y150.476 E277.66094
G1 X150.457 Y127.264 E278.75276
G1 X149.793 Y127.166 E278.77508
G1 X173.635 Y151.008 E279.89654
G1 X173.599 Y151.537 E279.91417
G1 X149.135 Y127.074 E281.06486
G1 X148.812 Y127.028 E281.07571
G1 X148.493 Y126.997 E281.08637
G1 X173.528 Y152.032 E282.26394
G1 X173.457 Y152.527 E282.28057
G1 X147.857 Y126.927 E283.48472
G1 X147.276 Y126.911 E283.50405
G1 X173.36 Y152.995 E284.73096
G1 X173.258 Y153.459 E284.74676
G1 X146.694 Y126.895 E285.99625
G1 X146.151 Y126.918 E286.01433
G1 X173.139 Y153.906 E287.28376
G1 X173.009 Y154.341 E287.29886
G1 X145.613 Y126.945 E288.58749
G1 X145.107 Y127.005 E288.60443
G1 X172.87 Y154.768 E289.91032
G1 X172.716 Y155.18 E289.92495
G1 X144.604 Y127.067 E291.24728
G1 X144.129 Y127.159 E291.26337
G1 X172.559 Y155.588 E292.6006
G1 X172.379 Y155.975 E292.6148
G1 X143.648 Y127.243 E293.96624
G1 X143.208 Y127.369 E293.98146
G1 X172.2 Y156.361 E295.34516
G1 X172.007 Y156.734 E295.35913
G1 X142.766 Y127.493 E296.73453
G1 X142.324 Y127.616 E296.74979
G1 X171.805 Y157.097 E298.13649
G1 X171.601 Y157.459 E298.15031
G1 X141.92 Y127.778 E299.54641
G1 X141.505 Y127.929 E299.5611
G1 X171.378 Y157.802 E300.96624
