;FLAVOR:Marlin
;TIME:3472
;Filament used: 2.32894m
;Layer height: 0.2
;MINX:114.8
;MINY:115.841
;MINZ:0.2
;MAXX:183.4
;MAXY:182.226
;MAXZ:9
;Generated with Cura_SteamEngine main
M140 S50
M105
M190 S50
M104 S200
M105
M109 S200
M82 ;absolute extrusion mode
M201 X500.00 Y500.00 Z100.00 E5000.00 ;Setup machine max acceleration
M203 X500.00 Y500.00 Z10.00 E50.00 ;Setup machine max feedrate
M204 P500.00 R1000.00 T500.00 ;Setup Print/Retract/Travel acceleration
M205 X8.00 Y8.00 Z0.40 E5.00 ;Setup Jerk
M220 S100 ;Reset Feedrate
M221 S100 ;Reset Flowrate

G28 ;Home
G29 ;Auto bed Level

G92 E0 ;Reset Extruder
G1 Z2.0 F3000 ;Move Z Axis up
G1 X10.1 Y20 Z0.28 F5000.0 ;Move to start position
G1 X10.1 Y200.0 Z0.28 F1500.0 E15 ;Draw the first line
G1 X10.4 Y200.0 Z0.28 F5000.0 ;Move to side a little
G1 X10.4 Y20 Z0.28 F1500.0 E30 ;Draw the second line
G92 E0 ;Reset Extruder
G1 Z2.0 F3000 ;Move Z Axis up

G92 E0
G92 E0
G1 F2700 E-5
;LAYER_COUNT:45
;LAYER:0
M107
G0 F6000 X118.01 Y119.093 Z0.2
G0 X114.801 Y127.35
;TYPE:SKIRT
G1 F2700 E0
G1 F1200 X114.811 Y126.685 E0.02212
G1 X114.865 Y125.748 E0.05334
G1 X114.999 Y124.82 E0.08452
G1 X115.211 Y123.906 E0.11573
G1 X115.5 Y123.014 E0.14692
G1 X115.865 Y122.15 E0.17811
G1 X116.301 Y121.32 E0.20929
G1 X116.807 Y120.53 E0.2405
G1 X117.378 Y119.786 E0.27169
G1 X118.01 Y119.093 E0.30289
G1 X118.699 Y118.457 E0.33407
G1 X119.44 Y117.882 E0.36527
G1 X120.227 Y117.372 E0.39646
G1 X121.055 Y116.931 E0.42766
G1 X121.917 Y116.562 E0.45885
G1 X122.808 Y116.268 E0.49005
G1 X123.72 Y116.05 E0.52124
G1 X124.647 Y115.912 E0.55241
G1 X125.501 Y115.854 E0.58088
G1 X126.13 Y115.841 E0.60181
G1 X171.851 Y115.842 E2.1225
G1 X172.549 Y115.852 E2.14571
G1 X173.485 Y115.906 E2.1769
G1 X174.413 Y116.038 E2.20807
G1 X175.327 Y116.25 E2.23928
G1 X176.219 Y116.539 E2.27047
G1 X177.084 Y116.902 E2.30167
G1 X177.914 Y117.338 E2.33285
G1 X178.705 Y117.843 E2.36406
G1 X179.449 Y118.414 E2.39526
G1 X180.142 Y119.046 E2.42645
G1 X180.779 Y119.734 E2.45764
G1 X181.354 Y120.475 E2.48883
G1 X181.865 Y121.261 E2.52001
G1 X182.307 Y122.089 E2.55123
G1 X182.676 Y122.951 E2.58242
G1 X182.971 Y123.841 E2.6136
G1 X183.189 Y124.753 E2.64479
G1 X183.329 Y125.681 E2.67601
G1 X183.387 Y126.542 E2.70471
G1 X183.4 Y127.171 E2.72563
G1 X183.4 Y161.628 E3.87168
G1 X183.389 Y162.476 E3.89988
G1 X183.348 Y163.424 E3.93144
G1 X183.282 Y164.222 E3.95808
G1 X183.215 Y164.78 E3.97677
G1 X183.142 Y165.278 E3.99351
G1 X183.023 Y165.945 E4.01604
G1 X182.894 Y166.559 E4.03691
G1 X182.753 Y167.147 E4.05702
G1 X182.643 Y167.557 E4.07114
G1 X182.469 Y168.142 E4.09144
G1 X182.303 Y168.647 E4.10912
G1 X182.064 Y169.304 E4.13237
G1 X181.854 Y169.828 E4.15115
G1 X181.533 Y170.564 E4.17786
G1 X181.236 Y171.175 E4.20045
G1 X180.957 Y171.706 E4.2204
G1 X180.714 Y172.144 E4.23706
G1 X180.511 Y172.491 E4.25043
G1 X180.145 Y173.073 E4.2733
G1 X179.819 Y173.558 E4.29274
G1 X179.47 Y174.048 E4.31275
G1 X179.187 Y174.423 E4.32837
G1 X178.637 Y175.106 E4.35754
G1 X178.063 Y175.754 E4.38633
G1 X177.701 Y176.132 E4.40374
G1 X177.221 Y176.61 E4.42627
G1 X176.65 Y177.14 E4.45218
G1 X176.246 Y177.489 E4.46994
G1 X175.791 Y177.861 E4.48948
G1 X175.405 Y178.16 E4.50572
G1 X174.834 Y178.574 E4.52918
G1 X174.336 Y178.911 E4.54918
G1 X173.652 Y179.345 E4.57613
G1 X173.187 Y179.616 E4.59403
G1 X172.868 Y179.792 E4.60614
G1 X172.419 Y180.026 E4.62298
G1 X171.906 Y180.279 E4.64201
G1 X171.219 Y180.59 E4.66709
G1 X170.654 Y180.822 E4.68741
G1 X170.115 Y181.026 E4.70657
G1 X169.28 Y181.306 E4.73587
G1 X168.738 Y181.467 E4.75467
G1 X168.014 Y181.655 E4.77955
G1 X167.439 Y181.784 E4.79915
G1 X166.65 Y181.936 E4.82587
G1 X166.146 Y182.013 E4.84283
G1 X165.648 Y182.078 E4.85954
G1 X165.07 Y182.138 E4.87886
G1 X164.249 Y182.194 E4.90623
G1 X163.707 Y182.212 E4.92427
G1 X162.591 Y182.226 E4.96139
G1 X126.349 Y182.225 E6.16681
G1 X125.651 Y182.215 E6.19002
G1 X124.715 Y182.161 E6.22121
G1 X123.787 Y182.029 E6.25238
G1 X122.873 Y181.817 E6.28359
G1 X121.981 Y181.528 E6.31478
G1 X121.116 Y181.165 E6.34598
G1 X120.286 Y180.729 E6.37716
G1 X119.495 Y180.224 E6.40837
G1 X118.751 Y179.653 E6.43957
G1 X118.058 Y179.021 E6.47076
G1 X117.421 Y178.333 E6.50195
G1 X116.846 Y177.592 E6.53314
G1 X116.335 Y176.806 E6.56432
G1 X115.893 Y175.978 E6.59554
G1 X115.524 Y175.116 E6.62673
G1 X115.229 Y174.226 E6.65791
G1 X115.011 Y173.314 E6.6891
G1 X114.871 Y172.386 E6.72032
G1 X114.813 Y171.514 E6.74938
G1 X114.8 Y170.884 E6.77034
G1 X114.801 Y127.35 E8.21829
G0 F6000 X115.201 Y127.356
G1 F1200 X115.211 Y126.691 E8.24041
G1 X115.265 Y125.772 E8.27103
G1 X115.398 Y124.861 E8.30165
G1 X115.61 Y123.965 E8.33227
G1 X115.899 Y123.09 E8.36292
G1 X116.263 Y122.245 E8.39352
G1 X116.698 Y121.434 E8.42413
G1 X117.203 Y120.663 E8.45479
G1 X117.772 Y119.94 E8.48539
G1 X118.402 Y119.268 E8.51602
G1 X119.088 Y118.654 E8.54665
G1 X119.824 Y118.102 E8.57724
G1 X120.606 Y117.615 E8.60789
G1 X121.427 Y117.199 E8.6385
G1 X122.281 Y116.855 E8.66912
G1 X123.161 Y116.586 E8.69972
G1 X124.062 Y116.395 E8.73036
G1 X124.976 Y116.283 E8.76099
G1 X125.512 Y116.254 E8.77884
G1 X126.13 Y116.241 E8.7994
G1 X171.693 Y116.241 E10.31483
G1 X172.543 Y116.252 E10.3431
G1 X173.462 Y116.305 E10.37372
G1 X174.373 Y116.438 E10.40434
G1 X175.269 Y116.649 E10.43496
G1 X176.143 Y116.937 E10.46556
G1 X176.99 Y117.3 E10.49621
G1 X177.801 Y117.735 E10.52682
G1 X178.571 Y118.239 E10.55743
G1 X179.295 Y118.808 E10.58806
G1 X179.967 Y119.438 E10.6187
G1 X180.582 Y120.123 E10.64931
G1 X181.135 Y120.859 E10.67993
G1 X181.622 Y121.64 E10.71055
G1 X182.039 Y122.461 E10.74117
G1 X182.384 Y123.315 E10.77181
G1 X182.653 Y124.195 E10.80241
G1 X182.845 Y125.096 E10.83305
G1 X182.958 Y126.009 E10.86365
G1 X182.987 Y126.553 E10.88177
G1 X183 Y127.171 E10.90233
G1 X183 Y161.622 E12.04818
G1 X182.989 Y162.47 E12.07638
G1 X182.948 Y163.403 E12.10744
G1 X182.884 Y164.184 E12.13351
G1 X182.819 Y164.722 E12.15153
G1 X182.746 Y165.22 E12.16827
G1 X182.632 Y165.862 E12.18996
G1 X182.503 Y166.476 E12.21083
G1 X182.367 Y167.044 E12.23025
G1 X182.257 Y167.454 E12.24437
G1 X182.089 Y168.017 E12.26391
G1 X181.923 Y168.522 E12.28159
G1 X181.692 Y169.155 E12.304
G1 X181.482 Y169.679 E12.32278
G1 X181.168 Y170.4 E12.34894
G1 X180.882 Y170.989 E12.37071
G1 X180.603 Y171.52 E12.39066
G1 X180.165 Y172.29 E12.42013
G1 X179.813 Y172.85 E12.44213
G1 X179.487 Y173.335 E12.46156
G1 X179.151 Y173.807 E12.48083
G1 X178.577 Y174.551 E12.51209
G1 X178.329 Y174.851 E12.52503
G1 X177.988 Y175.243 E12.54232
G1 X177.419 Y175.849 E12.56996
G1 X176.939 Y176.327 E12.59249
G1 X176.388 Y176.837 E12.61747
G1 X175.984 Y177.186 E12.63522
G1 X175.546 Y177.545 E12.65406
G1 X175.16 Y177.844 E12.6703
G1 X174.61 Y178.243 E12.6929
G1 X174.112 Y178.58 E12.7129
G1 X173.442 Y179.004 E12.73927
G1 X172.994 Y179.266 E12.75653
G1 X172.243 Y179.668 E12.78486
G1 X171.73 Y179.921 E12.80389
G1 X171.067 Y180.22 E12.82808
G1 X170.502 Y180.452 E12.84839
G1 X169.983 Y180.649 E12.86686
G1 X169.655 Y180.764 E12.87842
G1 X169.166 Y180.922 E12.89551
G1 X168.624 Y181.083 E12.91431
G1 X167.926 Y181.265 E12.93831
G1 X167.351 Y181.394 E12.95791
G1 X166.58 Y181.542 E12.98402
G1 X166.094 Y181.617 E13.00037
G1 X165.596 Y181.682 E13.01708
G1 X165.039 Y181.74 E13.0357
G1 X164.233 Y181.795 E13.06257
G1 X163.701 Y181.812 E13.08028
G1 X162.591 Y181.826 E13.1172
G1 X126.355 Y181.825 E14.32241
G1 X125.657 Y181.815 E14.34563
G1 X124.738 Y181.762 E14.37625
G1 X123.827 Y181.629 E14.40687
G1 X122.931 Y181.418 E14.43748
G1 X122.057 Y181.13 E14.46809
G1 X121.21 Y180.767 E14.49874
G1 X120.399 Y180.332 E14.52935
G1 X119.629 Y179.828 E14.55996
G1 X118.905 Y179.259 E14.59059
G1 X118.233 Y178.629 E14.62122
G1 X117.618 Y177.944 E14.65184
G1 X117.065 Y177.208 E14.68246
G1 X116.578 Y176.427 E14.71307
G1 X116.161 Y175.606 E14.7437
G1 X115.816 Y174.752 E14.77433
G1 X115.547 Y173.872 E14.80494
G1 X115.355 Y172.971 E14.83558
G1 X115.242 Y172.058 E14.86618
G1 X115.213 Y171.503 E14.88466
G1 X115.2 Y170.884 E14.90526
G1 X115.201 Y127.356 E16.353
G0 F6000 X115.601 Y127.362
G1 F1200 X115.611 Y126.697 E16.37512
G1 X115.665 Y125.795 E16.40518
G1 X115.798 Y124.902 E16.43521
G1 X116.009 Y124.024 E16.46524
G1 X116.298 Y123.168 E16.49529
G1 X116.661 Y122.341 E16.52533
G1 X117.095 Y121.55 E16.55534
G1 X117.598 Y120.799 E16.5854
G1 X118.166 Y120.097 E16.61544
G1 X118.793 Y119.447 E16.64547
G1 X119.475 Y118.855 E16.67551
G1 X120.207 Y118.326 E16.70555
G1 X120.983 Y117.864 E16.73559
G1 X121.797 Y117.473 E16.76562
G1 X122.642 Y117.154 E16.79566
G1 X123.512 Y116.912 E16.8257
G1 X124.4 Y116.748 E16.85573
G1 X125.523 Y116.654 E16.89321
G1 X126.13 Y116.641 E16.91341
G1 X171.693 Y116.641 E18.42884
G1 X172.537 Y116.652 E18.45691
G1 X173.439 Y116.705 E18.48697
G1 X174.332 Y116.837 E18.51699
G1 X175.21 Y117.048 E18.54702
G1 X176.066 Y117.336 E18.57706
G1 X176.893 Y117.698 E18.60709
G1 X177.685 Y118.133 E18.63714
G1 X178.436 Y118.635 E18.66719
G1 X179.139 Y119.202 E18.69723
G1 X179.789 Y119.829 E18.72726
G1 X180.381 Y120.511 E18.7573
G1 X180.911 Y121.242 E18.78733
G1 X181.373 Y122.018 E18.81737
G1 X181.766 Y122.831 E18.8474
G1 X182.084 Y123.676 E18.87743
G1 X182.327 Y124.546 E18.90748
G1 X182.492 Y125.434 E18.93752
G1 X182.587 Y126.564 E18.97523
G1 X182.6 Y127.171 E18.99543
G1 X182.6 Y161.617 E20.14111
G1 X182.589 Y162.465 E20.16931
G1 X182.549 Y163.382 E20.19984
G1 X182.486 Y164.146 E20.22534
G1 X182.423 Y164.664 E20.24269
G1 X182.35 Y165.162 E20.25944
G1 X182.24 Y165.78 E20.28031
G1 X182.111 Y166.394 E20.30118
G1 X181.981 Y166.94 E20.31985
G1 X181.871 Y167.35 E20.33397
G1 X181.709 Y167.892 E20.35278
G1 X181.543 Y168.397 E20.37046
G1 X181.321 Y169.006 E20.39202
G1 X181.111 Y169.53 E20.4108
G1 X180.803 Y170.236 E20.43642
G1 X180.527 Y170.803 E20.45739
G1 X180.248 Y171.334 E20.47734
G1 X180.023 Y171.741 E20.49281
G1 X179.82 Y172.088 E20.50618
G1 X179.481 Y172.627 E20.52736
G1 X179.155 Y173.112 E20.5468
G1 X178.832 Y173.566 E20.56533
G1 X178.549 Y173.941 E20.58095
G1 X178.021 Y174.596 E20.60893
G1 X177.472 Y175.215 E20.63645
G1 X177.136 Y175.566 E20.65261
G1 X176.656 Y176.044 E20.67515
G1 X176.127 Y176.535 E20.69915
G1 X175.723 Y176.884 E20.71691
G1 X175.301 Y177.229 E20.73504
G1 X174.915 Y177.528 E20.75128
G1 X174.386 Y177.912 E20.77302
G1 X173.888 Y178.249 E20.79302
G1 X173.232 Y178.664 E20.81884
G1 X172.8 Y178.916 E20.83547
G1 X172.066 Y179.309 E20.86316
G1 X171.553 Y179.562 E20.88219
G1 X170.915 Y179.85 E20.90547
G1 X170.35 Y180.082 E20.92578
G1 X169.851 Y180.272 E20.94354
G1 X169.523 Y180.387 E20.9551
G1 X169.052 Y180.539 E20.97156
G1 X168.51 Y180.7 E20.99037
G1 X167.839 Y180.875 E21.01343
G1 X167.264 Y181.004 E21.03303
G1 X166.509 Y181.148 E21.0586
G1 X166.042 Y181.22 E21.07431
G1 X165.544 Y181.285 E21.09102
G1 X165.008 Y181.341 E21.10894
G1 X164.217 Y181.395 E21.13531
G1 X163.696 Y181.412 E21.15265
G1 X162.591 Y181.426 E21.1894
G1 X126.361 Y181.425 E22.39442
G1 X125.663 Y181.415 E22.41764
G1 X124.761 Y181.362 E22.44769
G1 X123.868 Y181.23 E22.47771
G1 X122.99 Y181.019 E22.50775
G1 X122.134 Y180.731 E22.53779
G1 X121.307 Y180.369 E22.56781
G1 X120.515 Y179.934 E22.59787
G1 X119.764 Y179.432 E22.62791
G1 X119.061 Y178.865 E22.65795
G1 X118.411 Y178.238 E22.68799
G1 X117.819 Y177.556 E22.71803
G1 X117.289 Y176.825 E22.74806
G1 X116.827 Y176.049 E22.77809
G1 X116.434 Y175.236 E22.80813
G1 X116.116 Y174.391 E22.83816
G1 X115.873 Y173.521 E22.8682
G1 X115.708 Y172.633 E22.89824
G1 X115.613 Y171.492 E22.93632
G1 X115.6 Y170.884 E22.95655
G1 X115.601 Y127.362 E24.4041
G1 F2700 E19.4041
;MESH:FacePlate (1).stl
G0 F6000 X130.943 Y150.925
G0 X136.556 Y161.248
;TYPE:WALL-INNER
G1 F2700 E24.4041
G1 F1200 X136.116 Y161.264 E24.41874
G1 X135.723 Y161.247 E24.43183
G1 X135.328 Y161.201 E24.44505
G1 X134.936 Y161.125 E24.45833
G1 X134.558 Y161.02 E24.47138
G1 X134.253 Y160.913 E24.48213
G1 X133.898 Y160.763 E24.49495
G1 X133.573 Y160.594 E24.50713
G1 X133.2 Y160.364 E24.52171
G1 X132.882 Y160.132 E24.5348
G1 X132.612 Y159.906 E24.54651
G1 X132.292 Y159.589 E24.56149
G1 X132.036 Y159.293 E24.57451
G1 X131.827 Y159.012 E24.58616
G1 X131.62 Y158.688 E24.59894
G1 X131.426 Y158.331 E24.61246
G1 X131.264 Y157.967 E24.62571
G1 X131.115 Y157.549 E24.64047
G1 X131.015 Y157.169 E24.65354
G1 X130.947 Y156.813 E24.66559
G1 X130.902 Y156.43 E24.67842
G1 X130.886 Y156.012 E24.69233
G1 X130.887 Y152.488 E24.80954
G1 X130.903 Y152.091 E24.82276
G1 X130.943 Y151.742 E24.83444
G1 X131.01 Y151.374 E24.84688
G1 X131.131 Y150.928 E24.86225
G1 X131.237 Y150.626 E24.8729
G1 X131.373 Y150.302 E24.88458
G1 X131.577 Y149.908 E24.89934
G1 X131.76 Y149.61 E24.91097
G1 X131.992 Y149.287 E24.9242
G1 X132.245 Y148.983 E24.93735
G1 X132.554 Y148.671 E24.95196
G1 X132.857 Y148.407 E24.96533
G1 X133.139 Y148.198 E24.977
G1 X133.462 Y147.992 E24.98974
G1 X133.862 Y147.776 E25.00486
G1 X134.222 Y147.619 E25.01792
G1 X134.555 Y147.5 E25.02969
G1 X134.938 Y147.395 E25.04289
G1 X135.373 Y147.313 E25.05762
G1 X135.722 Y147.273 E25.0693
G1 X136.163 Y147.258 E25.08398
G1 X136.559 Y147.274 E25.09716
G1 X136.908 Y147.314 E25.10884
G1 X137.346 Y147.397 E25.12367
G1 X137.72 Y147.501 E25.13658
G1 X137.99 Y147.594 E25.14608
G1 X138.393 Y147.765 E25.16064
G1 X138.743 Y147.948 E25.17378
G1 X139.066 Y148.148 E25.18641
G1 X139.385 Y148.379 E25.19951
G1 X139.667 Y148.615 E25.21174
G1 X139.961 Y148.904 E25.22545
G1 X140.244 Y149.228 E25.23976
G1 X140.462 Y149.523 E25.25196
G1 X140.67 Y149.851 E25.26488
G1 X140.863 Y150.208 E25.27838
G1 X141.03 Y150.59 E25.29224
G1 X141.166 Y150.972 E25.30573
G1 X141.259 Y151.324 E25.31784
G1 X141.338 Y151.741 E25.33196
G1 X141.378 Y152.091 E25.34367
G1 X141.393 Y152.489 E25.35692
G1 X141.393 Y156.033 E25.47479
G1 X141.377 Y156.43 E25.48801
G1 X141.328 Y156.838 E25.50168
G1 X141.273 Y157.128 E25.51149
G1 X141.178 Y157.499 E25.52423
G1 X141.043 Y157.896 E25.53818
G1 X140.887 Y158.262 E25.55141
G1 X140.703 Y158.613 E25.56459
G1 X140.52 Y158.912 E25.57625
G1 X140.261 Y159.269 E25.59092
G1 X140.023 Y159.551 E25.6032
G1 X139.748 Y159.831 E25.61625
G1 X139.423 Y160.115 E25.6306
G1 X139.141 Y160.324 E25.64228
G1 X138.818 Y160.53 E25.65502
G1 X138.417 Y160.746 E25.67017
G1 X138.06 Y160.901 E25.68311
G1 X137.727 Y161.021 E25.69489
G1 X137.298 Y161.136 E25.70966
G1 X136.942 Y161.204 E25.72171
G1 X136.556 Y161.248 E25.73464
G0 F6000 X136.873 Y160.81
;TYPE:WALL-OUTER
G1 F1200 X136.497 Y160.851 E25.74722
G1 X136.132 Y160.864 E25.75936
G1 X135.767 Y160.849 E25.77151
G1 X135.403 Y160.808 E25.7837
G1 X135.041 Y160.739 E25.79595
G1 X134.69 Y160.642 E25.80807
G1 X134.408 Y160.544 E25.81799
G1 X134.071 Y160.402 E25.83016
G1 X133.745 Y160.232 E25.84239
G1 X133.435 Y160.04 E25.85451
G1 X133.139 Y159.825 E25.86668
G1 X132.869 Y159.599 E25.87839
G1 X132.594 Y159.326 E25.89128
G1 X132.357 Y159.054 E25.90328
G1 X132.148 Y158.773 E25.91493
G1 X131.951 Y158.462 E25.92717
G1 X131.771 Y158.127 E25.93982
G1 X131.625 Y157.793 E25.95195
G1 X131.501 Y157.446 E25.9642
G1 X131.408 Y157.094 E25.97631
G1 X131.341 Y156.744 E25.98816
G1 X131.299 Y156.369 E26.00071
G1 X131.286 Y156.012 E26.0126
G1 X131.287 Y152.503 E26.12931
G1 X131.301 Y152.137 E26.14149
G1 X131.343 Y151.775 E26.15361
G1 X131.397 Y151.477 E26.16368
G1 X131.509 Y151.06 E26.17804
G1 X131.606 Y150.781 E26.18787
G1 X131.749 Y150.442 E26.2001
G1 X131.918 Y150.118 E26.21226
G1 X132.109 Y149.807 E26.2244
G1 X132.325 Y149.51 E26.23661
G1 X132.562 Y149.229 E26.24884
G1 X132.818 Y148.971 E26.26093
G1 X133.082 Y148.739 E26.27262
G1 X133.389 Y148.512 E26.28532
G1 X133.688 Y148.323 E26.29708
G1 X134.023 Y148.142 E26.30974
G1 X134.356 Y147.996 E26.32184
G1 X134.705 Y147.872 E26.33416
G1 X135.042 Y147.781 E26.34577
G1 X135.419 Y147.711 E26.35852
G1 X135.784 Y147.67 E26.37074
G1 X136.148 Y147.658 E26.38285
G1 X136.513 Y147.672 E26.395
G1 X136.876 Y147.714 E26.40715
G1 X137.24 Y147.783 E26.41947
G1 X137.59 Y147.879 E26.43155
G1 X137.872 Y147.977 E26.44148
G1 X138.209 Y148.12 E26.45365
G1 X138.533 Y148.289 E26.46581
G1 X138.845 Y148.482 E26.47801
G1 X139.14 Y148.696 E26.49013
G1 X139.419 Y148.93 E26.50224
G1 X139.68 Y149.189 E26.51447
G1 X139.922 Y149.466 E26.5267
