;FLAVOR:Marlin
;TIME:5841
;Filament used: 3.86456m
;Layer height: 0.2
;MINX:118.699
;MINY:126.031
;MINZ:0.2
;MAXX:180.05
;MAXY:213.884
;MAXZ:9
;Generated with Cura_SteamEngine main
M140 S65
M105
M190 S65
M104 S212
M105
M109 S212
M82 ;absolute extrusion mode
M201 X500.00 Y500.00 Z100.00 E5000.00 ;Setup machine max acceleration
M203 X500.00 Y500.00 Z10.00 E50.00 ;Setup machine max feedrate
M204 P500.00 R1000.00 T500.00 ;Setup Print/Retract/Travel acceleration
M205 X8.00 Y8.00 Z0.40 E5.00 ;Setup Jerk
M220 S100 ;Reset Feedrate
M221 S100 ;Reset Flowrate

G28 ;Home
G29 ;Auto bed Level

G92 E0 ;Reset Extruder
G1 Z2.0 F3000 ;Move Z Axis up
G1 X10.1 Y20 Z0.28 F5000.0 ;Move to start position
G1 X10.1 Y200.0 Z0.28 F1500.0 E15 ;Draw the first line
G1 X10.4 Y200.0 Z0.28 F5000.0 ;Move to side a little
G1 X10.4 Y20 Z0.28 F1500.0 E30 ;Draw the second line
G92 E0 ;Reset Extruder
G1 Z2.0 F3000 ;Move Z Axis up

G92 E0
G92 E0
G1 F2700 E-5
;LAYER_COUNT:45
;LAYER:0
M107
G0 F6000 X124.271 Y128.18 Z0.2
G0 X121.848 Y133.831
;TYPE:SKIRT
G1 F2700 E0
G1 F1200 X121.888 Y133.043 E0.02624
G1 X122.007 Y132.262 E0.05252
G1 X122.205 Y131.497 E0.0788
G1 X122.479 Y130.757 E0.10505
G1 X122.827 Y130.048 E0.13132
G1 X123.244 Y129.378 E0.15756
G1 X123.727 Y128.753 E0.18384
G1 X124.271 Y128.18 E0.21011
G1 X124.87 Y127.666 E0.23637
G1 X125.518 Y127.214 E0.26264
G1 X126.208 Y126.83 E0.28891
G1 X126.934 Y126.518 E0.31519
G1 X127.687 Y126.282 E0.34144
G1 X128.46 Y126.122 E0.36769
G1 X129.246 Y126.041 E0.39397
G1 X129.648 Y126.031 E0.40735
G1 X172.25 Y126.031 E1.8243
G1 X173.039 Y126.071 E1.85057
G1 X173.819 Y126.19 E1.87681
G1 X174.584 Y126.388 E1.9031
G1 X175.324 Y126.662 E1.92934
G1 X176.033 Y127.01 E1.95561
G1 X176.704 Y127.428 E1.9819
G1 X177.328 Y127.911 E2.00815
G1 X177.901 Y128.454 E2.03441
G1 X178.416 Y129.053 E2.06068
G1 X178.867 Y129.701 E2.08694
G1 X179.251 Y130.392 E2.11323
G1 X179.563 Y131.117 E2.13948
G1 X179.8 Y131.87 E2.16574
G1 X179.959 Y132.644 E2.19202
G1 X180.04 Y133.429 E2.21827
G1 X180.05 Y133.831 E2.23164
G1 X180.05 Y203.217 E4.53943
G1 X180.01 Y204.006 E4.56571
G1 X179.891 Y204.786 E4.59195
G1 X179.693 Y205.551 E4.61823
G1 X179.419 Y206.291 E4.64448
G1 X179.071 Y207 E4.67075
G1 X178.653 Y207.671 E4.69704
G1 X178.17 Y208.295 E4.72329
G1 X177.627 Y208.868 E4.74954
G1 X177.028 Y209.383 E4.77582
G1 X176.38 Y209.834 E4.80207
G1 X175.689 Y210.218 E4.82837
G1 X174.964 Y210.53 E4.85462
G1 X174.211 Y210.767 E4.88088
G1 X173.437 Y210.926 E4.90716
G1 X172.652 Y211.007 E4.9334
G1 X172.25 Y211.017 E4.94678
G1 X156.279 Y211.017 E5.47798
G1 X156.123 Y211.192 E5.48577
G1 X155.541 Y211.725 E5.51202
G1 X154.907 Y212.197 E5.53831
G1 X154.23 Y212.602 E5.56455
G1 X153.514 Y212.937 E5.59084
G1 X152.986 Y213.131 E5.60955
G1 X151.85 Y213.501 E5.64929
G1 X151.087 Y213.707 E5.67557
G1 X150.308 Y213.835 E5.70183
G1 X149.52 Y213.884 E5.72809
G1 X148.731 Y213.852 E5.75436
G1 X147.949 Y213.741 E5.78063
G1 X147.182 Y213.552 E5.8069
G1 X146.439 Y213.286 E5.83315
G1 X145.726 Y212.946 E5.85942
G1 X145.051 Y212.536 E5.88569
G1 X144.421 Y212.06 E5.91195
G1 X144.106 Y211.806 E5.92541
G1 X143.493 Y211.309 E5.95166
G1 X143.198 Y211.016 E5.96549
G1 X138.72 Y211.016 E6.11442
G1 X137.993 Y210.999 E6.13861
G1 X137.492 Y210.969 E6.1553
G1 X136.947 Y210.919 E6.17351
G1 X136.505 Y210.866 E6.18831
G1 X135.964 Y210.785 E6.20651
G1 X135.48 Y210.697 E6.22287
G1 X134.945 Y210.582 E6.24107
G1 X134.498 Y210.472 E6.25638
G1 X133.972 Y210.326 E6.27454
G1 X133.532 Y210.19 E6.28985
G1 X133.015 Y210.013 E6.30803
G1 X132.446 Y209.794 E6.32831
G1 X131.867 Y209.895 E6.34786
G1 X130.911 Y209.954 E6.37971
G1 X130.293 Y209.954 E6.40027
G1 X129.504 Y209.914 E6.42654
G1 X128.724 Y209.795 E6.45279
G1 X127.959 Y209.597 E6.47907
G1 X127.219 Y209.323 E6.50532
G1 X126.51 Y208.975 E6.53158
G1 X125.702 Y208.46 E6.56345
G1 X125.202 Y208.096 E6.58402
G1 X124.588 Y207.599 E6.6103
G1 X124.027 Y207.043 E6.63657
G1 X123.526 Y206.434 E6.6628
G1 X123.088 Y205.776 E6.68909
G1 X122.72 Y205.078 E6.71533
G1 X122.372 Y204.192 E6.74699
G1 X122.182 Y203.605 E6.76751
G1 X121.977 Y202.842 E6.79379
G1 X121.849 Y202.022 E6.82139
G1 X121.51 Y201.648 E6.83818
G1 X121.043 Y201.011 E6.86445
G1 X120.643 Y200.331 E6.89069
G1 X120.314 Y199.613 E6.91696
G1 X120.058 Y198.866 E6.94322
G1 X119.908 Y198.243 E6.96454
G1 X119.809 Y197.745 E6.98143
G1 X119.694 Y196.964 E7.00768
G1 X119.659 Y196.175 E7.03395
G1 X119.704 Y195.386 E7.06023
G1 X119.829 Y194.606 E7.08651
G1 X120.031 Y193.843 E7.11276
G1 X120.132 Y193.577 E7.12222
G1 X120.354 Y192.77 E7.15006
G1 X120.642 Y192.035 E7.17632
G1 X121.004 Y191.333 E7.20259
G1 X121.435 Y190.671 E7.22886
G1 X121.85 Y190.157 E7.25083
G1 X121.849 Y176.55 E7.7034
G1 X121.289 Y176.047 E7.72844
G1 X120.729 Y175.491 E7.75469
G1 X120.228 Y174.88 E7.78097
G1 X119.791 Y174.222 E7.80724
G1 X119.423 Y173.524 E7.83348
G1 X119.127 Y172.791 E7.85978
G1 X118.907 Y172.033 E7.88603
G1 X118.765 Y171.256 E7.9123
G1 X118.699 Y170.242 E7.9461
G1 X118.699 Y169.009 E7.98711
G1 X118.739 Y168.22 E8.01338
G1 X118.858 Y167.44 E8.03963
G1 X119.056 Y166.675 E8.06591
G1 X119.33 Y165.935 E8.09215
G1 X119.678 Y165.226 E8.11842
G1 X120.096 Y164.555 E8.14472
G1 X120.579 Y163.931 E8.17096
G1 X121.122 Y163.358 E8.19722
G1 X121.849 Y162.733 E8.2291
G1 X121.848 Y133.831 E9.19039
G0 F6000 X122.248 Y133.831
G1 F1200 X122.288 Y133.063 E9.21597
G1 X122.407 Y132.303 E9.24155
G1 X122.605 Y131.56 E9.26713
G1 X122.879 Y130.841 E9.29272
G1 X123.226 Y130.155 E9.31829
G1 X123.642 Y129.508 E9.34387
G1 X124.123 Y128.908 E9.36945
G1 X124.664 Y128.361 E9.39504
G1 X125.259 Y127.873 E9.42063
G1 X125.901 Y127.45 E9.4462
G1 X126.584 Y127.095 E9.47181
G1 X127.299 Y126.814 E9.49736
G1 X128.04 Y126.608 E9.52294
G1 X128.799 Y126.48 E9.54854
G1 X129.648 Y126.431 E9.57682
G1 X172.25 Y126.431 E10.99377
G1 X173.018 Y126.471 E11.01935
G1 X173.778 Y126.59 E11.04494
G1 X174.521 Y126.788 E11.07051
G1 X175.24 Y127.062 E11.0961
G1 X175.926 Y127.409 E11.12167
G1 X176.573 Y127.825 E11.14725
G1 X177.173 Y128.306 E11.17283
G1 X177.72 Y128.847 E11.19842
G1 X178.208 Y129.442 E11.22401
G1 X178.631 Y130.084 E11.24959
G1 X178.986 Y130.767 E11.27519
G1 X179.267 Y131.482 E11.30074
G1 X179.473 Y132.224 E11.32635
G1 X179.601 Y132.982 E11.35192
G1 X179.65 Y133.831 E11.38021
G1 X179.65 Y203.217 E13.68799
G1 X179.61 Y203.985 E13.71357
G1 X179.491 Y204.745 E13.73916
G1 X179.293 Y205.488 E13.76473
G1 X179.019 Y206.207 E13.79032
G1 X178.672 Y206.893 E13.81589
G1 X178.256 Y207.54 E13.84148
G1 X177.775 Y208.14 E13.86705
G1 X177.234 Y208.687 E13.89264
G1 X176.639 Y209.175 E13.91824
G1 X175.997 Y209.598 E13.94381
G1 X175.314 Y209.953 E13.96941
G1 X174.599 Y210.234 E13.99496
G1 X173.857 Y210.44 E14.02057
G1 X173.099 Y210.568 E14.04614
G1 X172.25 Y210.617 E14.07443
G1 X156.101 Y210.617 E14.61154
G1 X155.753 Y210.995 E14.62863
G1 X155.177 Y211.505 E14.65422
G1 X154.551 Y211.952 E14.67981
G1 X153.882 Y212.331 E14.70538
G1 X152.862 Y212.75 E14.74206
G1 X151.726 Y213.12 E14.78179
G1 X150.983 Y213.32 E14.80738
G1 X150.224 Y213.442 E14.83295
G1 X149.456 Y213.484 E14.85853
G1 X148.687 Y213.446 E14.88414
G1 X147.927 Y213.329 E14.90972
G1 X147.183 Y213.133 E14.93531
G1 X146.464 Y212.862 E14.96086
G1 X145.776 Y212.517 E14.98646
G1 X145.128 Y212.102 E15.01206
G1 X144.601 Y211.671 E15.0347
G1 X144.342 Y211.482 E15.04536
G1 X143.745 Y210.997 E15.07095
G1 X143.365 Y210.616 E15.08885
G1 X138.72 Y210.616 E15.24334
G1 X138.004 Y210.599 E15.26716
G1 X137.529 Y210.571 E15.28299
G1 X136.984 Y210.521 E15.30119
G1 X136.564 Y210.47 E15.31526
G1 X136.023 Y210.389 E15.33345
G1 X135.564 Y210.306 E15.34897
G1 X135.029 Y210.191 E15.36717
G1 X134.605 Y210.086 E15.3817
G1 X134.079 Y209.94 E15.39985
G1 X133.661 Y209.811 E15.4144
G1 X133.144 Y209.634 E15.43258
G1 X132.496 Y209.381 E15.45572
G1 X131.718 Y209.51 E15.48195
G1 X130.911 Y209.554 E15.50883
G1 X130.293 Y209.554 E15.52938
G1 X129.525 Y209.514 E15.55496
G1 X128.765 Y209.395 E15.58055
G1 X128.022 Y209.197 E15.60612
G1 X127.303 Y208.923 E15.63171
G1 X126.617 Y208.576 E15.65728
G1 X125.938 Y208.137 E15.68417
G1 X125.438 Y207.773 E15.70474
G1 X124.84 Y207.288 E15.73035
G1 X124.296 Y206.744 E15.75594
G1 X123.812 Y206.147 E15.7815
G1 X123.392 Y205.503 E15.80707
G1 X123.041 Y204.818 E15.83267
G1 X122.753 Y204.069 E15.85936
G1 X122.563 Y203.482 E15.87989
G1 X122.364 Y202.739 E15.90547
G1 X122.222 Y201.843 E15.93564
G1 X121.783 Y201.349 E15.95762
G1 X121.334 Y200.724 E15.98322
G1 X120.952 Y200.057 E16.00878
G1 X120.642 Y199.353 E16.03437
G1 X120.406 Y198.621 E16.05995
G1 X120.3 Y198.165 E16.07552
G1 X120.201 Y197.667 E16.09241
G1 X120.09 Y196.906 E16.11799
G1 X120.06 Y196.137 E16.14358
G1 X120.108 Y195.37 E16.16914
G1 X120.237 Y194.611 E16.19475
G1 X120.443 Y193.87 E16.22033
G1 X120.54 Y193.579 E16.23053
G1 X120.752 Y192.84 E16.2561
G1 X121.04 Y192.127 E16.28168
G1 X121.401 Y191.448 E16.30726
G1 X121.83 Y190.809 E16.33286
G1 X122.25 Y190.307 E16.35462
G1 X122.249 Y176.371 E16.81814
G1 X121.556 Y175.749 E16.84911
G1 X121.012 Y175.207 E16.87465
G1 X120.526 Y174.61 E16.90025
G1 X120.105 Y173.967 E16.92582
G1 X119.753 Y173.283 E16.9514
G1 X119.473 Y172.566 E16.977
G1 X119.27 Y171.824 E17.00259
G1 X119.145 Y171.065 E17.02817
G1 X119.099 Y170.242 E17.05559
G1 X119.099 Y169.009 E17.0966
G1 X119.139 Y168.241 E17.12218
G1 X119.258 Y167.481 E17.14776
G1 X119.456 Y166.738 E17.17334
G1 X119.73 Y166.019 E17.19893
G1 X120.077 Y165.333 E17.2245
G1 X120.493 Y164.686 E17.25008
G1 X120.974 Y164.086 E17.27566
G1 X121.515 Y163.539 E17.30125
G1 X122.249 Y162.937 E17.33282
G1 X122.248 Y133.831 E18.30089
G0 F6000 X122.648 Y133.831
G1 F1200 X122.688 Y133.084 E18.32577
G1 X122.807 Y132.346 E18.35064
G1 X123.005 Y131.624 E18.37554
G1 X123.278 Y130.928 E18.4004
G1 X123.625 Y130.265 E18.42529
G1 X124.039 Y129.642 E18.45017
G1 X124.518 Y129.068 E18.47504
G1 X125.056 Y128.548 E18.49992
G1 X125.646 Y128.088 E18.52481
G1 X126.282 Y127.693 E18.54971
G1 X126.956 Y127.369 E18.57458
G1 X127.661 Y127.119 E18.59946
G1 X128.389 Y126.945 E18.62435
G1 X129.131 Y126.85 E18.64923
G1 X129.648 Y126.831 E18.66644
G1 X172.25 Y126.831 E20.08339
G1 X172.997 Y126.871 E20.10827
G1 X173.735 Y126.99 E20.13313
G1 X174.457 Y127.188 E20.15803
G1 X175.153 Y127.461 E20.1829
G1 X175.816 Y127.808 E20.20779
G1 X176.439 Y128.223 E20.23269
G1 X177.013 Y128.702 E20.25755
G1 X177.534 Y129.239 E20.28244
G1 X177.993 Y129.829 E20.3073
G1 X178.388 Y130.465 E20.3322
G1 X178.712 Y131.139 E20.35708
G1 X178.962 Y131.844 E20.38195
G1 X179.136 Y132.572 E20.40685
G1 X179.231 Y133.314 E20.43173
G1 X179.25 Y133.831 E20.44894
G1 X179.25 Y203.217 E22.75672
G1 X179.21 Y203.964 E22.78161
G1 X179.091 Y204.702 E22.80647
G1 X178.893 Y205.424 E22.83137
G1 X178.62 Y206.12 E22.85624
G1 X178.273 Y206.783 E22.88112
G1 X177.858 Y207.406 E22.90602
G1 X177.379 Y207.98 E22.93089
G1 X176.842 Y208.501 E22.95577
G1 X176.252 Y208.96 E22.98064
G1 X175.616 Y209.355 E23.00554
G1 X174.942 Y209.679 E23.03041
G1 X174.237 Y209.929 E23.05529
G1 X173.509 Y210.103 E23.08018
G1 X172.767 Y210.198 E23.10506
G1 X172.25 Y210.217 E23.12227
G1 X155.927 Y210.217 E23.66518
G1 X155.384 Y210.795 E23.69155
G1 X154.815 Y211.28 E23.71642
G1 X154.197 Y211.701 E23.74129
G1 X153.537 Y212.054 E23.76619
G1 X152.738 Y212.37 E23.79476
G1 X151.602 Y212.74 E23.8345
G1 X150.879 Y212.933 E23.85939
G1 X150.14 Y213.048 E23.88427
G1 X149.393 Y213.084 E23.90914
G1 X148.646 Y213.04 E23.93403
G1 X147.908 Y212.916 E23.95892
G1 X147.188 Y212.714 E23.98379
G1 X146.493 Y212.436 E24.00869
G1 X145.832 Y212.086 E24.03356
G1 X145.212 Y211.668 E24.05843
G1 X144.796 Y211.318 E24.07651
G1 X144.578 Y211.159 E24.08549
G1 X143.998 Y210.687 E24.11036
G1 X143.532 Y210.216 E24.1324
G1 X138.72 Y210.216 E24.29245
G1 X138.015 Y210.199 E24.3159
G1 X137.565 Y210.173 E24.33089
G1 X137.02 Y210.123 E24.3491
G1 X136.623 Y210.075 E24.3624
G1 X136.082 Y209.994 E24.38059
G1 X135.648 Y209.915 E24.39526
G1 X135.113 Y209.8 E24.41346
G1 X134.712 Y209.701 E24.4272
G1 X134.186 Y209.555 E24.44536
G1 X133.791 Y209.433 E24.45911
G1 X133.274 Y209.256 E24.47728
G1 X132.871 Y209.104 E24.49161
G1 X132.518 Y208.958 E24.50431
G1 X132.313 Y209.012 E24.51136
G1 X131.573 Y209.123 E24.53625
G1 X130.911 Y209.154 E24.55829
G1 X130.293 Y209.154 E24.57885
G1 X129.546 Y209.114 E24.60373
G1 X128.808 Y208.995 E24.62859
G1 X128.086 Y208.797 E24.65349
G1 X127.39 Y208.524 E24.67836
G1 X126.727 Y208.177 E24.70325
G1 X126.173 Y207.813 E24.7253
G1 X125.673 Y207.449 E24.74587
G1 X125.093 Y206.977 E24.77074
G1 X124.566 Y206.446 E24.79562
G1 X124.099 Y205.862 E24.82049
G1 X123.697 Y205.231 E24.84538
G1 X123.365 Y204.561 E24.87025
G1 X123.133 Y203.946 E24.89211
G1 X122.943 Y203.359 E24.91263
G1 X122.751 Y202.636 E24.93751
G1 X122.637 Y201.896 E24.96241
G1 X122.628 Y201.702 E24.96887
G1 X122.057 Y201.051 E24.99767
G1 X121.626 Y200.439 E25.02257
G1 X121.264 Y199.785 E25.04743
G1 X120.973 Y199.095 E25.07234
G1 X120.692 Y198.087 E25.10714
G1 X120.593 Y197.589 E25.12403
G1 X120.487 Y196.848 E25.14893
G1 X120.46 Y196.101 E25.17379
G1 X120.513 Y195.355 E25.19866
G1 X120.646 Y194.618 E25.22357
G1 X120.856 Y193.9 E25.24845
G1 X120.939 Y193.63 E25.25785
G1 X121.151 Y192.912 E25.28275
G1 X121.438 Y192.222 E25.3076
G1 X121.797 Y191.566 E25.33248
G1 X122.225 Y190.952 E25.35737
G1 X122.65 Y190.462 E25.37894
G1 X122.649 Y176.193 E25.85353
G1 X121.824 Y175.452 E25.89041
G1 X121.294 Y174.923 E25.91532
G1 X120.825 Y174.341 E25.94018
G1 X120.42 Y173.712 E25.96506
G1 X120.084 Y173.043 E25.98996
G1 X119.822 Y172.343 E26.01482
G1 X119.636 Y171.618 E26.03972
G1 X119.528 Y170.878 E26.06459
G1 X119.499 Y170.242 E26.08577
G1 X119.499 Y169.009 E26.12678
G1 X119.539 Y168.262 E26.15166
G1 X119.658 Y167.524 E26.17652
G1 X119.856 Y166.802 E26.20142
G1 X120.129 Y166.106 E26.22629
G1 X120.476 Y165.443 E26.25118
G1 X120.891 Y164.82 E26.27607
G1 X121.37 Y164.246 E26.30094
G1 X121.907 Y163.725 E26.32582
G1 X122.649 Y163.148 E26.35709
G1 X122.648 Y133.831 E27.33217
G0 F6000 X123.048 Y133.831
G1 F1200 X123.088 Y133.106 E27.35632
G1 X123.207 Y132.389 E27.3805
G1 X123.405 Y131.69 E27.40466
G1 X123.678 Y131.017 E27.42882
G1 X124.023 Y130.378 E27.45297
G1 X124.437 Y129.781 E27.47713
G1 X124.913 Y129.233 E27.50128
G1 X125.447 Y128.741 E27.52543
G1 X126.032 Y128.31 E27.54959
G1 X126.661 Y127.946 E27.57376
G1 X127.325 Y127.653 E27.5979
G1 X128.018 Y127.435 E27.62207
G1 X128.731 Y127.295 E27.64623
G1 X129.648 Y127.231 E27.67681
G1 X172.25 Y127.231 E29.09376
G1 X172.975 Y127.271 E29.11791
G1 X173.692 Y127.39 E29.14208
G1 X174.391 Y127.588 E29.16624
G1 X175.064 Y127.861 E29.1904
G1 X175.703 Y128.206 E29.21455
G1 X176.3 Y128.62 E29.23872
G1 X176.848 Y129.096 E29.26286
G1 X177.341 Y129.63 E29.28703
G1 X177.771 Y130.215 E29.31118
G1 X178.135 Y130.844 E29.33535
G1 X178.428 Y131.509 E29.35952
G1 X178.646 Y132.202 E29.38368
G1 X178.786 Y132.914 E29.40782
G1 X178.85 Y133.831 E29.43839
G1 X178.85 Y203.217 E31.74618
G1 X178.81 Y203.942 E31.77033
G1 X178.691 Y204.659 E31.7945
G1 X178.493 Y205.358 E31.81867
G1 X178.22 Y206.031 E31.84282
G1 X177.875 Y206.67 E31.86698
G1 X177.461 Y207.267 E31.89114
G1 X176.985 Y207.815 E31.91528
G1 X176.451 Y208.308 E31.93945
G1 X175.866 Y208.738 E31.9636
G1 X175.237 Y209.102 E31.98777
G1 X174.572 Y209.395 E32.01194
G1 X173.879 Y209.613 E32.03611
G1 X173.167 Y209.753 E32.06024
G1 X172.25 Y209.817 E32.09081
G1 X155.728 Y209.817 E32.64034
G1 X155.526 Y210.073 E32.65118
G1 X155.017 Y210.591 E32.67534
G1 X154.454 Y211.05 E32.6995
G1 X153.844 Y211.445 E32.72367
G1 X153.194 Y211.77 E32.74784
G1 X152.614 Y211.99 E32.76847
G1 X151.478 Y212.36 E32.80821
G1 X150.776 Y212.546 E32.83236
G1 X150.058 Y212.654 E32.85651
G1 X149.332 Y212.683 E32.88068
G1 X148.607 Y212.632 E32.90485
G1 X147.893 Y212.502 E32.92899
G1 X147.197 Y212.293 E32.95316
G1 X146.528 Y212.01 E32.97732
G1 X145.895 Y211.655 E33.00146
G1 X145.304 Y211.232 E33.02563
G1 X145.022 Y210.989 E33.03801
G1 X144.813 Y210.836 E33.04663
G1 X144.251 Y210.376 E33.07078
G1 X143.702 Y209.816 E33.09687
G1 X138.541 Y209.814 E33.26852
G1 X138.026 Y209.8 E33.28566
G1 X137.602 Y209.774 E33.29979
G1 X137.057 Y209.724 E33.31799
