;FLAVOR:Marlin
;TIME:9783
;Filament used: 6.52779m
;Layer height: 0.2
;MINX:100.45
;MINY:104.052
;MINZ:0.2
;MAXX:200.373
;MAXY:197.337
;MAXZ:9
;Generated with Cura_SteamEngine main
M140 S65
M105
M190 S65
M104 S212
M105
M109 S212
M82 ;absolute extrusion mode
M201 X500.00 Y500.00 Z100.00 E5000.00 ;Setup machine max acceleration
M203 X500.00 Y500.00 Z10.00 E50.00 ;Setup machine max feedrate
M204 P500.00 R1000.00 T500.00 ;Setup Print/Retract/Travel acceleration
M205 X8.00 Y8.00 Z0.40 E5.00 ;Setup Jerk
M220 S100 ;Reset Feedrate
M221 S100 ;Reset Flowrate

G28 ;Home
G29 ;Auto bed Level

G92 E0 ;Reset Extruder
G1 Z2.0 F3000 ;Move Z Axis up
G1 X10.1 Y20 Z0.28 F5000.0 ;Move to start position
G1 X10.1 Y200.0 Z0.28 F1500.0 E15 ;Draw the first line
G1 X10.4 Y200.0 Z0.28 F5000.0 ;Move to side a little
G1 X10.4 Y20 Z0.28 F1500.0 E30 ;Draw the second line
G92 E0 ;Reset Extruder
G1 Z2.0 F3000 ;Move Z Axis up

G92 E0
G92 E0
G1 F2700 E-5
;LAYER_COUNT:45
;LAYER:0
M107
G0 F6000 X102.873 Y106.201 Z0.2
G0 X100.45 Y111.852
;TYPE:SKIRT
G1 F2700 E0
G1 F1200 X100.49 Y111.063 E0.02628
G1 X100.609 Y110.283 E0.05252
G1 X100.807 Y109.518 E0.0788
G1 X101.081 Y108.778 E0.10505
G1 X101.429 Y108.069 E0.13132
G1 X101.847 Y107.398 E0.15761
G1 X102.33 Y106.774 E0.18385
G1 X102.873 Y106.201 E0.21011
G1 X103.472 Y105.686 E0.23638
G1 X104.12 Y105.235 E0.26264
G1 X104.811 Y104.851 E0.28894
G1 X105.536 Y104.539 E0.31519
G1 X106.289 Y104.302 E0.34144
G1 X107.063 Y104.143 E0.36773
G1 X107.848 Y104.062 E0.39397
G1 X108.25 Y104.052 E0.40735
G1 X189.85 Y104.052 E3.12138
G1 X190.639 Y104.092 E3.14765
G1 X191.419 Y104.211 E3.17389
G1 X192.184 Y104.409 E3.20018
G1 X192.924 Y104.683 E3.22642
G1 X193.633 Y105.031 E3.25269
G1 X194.304 Y105.449 E3.27898
G1 X194.928 Y105.932 E3.30523
G1 X195.501 Y106.475 E3.33149
G1 X196.016 Y107.074 E3.35776
G1 X196.467 Y107.722 E3.38402
G1 X196.851 Y108.413 E3.41031
G1 X197.163 Y109.138 E3.43656
G1 X197.4 Y109.891 E3.46282
G1 X197.559 Y110.665 E3.4891
G1 X197.64 Y111.45 E3.51535
G1 X197.65 Y111.852 E3.52872
G1 X197.65 Y144.135 E4.60246
G1 X197.795 Y144.252 E4.60866
G1 X198.354 Y144.81 E4.63493
G1 X198.854 Y145.421 E4.66119
G1 X199.289 Y146.08 E4.68745
G1 X199.656 Y146.779 E4.71371
G1 X199.95 Y147.512 E4.73998
G1 X200.168 Y148.271 E4.76624
G1 X200.309 Y149.048 E4.79251
G1 X200.373 Y150.046 E4.82577
G1 X200.373 Y151.241 E4.86551
G1 X200.333 Y152.03 E4.89179
G1 X200.214 Y152.81 E4.91803
G1 X200.016 Y153.575 E4.94431
G1 X199.742 Y154.315 E4.97056
G1 X199.394 Y155.024 E4.99683
G1 X198.976 Y155.695 E5.02312
G1 X198.493 Y156.319 E5.04937
G1 X197.95 Y156.892 E5.07562
G1 X197.651 Y157.149 E5.08874
G1 X197.651 Y177.137 E5.75354
G1 X197.626 Y178.02 E5.78292
G1 X197.59 Y178.549 E5.80056
G1 X197.527 Y179.165 E5.82115
G1 X197.454 Y179.694 E5.83891
G1 X197.349 Y180.304 E5.8595
G1 X197.24 Y180.828 E5.8773
G1 X197.094 Y181.427 E5.89781
G1 X196.956 Y181.922 E5.9149
G1 X196.77 Y182.513 E5.93551
G1 X196.589 Y183.024 E5.95354
G1 X196.363 Y183.599 E5.97409
G1 X196.159 Y184.072 E5.99122
G1 X195.895 Y184.632 E6.01181
G1 X195.645 Y185.119 E6.03002
G1 X195.343 Y185.658 E6.05057
G1 X195.07 Y186.107 E6.06804
G1 X194.732 Y186.625 E6.08862
G1 X194.437 Y187.047 E6.10574
G1 X194.066 Y187.541 E6.12629
G1 X193.728 Y187.96 E6.1442
G1 X193.324 Y188.427 E6.16473
G1 X192.959 Y188.82 E6.18257
G1 X192.441 Y189.336 E6.20689
G1 X192.364 Y189.84 E6.22385
G1 X192.166 Y190.605 E6.25013
G1 X191.892 Y191.345 E6.27638
G1 X191.544 Y192.054 E6.30265
G1 X191.126 Y192.725 E6.32894
G1 X190.643 Y193.349 E6.35518
G1 X190.1 Y193.922 E6.38144
G1 X189.501 Y194.437 E6.40771
G1 X188.853 Y194.888 E6.43397
G1 X188.162 Y195.272 E6.46027
G1 X187.131 Y195.69 E6.49727
G1 X185.994 Y196.059 E6.53703
G1 X185.231 Y196.265 E6.56331
G1 X184.452 Y196.392 E6.58956
G1 X183.664 Y196.44 E6.61582
G1 X182.875 Y196.407 E6.64209
G1 X182.093 Y196.296 E6.66836
G1 X181.326 Y196.106 E6.69464
G1 X180.583 Y195.839 E6.7209
G1 X179.871 Y195.498 E6.74716
G1 X179 Y194.949 E6.7814
G1 X178.491 Y194.579 E6.80233
G1 X177.819 Y194.037 E6.83104
G1 X157.194 Y194.037 E7.51703
G1 X156.865 Y194.385 E7.53296
G1 X156.345 Y194.837 E7.55588
G1 X155.336 Y195.64 E7.59877
G1 X154.694 Y196.1 E7.62504
G1 X154.009 Y196.493 E7.6513
G1 X153.288 Y196.814 E7.67755
G1 X152.537 Y197.061 E7.70385
G1 X151.766 Y197.23 E7.7301
G1 X150.982 Y197.321 E7.75635
G1 X150.479 Y197.337 E7.77309
G1 X149.829 Y197.337 E7.79471
G1 X149.04 Y197.297 E7.82098
G1 X148.26 Y197.178 E7.84723
G1 X147.495 Y196.98 E7.87351
G1 X146.755 Y196.706 E7.89976
G1 X146.046 Y196.358 E7.92602
G1 X145.232 Y195.838 E7.95815
G1 X144.707 Y195.455 E7.97977
G1 X144.093 Y194.958 E8.00604
G1 X143.533 Y194.402 E8.03229
G1 X143.234 Y194.038 E8.04795
G1 X108.25 Y194.038 E9.21153
G1 X107.461 Y193.998 E9.2378
G1 X106.681 Y193.879 E9.26404
G1 X105.916 Y193.681 E9.29033
G1 X105.176 Y193.407 E9.31657
G1 X104.467 Y193.059 E9.34284
G1 X103.796 Y192.642 E9.36912
G1 X103.172 Y192.158 E9.39538
G1 X102.599 Y191.615 E9.42164
G1 X102.084 Y191.016 E9.44791
G1 X101.633 Y190.368 E9.47417
G1 X101.249 Y189.678 E9.50044
G1 X100.937 Y188.952 E9.52672
G1 X100.7 Y188.199 E9.55297
G1 X100.541 Y187.425 E9.57926
G1 X100.46 Y186.64 E9.6055
G1 X100.45 Y186.238 E9.61888
G1 X100.45 Y172.559 E10.07384
G1 X100.49 Y171.77 E10.10012
G1 X100.609 Y170.99 E10.12636
G1 X100.697 Y170.639 E10.1384
G1 X100.697 Y167.894 E10.2297
G1 X100.615 Y167.583 E10.24039
G1 X100.493 Y166.802 E10.26669
G1 X100.45 Y165.985 E10.2939
G1 X100.45 Y111.852 E12.09437
G0 F6000 X100.85 Y111.852
G1 F1200 X100.89 Y111.084 E12.11995
G1 X101.009 Y110.324 E12.14553
G1 X101.207 Y109.581 E12.17111
G1 X101.481 Y108.862 E12.1967
G1 X101.828 Y108.176 E12.22227
G1 X102.244 Y107.529 E12.24785
G1 X102.725 Y106.929 E12.27343
G1 X103.266 Y106.382 E12.29902
G1 X103.861 Y105.894 E12.32461
G1 X104.503 Y105.471 E12.35018
G1 X105.186 Y105.116 E12.37578
G1 X105.901 Y104.835 E12.40134
G1 X106.643 Y104.629 E12.42695
G1 X107.401 Y104.501 E12.45252
G1 X108.25 Y104.452 E12.4808
G1 X189.85 Y104.452 E15.19483
G1 X190.618 Y104.492 E15.22041
G1 X191.378 Y104.611 E15.24599
G1 X192.121 Y104.809 E15.27157
G1 X192.84 Y105.083 E15.29716
G1 X193.526 Y105.43 E15.32273
G1 X194.173 Y105.846 E15.34831
G1 X194.773 Y106.327 E15.37389
G1 X195.32 Y106.868 E15.39948
G1 X195.808 Y107.463 E15.42507
G1 X196.231 Y108.105 E15.45064
G1 X196.586 Y108.788 E15.47625
G1 X196.867 Y109.503 E15.5018
G1 X197.073 Y110.245 E15.52741
G1 X197.201 Y111.003 E15.55298
G1 X197.25 Y111.852 E15.58126
G1 X197.25 Y144.325 E16.66132
G1 X197.586 Y144.603 E16.67582
G1 X198.124 Y145.153 E16.70141
G1 X198.602 Y145.755 E16.72698
G1 X199.015 Y146.404 E16.75257
G1 X199.358 Y147.093 E16.77816
G1 X199.628 Y147.813 E16.80374
G1 X199.822 Y148.557 E16.82931
G1 X199.937 Y149.318 E16.85491
G1 X199.973 Y150.046 E16.87915
G1 X199.973 Y151.241 E16.9189
G1 X199.933 Y152.009 E16.94448
G1 X199.814 Y152.769 E16.97006
G1 X199.616 Y153.512 E16.99564
G1 X199.342 Y154.231 E17.02123
G1 X198.995 Y154.917 E17.0468
G1 X198.579 Y155.564 E17.07238
G1 X198.098 Y156.164 E17.09796
G1 X197.557 Y156.711 E17.12355
G1 X197.251 Y156.962 E17.13671
G1 X197.251 Y177.137 E17.80774
G1 X197.226 Y178.006 E17.83665
G1 X197.192 Y178.508 E17.85339
G1 X197.129 Y179.124 E17.87398
G1 X197.06 Y179.626 E17.89083
G1 X196.955 Y180.236 E17.91142
G1 X196.852 Y180.733 E17.9283
G1 X196.706 Y181.332 E17.94881
G1 X196.575 Y181.802 E17.96504
G1 X196.389 Y182.393 E17.98564
G1 X196.217 Y182.878 E18.00276
G1 X195.991 Y183.453 E18.02331
G1 X195.797 Y183.902 E18.03958
G1 X195.533 Y184.462 E18.06017
G1 X195.296 Y184.923 E18.07741
G1 X194.994 Y185.462 E18.09796
G1 X194.735 Y185.889 E18.11457
G1 X194.397 Y186.407 E18.13514
G1 X194.117 Y186.807 E18.15138
G1 X193.746 Y187.301 E18.17193
G1 X193.425 Y187.698 E18.18891
G1 X193.021 Y188.165 E18.20945
G1 X192.675 Y188.539 E18.22639
G1 X192.065 Y189.153 E18.25518
G1 X191.964 Y189.799 E18.27693
G1 X191.766 Y190.542 E18.3025
G1 X191.492 Y191.261 E18.32809
G1 X191.145 Y191.947 E18.35366
G1 X190.729 Y192.594 E18.37925
G1 X190.248 Y193.194 E18.40482
G1 X189.707 Y193.741 E18.43041
G1 X189.112 Y194.229 E18.45601
G1 X188.47 Y194.652 E18.48158
G1 X187.787 Y195.007 E18.50718
G1 X187.007 Y195.31 E18.53501
G1 X185.87 Y195.679 E18.57477
G1 X185.127 Y195.878 E18.60035
G1 X184.368 Y195.999 E18.62592
G1 X183.6 Y196.04 E18.6515
G1 X182.832 Y196.001 E18.67707
G1 X182.071 Y195.883 E18.70269
G1 X181.328 Y195.687 E18.72824
G1 X180.609 Y195.415 E18.75381
G1 X179.921 Y195.069 E18.77943
G1 X179.235 Y194.626 E18.80659
G1 X178.726 Y194.256 E18.82752
G1 X178.128 Y193.772 E18.8531
G1 X177.993 Y193.637 E18.85945
G1 X157.029 Y193.637 E19.55672
G1 X156.472 Y194.204 E19.58316
G1 X156.096 Y194.524 E19.59958
G1 X155.087 Y195.327 E19.64247
G1 X154.461 Y195.774 E19.66805
G1 X153.792 Y196.154 E19.69364
G1 X153.087 Y196.462 E19.71923
G1 X152.355 Y196.695 E19.74478
G1 X151.601 Y196.851 E19.77039
G1 X150.479 Y196.937 E19.80782
G1 X149.829 Y196.937 E19.82944
G1 X149.061 Y196.897 E19.85501
G1 X148.301 Y196.778 E19.8806
G1 X147.558 Y196.58 E19.90617
G1 X146.839 Y196.306 E19.93177
G1 X146.153 Y195.959 E19.95734
G1 X145.468 Y195.515 E19.98449
G1 X144.943 Y195.132 E20.0061
G1 X144.346 Y194.647 E20.03168
G1 X143.802 Y194.103 E20.05727
G1 X143.425 Y193.638 E20.07718
G1 X108.25 Y193.638 E21.24711
G1 X107.482 Y193.598 E21.27269
G1 X106.722 Y193.479 E21.29827
G1 X105.979 Y193.281 E21.32385
G1 X105.26 Y193.007 E21.34944
G1 X104.574 Y192.66 E21.37501
G1 X103.927 Y192.244 E21.40059
G1 X103.327 Y191.763 E21.42617
G1 X102.78 Y191.222 E21.45176
G1 X102.292 Y190.627 E21.47735
G1 X101.869 Y189.985 E21.50292
G1 X101.514 Y189.302 E21.52852
G1 X101.233 Y188.587 E21.55408
G1 X101.027 Y187.846 E21.57966
G1 X100.899 Y187.087 E21.60526
G1 X100.85 Y186.238 E21.63354
G1 X100.85 Y172.559 E22.08851
G1 X100.89 Y171.791 E22.11409
G1 X101.009 Y171.031 E22.13967
G1 X101.097 Y170.684 E22.15158
G1 X101.097 Y167.841 E22.24614
G1 X101.003 Y167.481 E22.25851
G1 X100.887 Y166.721 E22.28408
G1 X100.85 Y165.985 E22.30859
G1 X100.85 Y111.852 E24.10906
G0 F6000 X101.25 Y111.852
G1 F1200 X101.29 Y111.105 E24.13394
G1 X101.409 Y110.367 E24.15881
G1 X101.607 Y109.645 E24.18371
G1 X101.88 Y108.949 E24.20857
G1 X102.227 Y108.286 E24.23346
G1 X102.642 Y107.663 E24.25836
G1 X103.121 Y107.089 E24.28323
G1 X103.658 Y106.568 E24.30811
G1 X104.248 Y106.109 E24.33297
G1 X104.884 Y105.714 E24.35787
G1 X105.558 Y105.39 E24.38275
G1 X106.263 Y105.14 E24.40763
G1 X106.991 Y104.966 E24.43252
G1 X107.733 Y104.871 E24.4574
G1 X108.25 Y104.852 E24.47461
G1 X189.85 Y104.852 E27.18864
G1 X190.597 Y104.892 E27.21352
G1 X191.335 Y105.011 E27.23838
G1 X192.057 Y105.209 E27.26328
G1 X192.753 Y105.482 E27.28815
G1 X193.416 Y105.829 E27.31304
G1 X194.039 Y106.244 E27.33793
G1 X194.613 Y106.723 E27.3628
G1 X195.134 Y107.26 E27.38768
G1 X195.593 Y107.85 E27.41255
G1 X195.988 Y108.486 E27.43745
G1 X196.312 Y109.16 E27.46232
G1 X196.562 Y109.865 E27.4872
G1 X196.736 Y110.593 E27.5121
G1 X196.831 Y111.335 E27.53698
G1 X196.85 Y111.852 E27.55418
G1 X196.851 Y144.509 E28.64036
G1 X197.375 Y144.953 E28.6632
G1 X197.891 Y145.495 E28.68809
G1 X198.347 Y146.088 E28.71297
G1 X198.736 Y146.727 E28.73786
G1 X199.055 Y147.404 E28.76275
G1 X199.3 Y148.11 E28.7876
G1 X199.468 Y148.839 E28.81248
G1 X199.558 Y149.582 E28.83738
G1 X199.573 Y150.046 E28.85282
G1 X199.573 Y151.241 E28.89256
G1 X199.533 Y151.988 E28.91744
G1 X199.414 Y152.726 E28.94231
G1 X199.216 Y153.448 E28.96721
G1 X198.943 Y154.144 E28.99207
G1 X198.596 Y154.807 E29.01696
G1 X198.181 Y155.43 E29.04186
G1 X197.702 Y156.004 E29.06673
G1 X197.165 Y156.525 E29.09161
G1 X196.851 Y156.77 E29.10486
G1 X196.851 Y177.137 E29.78227
G1 X196.826 Y177.993 E29.81075
G1 X196.794 Y178.467 E29.82655
G1 X196.731 Y179.083 E29.84715
G1 X196.666 Y179.558 E29.86309
G1 X196.561 Y180.168 E29.88368
G1 X196.463 Y180.639 E29.89968
G1 X196.317 Y181.238 E29.92019
G1 X196.193 Y181.681 E29.93549
G1 X196.007 Y182.272 E29.95609
G1 X195.845 Y182.732 E29.97232
G1 X195.619 Y183.307 E29.99286
G1 X195.436 Y183.731 E30.00822
G1 X195.172 Y184.291 E30.02882
G1 X194.947 Y184.728 E30.04516
G1 X194.645 Y185.267 E30.06571
G1 X194.4 Y185.67 E30.0814
G1 X194.062 Y186.188 E30.10197
G1 X193.797 Y186.567 E30.11735
G1 X193.426 Y187.061 E30.1379
G1 X193.123 Y187.437 E30.15396
G1 X192.719 Y187.904 E30.1745
G1 X192.392 Y188.257 E30.1905
G1 X191.956 Y188.696 E30.21108
G1 X191.695 Y188.941 E30.22299
G1 X191.564 Y189.756 E30.25044
G1 X191.366 Y190.478 E30.27534
G1 X191.093 Y191.174 E30.30021
G1 X190.746 Y191.837 E30.3251
G1 X190.331 Y192.46 E30.35
G1 X189.852 Y193.034 E30.37486
G1 X189.315 Y193.555 E30.39975
G1 X188.725 Y194.014 E30.42461
G1 X188.089 Y194.409 E30.44951
G1 X187.415 Y194.733 E30.47439
G1 X186.884 Y194.929 E30.49321
G1 X185.747 Y195.298 E30.53297
G1 X185.024 Y195.491 E30.55786
G1 X184.285 Y195.605 E30.58273
G1 X183.537 Y195.64 E30.60763
G1 X182.791 Y195.595 E30.63249
G1 X182.053 Y195.47 E30.65739
G1 X181.333 Y195.268 E30.68226
G1 X180.639 Y194.989 E30.70714
G1 X179.978 Y194.638 E30.73203
G1 X179.47 Y194.302 E30.75229
G1 X178.961 Y193.932 E30.77322
G1 X178.38 Y193.461 E30.79809
G1 X178.158 Y193.237 E30.80858
G1 X156.834 Y193.237 E31.51782
G1 X156.617 Y193.497 E31.52909
G1 X155.847 Y194.211 E31.56401
G1 X154.838 Y195.014 E31.6069
G1 X154.229 Y195.448 E31.63177
G1 X153.576 Y195.814 E31.65667
G1 X152.889 Y196.109 E31.68154
G1 X152.174 Y196.329 E31.70642
G1 X151.439 Y196.471 E31.73132
G1 X150.479 Y196.537 E31.76332
G1 X149.829 Y196.537 E31.78494
G1 X149.082 Y196.497 E31.80982
G1 X148.344 Y196.378 E31.83469
G1 X147.622 Y196.18 E31.85959
G1 X146.926 Y195.907 E31.88445
G1 X146.263 Y195.56 E31.90934
G1 X145.703 Y195.192 E31.93163
G1 X145.178 Y194.809 E31.95324
G1 X144.599 Y194.337 E31.97809
G1 X144.072 Y193.805 E32.003
G1 X143.62 Y193.238 E32.02711
G1 X108.25 Y193.238 E33.20352
G1 X107.503 Y193.198 E33.22841
G1 X106.765 Y193.079 E33.25327
G1 X106.043 Y192.881 E33.27817
G1 X105.347 Y192.608 E33.30303
G1 X104.684 Y192.261 E33.32792
G1 X104.061 Y191.846 E33.35282
G1 X103.487 Y191.367 E33.37769
G1 X102.967 Y190.83 E33.40255
G1 X102.507 Y190.24 E33.42743
G1 X102.112 Y189.604 E33.45233
G1 X101.788 Y188.93 E33.47721
G1 X101.538 Y188.225 E33.50209
G1 X101.364 Y187.497 E33.52698
G1 X101.269 Y186.755 E33.55186
G1 X101.25 Y186.238 E33.56907
G1 X101.25 Y172.559 E34.02403
G1 X101.29 Y171.812 E34.04891
G1 X101.409 Y171.074 E34.07378
G1 X101.497 Y170.731 E34.08556
G1 X101.497 Y167.792 E34.18331
G1 X101.39 Y167.38 E34.19746
G1 X101.281 Y166.64 E34.22234
G1 X101.25 Y165.985 E34.24415
G1 X101.25 Y111.852 E36.04462
G0 F6000 X101.65 Y111.852
G1 F1200 X101.69 Y111.127 E36.06877
G1 X101.809 Y110.41 E36.09295
G1 X102.007 Y109.711 E36.11711
G1 X102.28 Y109.038 E36.14127
G1 X102.625 Y108.399 E36.16542
G1 X103.039 Y107.802 E36.18958
G1 X103.515 Y107.254 E36.21373
G1 X104.049 Y106.761 E36.2379
G1 X104.634 Y106.331 E36.26205
G1 X105.263 Y105.967 E36.28622
G1 X105.928 Y105.674 E36.31039
G1 X106.621 Y105.456 E36.33455
G1 X107.333 Y105.316 E36.35868
G1 X108.25 Y105.252 E36.38926
G1 X189.85 Y105.252 E39.10329
G1 X190.575 Y105.292 E39.12744
G1 X191.292 Y105.411 E39.15161
G1 X191.991 Y105.609 E39.17577
G1 X192.664 Y105.882 E39.19993
G1 X193.303 Y106.227 E39.22408
G1 X193.9 Y106.641 E39.24825
G1 X194.448 Y107.117 E39.27239
G1 X194.941 Y107.651 E39.29656
G1 X195.371 Y108.236 E39.32071
G1 X195.735 Y108.865 E39.34488
G1 X196.028 Y109.53 E39.36905
G1 X196.246 Y110.223 E39.39321
G1 X196.386 Y110.935 E39.41735
G1 X196.45 Y111.852 E39.44792
G1 X196.451 Y144.715 E40.54095
G1 X196.613 Y144.827 E40.5475
G1 X197.162 Y145.302 E40.57164
G1 X197.655 Y145.835 E40.59579
G1 X198.087 Y146.419 E40.61995
G1 X198.452 Y147.047 E40.64411
G1 X198.746 Y147.711 E40.66827
G1 X198.965 Y148.404 E40.69244
G1 X199.107 Y149.116 E40.71659
G1 X199.173 Y150.046 E40.7476
G1 X199.173 Y151.241 E40.78734
G1 X199.133 Y151.966 E40.81149
G1 X199.014 Y152.683 E40.83567
G1 X198.816 Y153.382 E40.85983
G1 X198.543 Y154.055 E40.88398
G1 X198.198 Y154.694 E40.90814
G1 X197.784 Y155.291 E40.9323
G1 X197.308 Y155.839 E40.95644
G1 X196.774 Y156.332 E40.98062
G1 X196.451 Y156.57 E40.99396
G1 X196.451 Y177.137 E41.67802
