;FLAVOR:Marlin
;TIME:1825
;Filament used: 1.1345m
;Layer height: 0.2
;MINX:101.765
;MINY:125.664
;MINZ:0.2
;MAXX:194.928
;MAXY:194.5
;MAXZ:5
;Generated with Cura_SteamEngine main
M140 S65
M105
M190 S65
M104 S212
M105
M109 S212
M82 ;absolute extrusion mode
M201 X500.00 Y500.00 Z100.00 E5000.00 ;Setup machine max acceleration
M203 X500.00 Y500.00 Z10.00 E50.00 ;Setup machine max feedrate
M204 P500.00 R1000.00 T500.00 ;Setup Print/Retract/Travel acceleration
M205 X8.00 Y8.00 Z0.40 E5.00 ;Setup Jerk
M220 S100 ;Reset Feedrate
M221 S100 ;Reset Flowrate

G28 ;Home
G29 ;Auto bed Level

G92 E0 ;Reset Extruder
G1 Z2.0 F3000 ;Move Z Axis up
G1 X10.1 Y20 Z0.28 F5000.0 ;Move to start position
G1 X10.1 Y200.0 Z0.28 F1500.0 E15 ;Draw the first line
G1 X10.4 Y200.0 Z0.28 F5000.0 ;Move to side a little
G1 X10.4 Y20 Z0.28 F1500.0 E30 ;Draw the second line
G92 E0 ;Reset Extruder
G1 Z2.0 F3000 ;Move Z Axis up

G92 E0
G92 E0
G1 F2700 E-5
;LAYER_COUNT:25
;LAYER:0
M107
G0 F6000 X109.415 Y133.633 Z0.2
G0 X101.765 Y149.805
;TYPE:SKIRT
G1 F2700 E0
G1 F1200 X101.778 Y149.248 E0.01853
G1 X101.807 Y148.652 E0.03838
G1 X101.862 Y147.964 E0.06133
G1 X101.93 Y147.356 E0.08168
G1 X101.999 Y146.851 E0.09863
G1 X102.115 Y146.162 E0.12187
G1 X102.215 Y145.65 E0.13922
G1 X102.367 Y144.966 E0.16253
G1 X102.488 Y144.495 E0.1787
G1 X102.641 Y143.948 E0.19759
G1 X102.83 Y143.338 E0.21883
G1 X102.978 Y142.907 E0.23399
G1 X103.221 Y142.254 E0.25717
G1 X103.589 Y141.369 E0.28904
G1 X103.894 Y140.713 E0.31311
G1 X104.241 Y140.027 E0.33867
G1 X104.648 Y139.294 E0.36656
G1 X105.078 Y138.584 E0.39417
G1 X105.518 Y137.914 E0.42083
G1 X105.873 Y137.414 E0.44122
G1 X106.231 Y136.938 E0.46103
G1 X106.568 Y136.514 E0.47905
G1 X106.987 Y136.017 E0.50067
G1 X107.444 Y135.507 E0.52345
G1 X107.938 Y134.991 E0.5472
G1 X108.432 Y134.507 E0.57021
G1 X108.978 Y134.007 E0.59483
G1 X109.415 Y133.633 E0.61396
G1 X109.895 Y133.241 E0.63457
G1 X110.68 Y132.651 E0.66724
G1 X111.229 Y132.272 E0.68942
G1 X111.729 Y131.948 E0.70924
G1 X112.134 Y131.698 E0.72507
G1 X112.722 Y131.358 E0.74766
G1 X113.439 Y130.977 E0.77467
G1 X114.169 Y130.623 E0.80165
G1 X114.79 Y130.348 E0.82424
G1 X115.477 Y130.071 E0.84888
G1 X116.154 Y129.825 E0.87283
G1 X116.481 Y129.716 E0.8843
G1 X117.355 Y129.453 E0.91466
G1 X117.929 Y129.301 E0.93441
G1 X118.507 Y129.165 E0.95415
G1 X119.061 Y129.05 E0.97297
G1 X119.777 Y128.927 E0.99714
G1 X120.629 Y128.811 E1.02574
G1 X121.237 Y128.747 E1.04607
G1 X122.006 Y128.694 E1.07171
G1 X123.086 Y128.662 E1.10764
G1 X124.097 Y128.66 E1.14127
G1 X126.735 Y128.619 E1.22902
G1 X129.231 Y128.509 E1.31212
G1 X131.745 Y128.327 E1.39595
G1 X134.23 Y128.076 E1.47903
G1 X136.749 Y127.75 E1.56351
G1 X139.213 Y127.359 E1.64648
G1 X141.71 Y126.891 E1.73098
G1 X143.069 Y126.596 E1.77723
G1 X143.286 Y126.558 E1.78456
G1 X145 Y126.184 E1.84291
G1 X146.035 Y125.991 E1.87793
G1 X146.801 Y125.874 E1.9037
G1 X147.536 Y125.789 E1.92831
G1 X148.706 Y125.699 E1.96734
G1 X149.315 Y125.673 E1.98761
G1 X149.908 Y125.664 E2.00734
G1 X150.434 Y125.669 E2.02484
G1 X151.48 Y125.71 E2.05965
G1 X152.419 Y125.782 E2.09097
G1 X153.06 Y125.856 E2.11244
G1 X154.033 Y126 E2.14515
G1 X154.868 Y126.154 E2.17339
G1 X155.279 Y126.241 E2.18736
G1 X155.975 Y126.407 E2.21116
G1 X156.36 Y126.51 E2.22442
G1 X158.386 Y127.089 E2.2945
G1 X161.413 Y127.9 E2.39873
G1 X163.799 Y128.46 E2.48025
G1 X166.339 Y128.981 E2.56649
G1 X168.778 Y129.411 E2.64886
G1 X171.258 Y129.775 E2.73223
G1 X173.767 Y130.072 E2.81626
G1 X176.573 Y130.317 E2.90994
G1 X177.37 Y130.397 E2.93658
G1 X177.974 Y130.471 E2.95682
G1 X178.685 Y130.588 E2.98079
G1 X179.361 Y130.722 E3.00371
G1 X180.299 Y130.951 E3.03582
G1 X181.133 Y131.194 E3.06472
G1 X182.089 Y131.521 E3.09832
G1 X182.764 Y131.787 E3.12245
G1 X183.436 Y132.075 E3.14677
G1 X184.054 Y132.374 E3.1696
G1 X184.609 Y132.664 E3.19043
G1 X185.264 Y133.035 E3.21547
G1 X185.662 Y133.279 E3.231
G1 X186.244 Y133.654 E3.25402
G1 X186.845 Y134.075 E3.27843
G1 X187.213 Y134.352 E3.29375
G1 X187.642 Y134.692 E3.31196
G1 X188.075 Y135.053 E3.33071
G1 X188.673 Y135.59 E3.35744
G1 X189.053 Y135.957 E3.37501
G1 X189.682 Y136.603 E3.405
G1 X190.163 Y137.142 E3.42902
G1 X190.479 Y137.52 E3.44541
G1 X191.014 Y138.213 E3.47453
G1 X191.377 Y138.725 E3.49541
G1 X191.826 Y139.392 E3.52215
G1 X192.318 Y140.204 E3.55373
G1 X192.634 Y140.781 E3.57561
G1 X192.907 Y141.308 E3.59535
G1 X193.226 Y141.99 E3.62039
G1 X193.502 Y142.639 E3.64385
G1 X193.868 Y143.631 E3.67901
G1 X194.139 Y144.509 E3.70958
G1 X194.315 Y145.141 E3.7314
G1 X194.527 Y146.049 E3.76241
G1 X194.613 Y146.504 E3.77781
G1 X194.724 Y147.181 E3.80063
G1 X194.804 Y147.81 E3.82172
G1 X194.872 Y148.558 E3.8467
G1 X194.905 Y149.065 E3.8636
G1 X194.928 Y149.843 E3.88948
G1 X194.925 Y150.355 E3.90651
G1 X194.906 Y150.94 E3.92598
G1 X194.882 Y151.346 E3.93951
G1 X194.827 Y151.969 E3.96031
G1 X194.754 Y152.596 E3.9813
G1 X194.658 Y153.249 E4.00326
G1 X194.583 Y153.671 E4.01751
G1 X194.469 Y154.231 E4.03652
G1 X194.341 Y154.783 E4.05537
G1 X194.041 Y155.836 E4.09178
G1 X193.844 Y156.416 E4.11216
G1 X193.47 Y157.423 E4.14789
G1 X193.136 Y158.215 E4.17647
G1 X192.833 Y158.843 E4.19967
G1 X192.568 Y159.357 E4.2189
G1 X192.001 Y160.33 E4.25636
G1 X191.523 Y161.062 E4.28543
G1 X191.071 Y161.704 E4.31155
G1 X190.599 Y162.325 E4.33749
G1 X189.956 Y163.095 E4.37086
G1 X189.622 Y163.46 E4.38731
G1 X189.243 Y163.854 E4.4055
G1 X188.874 Y164.219 E4.42276
G1 X188.452 Y164.618 E4.44207
G1 X188.013 Y165.004 E4.46152
G1 X187.585 Y165.36 E4.48003
G1 X185.6 Y167.06 E4.56696
G1 X183.734 Y168.753 E4.65076
G1 X181.92 Y170.493 E4.73436
G1 X180.153 Y172.287 E4.81811
G1 X178.429 Y174.139 E4.90227
G1 X176.769 Y176.028 E4.98591
G1 X175.168 Y177.955 E5.06924
G1 X173.623 Y179.927 E5.15256
G1 X172.119 Y181.963 E5.23675
G1 X170.678 Y184.035 E5.32069
G1 X169.312 Y186.118 E5.40354
G1 X168.265 Y187.826 E5.47017
G1 X167.775 Y188.596 E5.50053
G1 X167.237 Y189.364 E5.53172
G1 X166.865 Y189.823 E5.55137
G1 X166.617 Y190.113 E5.56406
G1 X165.978 Y190.799 E5.59524
G1 X165.282 Y191.429 E5.62646
G1 X164.789 Y191.815 E5.64729
G1 X164.434 Y192.077 E5.66196
G1 X163.656 Y192.601 E5.69316
G1 X162.435 Y193.248 E5.73912
G1 X162.11 Y193.395 E5.75099
G1 X161.24 Y193.745 E5.78218
G1 X160.169 Y194.063 E5.81934
G1 X159.707 Y194.175 E5.83515
G1 X158.787 Y194.357 E5.86634
G1 X157.53 Y194.477 E5.90834
G1 X156.909 Y194.493 E5.929
G1 X143.769 Y194.5 E6.36604
G1 X142.947 Y194.49 E6.39338
G1 X142.268 Y194.46 E6.41598
G1 X142.016 Y194.441 E6.42439
G1 X140.665 Y194.254 E6.46975
G1 X140.368 Y194.194 E6.47983
G1 X139.457 Y193.969 E6.51104
G1 X138.696 Y193.716 E6.53771
G1 X138.423 Y193.614 E6.54741
G1 X137.559 Y193.249 E6.5786
G1 X137.003 Y192.965 E6.59937
G1 X136.763 Y192.834 E6.60846
G1 X135.959 Y192.35 E6.63967
G1 X135.45 Y191.992 E6.66037
G1 X135.205 Y191.809 E6.67054
G1 X134.478 Y191.216 E6.70175
G1 X133.902 Y190.672 E6.7281
G1 X133.201 Y189.908 E6.76258
G1 X132.876 Y189.504 E6.77983
G1 X132.494 Y188.996 E6.80097
G1 X132.207 Y188.596 E6.81734
G1 X130.668 Y186.514 E6.90346
G1 X129.134 Y184.555 E6.98621
G1 X127.517 Y182.608 E7.07039
G1 X125.855 Y180.717 E7.15413
G1 X124.149 Y178.884 E7.23741
G1 X122.374 Y177.083 E7.32152
G1 X120.566 Y175.348 E7.40486
G1 X118.696 Y173.652 E7.48883
G1 X116.769 Y172.003 E7.57318
G1 X114.811 Y170.42 E7.65693
G1 X112.864 Y168.935 E7.73837
G1 X112.06 Y168.364 E7.77117
G1 X110.374 Y167.125 E7.84076
G1 X109.717 Y166.616 E7.8684
G1 X109.307 Y166.276 E7.88612
G1 X108.867 Y165.893 E7.90552
G1 X108.358 Y165.421 E7.92861
G1 X107.857 Y164.926 E7.95203
G1 X107.363 Y164.405 E7.97591
G1 X106.919 Y163.905 E7.99815
G1 X106.456 Y163.348 E8.02224
G1 X106.084 Y162.869 E8.04241
G1 X105.735 Y162.394 E8.06202
G1 X105.397 Y161.907 E8.08174
G1 X105.061 Y161.392 E8.10219
G1 X104.616 Y160.658 E8.13074
G1 X104.421 Y160.317 E8.1438
G1 X104.128 Y159.774 E8.16432
G1 X103.912 Y159.343 E8.18036
G1 X103.657 Y158.787 E8.2007
G1 X103.406 Y158.204 E8.22181
G1 X103.165 Y157.604 E8.24332
G1 X103.007 Y157.173 E8.25859
G1 X102.805 Y156.582 E8.27936
G1 X102.6 Y155.914 E8.3026
G1 X102.444 Y155.341 E8.32235
G1 X102.317 Y154.823 E8.34009
G1 X102.213 Y154.352 E8.35614
G1 X102.096 Y153.74 E8.37686
G1 X101.995 Y153.117 E8.39785
G1 X101.918 Y152.555 E8.41672
G1 X101.863 Y152.053 E8.43351
G1 X101.815 Y151.458 E8.45337
G1 X101.783 Y150.875 E8.47279
G1 X101.766 Y150.294 E8.49212
G1 X101.765 Y149.805 E8.50838
G0 F6000 X102.165 Y149.805
G1 F1200 X102.178 Y149.268 E8.52625
G1 X102.207 Y148.672 E8.5461
G1 X102.26 Y148.009 E8.56822
G1 X102.328 Y147.401 E8.58857
G1 X102.394 Y146.914 E8.60491
G1 X102.508 Y146.239 E8.62768
G1 X102.608 Y145.727 E8.64503
G1 X102.757 Y145.057 E8.66786
G1 X102.873 Y144.603 E8.68345
G1 X103.026 Y144.056 E8.70234
G1 X103.209 Y143.468 E8.72282
G1 X103.478 Y142.701 E8.74985
G1 X103.745 Y142.024 E8.77406
G1 X103.957 Y141.526 E8.79206
G1 X104.251 Y140.893 E8.81527
G1 X104.598 Y140.207 E8.84084
G1 X104.99 Y139.501 E8.8677
G1 X105.42 Y138.791 E8.89531
G1 X105.844 Y138.145 E8.92101
G1 X106.199 Y137.645 E8.94141
G1 X106.544 Y137.187 E8.96048
G1 X106.881 Y136.763 E8.97849
G1 X107.285 Y136.284 E8.99933
G1 X107.742 Y135.774 E9.02211
G1 X108.218 Y135.276 E9.04502
G1 X108.712 Y134.792 E9.06803
G1 X109.238 Y134.311 E9.09173
G1 X109.675 Y133.937 E9.11086
G1 X110.144 Y133.554 E9.131
G1 X110.918 Y132.973 E9.16319
G1 X111.447 Y132.607 E9.18459
G1 X111.947 Y132.283 E9.2044
G1 X112.626 Y131.872 E9.2308
G1 X113.223 Y131.54 E9.25352
G1 X114.017 Y131.137 E9.28314
G1 X114.623 Y130.857 E9.30534
G1 X115.269 Y130.583 E9.32868
G1 X115.925 Y130.331 E9.35205
G1 X116.608 Y130.096 E9.37608
G1 X117.467 Y129.837 E9.40592
G1 X118.02 Y129.691 E9.42494
G1 X118.598 Y129.555 E9.44469
G1 X119.133 Y129.443 E9.46287
G1 X119.469 Y129.382 E9.47423
G1 X120.254 Y129.262 E9.50064
G1 X120.671 Y129.209 E9.51462
G1 X121.279 Y129.145 E9.53495
G1 X122.02 Y129.093 E9.55966
G1 X122.737 Y129.068 E9.58352
G1 X124.104 Y129.06 E9.62899
G1 X126.724 Y129.019 E9.71614
G1 X129.277 Y128.906 E9.80114
G1 X131.778 Y128.726 E9.88454
G1 X134.289 Y128.472 E9.96848
G1 X136.787 Y128.149 E10.05226
G1 X139.277 Y127.754 E10.13611
G1 X141.803 Y127.281 E10.22158
G1 X143.154 Y126.987 E10.26757
G1 X143.37 Y126.95 E10.27486
G1 X145.086 Y126.575 E10.33328
G1 X146.106 Y126.384 E10.3678
G1 X146.857 Y126.27 E10.39306
G1 X147.579 Y126.187 E10.41723
G1 X148.735 Y126.098 E10.45579
G1 X149.321 Y126.073 E10.4753
G1 X149.914 Y126.064 E10.49503
G1 X150.42 Y126.069 E10.51186
G1 X151.452 Y126.109 E10.54621
G1 X152 Y126.147 E10.56448
G1 X152.643 Y126.208 E10.58596
G1 X153.582 Y126.334 E10.61747
G1 X154.442 Y126.479 E10.64648
G1 X155.196 Y126.633 E10.67208
G1 X155.879 Y126.795 E10.69542
G1 X156.25 Y126.894 E10.70819
G1 X158.338 Y127.491 E10.78042
G1 X161.292 Y128.282 E10.88214
G1 X163.732 Y128.855 E10.9655
G1 X166.254 Y129.372 E11.05113
G1 X168.722 Y129.808 E11.13448
G1 X171.189 Y130.17 E11.21741
G1 X173.718 Y130.469 E11.30211
G1 X176.533 Y130.715 E11.3961
G1 X177.33 Y130.795 E11.42274
G1 X177.922 Y130.868 E11.44258
G1 X178.607 Y130.98 E11.46566
G1 X179.283 Y131.114 E11.48859
G1 X180.187 Y131.335 E11.51954
G1 X181.021 Y131.578 E11.54843
G1 X181.942 Y131.893 E11.58081
G1 X182.617 Y132.159 E11.60494
G1 X183.273 Y132.44 E11.62867
G1 X183.869 Y132.728 E11.65069
G1 X184.424 Y133.018 E11.67152
G1 X185.055 Y133.376 E11.69565
G1 X185.453 Y133.62 E11.71117
G1 X186.026 Y133.989 E11.73384
G1 X186.605 Y134.395 E11.75736
G1 X186.973 Y134.672 E11.77268
G1 X187.386 Y134.999 E11.7902
G1 X187.819 Y135.36 E11.80895
G1 X188.395 Y135.877 E11.8347
G1 X188.775 Y136.244 E11.85227
G1 X189.393 Y136.879 E11.88174
G1 X189.857 Y137.398 E11.90489
G1 X190.173 Y137.776 E11.92128
G1 X190.687 Y138.444 E11.94931
G1 X191.05 Y138.956 E11.97019
G1 X191.493 Y139.613 E11.99654
G1 X191.967 Y140.396 E12.02699
G1 X192.283 Y140.973 E12.04887
G1 X192.551 Y141.489 E12.06821
G1 X192.858 Y142.147 E12.09236
G1 X193.134 Y142.796 E12.11581
G1 X193.487 Y143.751 E12.14968
G1 X193.65 Y144.267 E12.16767
G1 X193.929 Y145.248 E12.2016
G1 X194.134 Y146.123 E12.23149
G1 X194.22 Y146.578 E12.24689
G1 X194.329 Y147.243 E12.2693
G1 X194.406 Y147.849 E12.28962
G1 X194.473 Y148.584 E12.31417
G1 X194.506 Y149.091 E12.33107
G1 X194.528 Y149.841 E12.35602
G1 X194.525 Y150.353 E12.37305
G1 X194.507 Y150.917 E12.39182
G1 X194.483 Y151.323 E12.40535
G1 X194.43 Y151.923 E12.42538
G1 X194.357 Y152.55 E12.44638
G1 X194.264 Y153.179 E12.46752
G1 X194.189 Y153.601 E12.48178
G1 X194.079 Y154.14 E12.50008
G1 X193.951 Y154.692 E12.51892
G1 X193.662 Y155.707 E12.55402
G1 X193.347 Y156.616 E12.58602
G1 X193.096 Y157.282 E12.60969
G1 X192.774 Y158.045 E12.63724
G1 X192.478 Y158.659 E12.65991
G1 X192.213 Y159.173 E12.67914
G1 X191.666 Y160.112 E12.71529
G1 X191.188 Y160.844 E12.74436
G1 X190.752 Y161.462 E12.76952
G1 X190.28 Y162.083 E12.79546
G1 X189.661 Y162.825 E12.8276
G1 X189.327 Y163.19 E12.84406
G1 X188.961 Y163.57 E12.86161
G1 X188.592 Y163.935 E12.87887
G1 X188.18 Y164.325 E12.89774
G1 X187.757 Y164.696 E12.91645
G1 X187.37 Y165.018 E12.9332
G1 X185.348 Y166.749 E13.02172
G1 X183.452 Y168.468 E13.10685
G1 X181.64 Y170.206 E13.19035
G1 X179.858 Y172.016 E13.27484
G1 X178.134 Y173.868 E13.35899
G1 X176.477 Y175.754 E13.44249
G1 X174.847 Y177.716 E13.52733
G1 X173.302 Y179.688 E13.61065
G1 X171.802 Y181.719 E13.69463
G1 X170.348 Y183.808 E13.77928
G1 X168.974 Y185.905 E13.86267
G1 X167.924 Y187.617 E13.92947
G1 X167.438 Y188.38 E13.95955
G1 X166.909 Y189.134 E13.99019
G1 X166.561 Y189.563 E14.00856
G1 X166.313 Y189.853 E14.02125
G1 X165.685 Y190.526 E14.05187
G1 X165.001 Y191.142 E14.08248
G1 X164.551 Y191.493 E14.10147
G1 X164.196 Y191.755 E14.11614
G1 X163.433 Y192.269 E14.14674
G1 X162.27 Y192.884 E14.1905
G1 X161.945 Y193.031 E14.20236
G1 X161.091 Y193.374 E14.23297
G1 X160.074 Y193.675 E14.26825
G1 X159.612 Y193.787 E14.28406
G1 X158.709 Y193.964 E14.31466
G1 X157.515 Y194.077 E14.35455
G1 X156.909 Y194.093 E14.37471
G1 X143.769 Y194.1 E14.81175
G1 X142.952 Y194.09 E14.83893
G1 X142.298 Y194.061 E14.8607
G1 X142.046 Y194.042 E14.86911
G1 X140.744 Y193.862 E14.91282
G1 X140.447 Y193.802 E14.9229
G1 X139.553 Y193.581 E14.95353
G1 X138.836 Y193.342 E14.97867
G1 X138.563 Y193.24 E14.98836
G1 X137.715 Y192.88 E15.019
G1 X137.194 Y192.614 E15.03846
G1 X136.954 Y192.483 E15.04755
G1 X136.166 Y192.007 E15.07817
G1 X135.69 Y191.671 E15.09755
G1 X135.445 Y191.488 E15.10772
G1 X134.732 Y190.906 E15.13833
G1 X134.118 Y190.316 E15.16666
G1 X133.496 Y189.638 E15.19726
G1 X133.194 Y189.261 E15.21333
G1 X132.819 Y188.763 E15.23406
G1 X132.529 Y188.358 E15.25063
G1 X130.989 Y186.275 E15.33679
G1 X129.441 Y184.298 E15.4203
G1 X127.842 Y182.372 E15.50356
G1 X126.148 Y180.445 E15.5889
G1 X124.427 Y178.596 E15.67291
G1 X122.654 Y176.796 E15.75694
G1 X120.848 Y175.063 E15.84019
G1 X118.959 Y173.351 E15.92499
G1 X117.035 Y171.704 E16.00922
G1 X115.055 Y170.103 E16.09391
G1 X113.088 Y168.604 E16.17617
G1 X112.292 Y168.038 E16.20865
G1 X110.61 Y166.802 E16.27808
G1 X109.965 Y166.302 E16.30522
G1 X109.569 Y165.974 E16.32232
G1 X109.129 Y165.591 E16.34173
G1 X108.639 Y165.136 E16.36397
G1 X108.138 Y164.641 E16.38739
G1 X107.662 Y164.139 E16.4104
G1 X107.218 Y163.639 E16.43264
G1 X106.772 Y163.103 E16.45583
G1 X106.4 Y162.624 E16.476
G1 X106.064 Y162.166 E16.4949
G1 X105.726 Y161.679 E16.51461
G1 X105.401 Y161.182 E16.53436
G1 X105.132 Y160.744 E16.55146
G1 X104.768 Y160.118 E16.57554
G1 X104.482 Y159.588 E16.59558
G1 X104.273 Y159.172 E16.61106
G1 X104.024 Y158.629 E16.63093
G1 X103.773 Y158.046 E16.65204
G1 X103.538 Y157.459 E16.67307
G1 X103.386 Y157.043 E16.6878
G1 X103.184 Y156.452 E16.70857
G1 X102.986 Y155.809 E16.73095
G1 X102.83 Y155.236 E16.7507
G1 X102.707 Y154.736 E16.76783
G1 X102.603 Y154.265 E16.78387
G1 X102.491 Y153.676 E16.80381
G1 X102.39 Y153.053 E16.8248
G1 X102.316 Y152.511 E16.843
G1 X102.261 Y152.009 E16.8598
G1 X102.214 Y151.436 E16.87892
G1 X102.182 Y150.853 E16.89834
G1 X102.166 Y150.294 E16.91694
G1 X102.165 Y149.805 E16.9332
G0 F6000 X102.565 Y149.804
G1 F1200 X102.577 Y149.287 E16.9504
G1 X102.606 Y148.691 E16.97025
G1 X102.657 Y148.053 E16.99154
