;FLAVOR:Marlin
;TIME:2267
;Filament used: 1.40092m
;Layer height: 0.2
;MINX:118.394
;MINY:111.173
;MINZ:0.2
;MAXX:178.466
;MAXY:169.362
;MAXZ:7
;Generated with Cura_SteamEngine main
M140 S65
M105
M190 S65
M104 S212
M105
M109 S212
M82 ;absolute extrusion mode
M201 X500.00 Y500.00 Z100.00 E5000.00 ;Setup machine max acceleration
M203 X500.00 Y500.00 Z10.00 E50.00 ;Setup machine max feedrate
M204 P500.00 R1000.00 T500.00 ;Setup Print/Retract/Travel acceleration
M205 X8.00 Y8.00 Z0.40 E5.00 ;Setup Jerk
M220 S100 ;Reset Feedrate
M221 S100 ;Reset Flowrate

G28 ;Home
G29 ;Auto bed Level

G92 E0 ;Reset Extruder
G1 Z2.0 F3000 ;Move Z Axis up
G1 X10.1 Y20 Z0.28 F5000.0 ;Move to start position
G1 X10.1 Y200.0 Z0.28 F1500.0 E15 ;Draw the first line
G1 X10.4 Y200.0 Z0.28 F5000.0 ;Move to side a little
G1 X10.4 Y20 Z0.28 F1500.0 E30 ;Draw the second line
G92 E0 ;Reset Extruder
G1 Z2.0 F3000 ;Move Z Axis up

G92 E0
G92 E0
G1 F2700 E-5
;LAYER_COUNT:35
;LAYER:0
M107
G0 F6000 X123.733 Y119.134 Z0.2
G0 X118.394 Y132.107
;TYPE:SKIRT
G1 F2700 E0
G1 F1200 X118.408 Y131.248 E0.02857
G1 X118.445 Y130.606 E0.04996
G1 X118.5 Y130.013 E0.06977
G1 X118.577 Y129.397 E0.09042
G1 X118.676 Y128.788 E0.11094
G1 X118.786 Y128.221 E0.13015
G1 X118.937 Y127.564 E0.15257
G1 X119.089 Y127.001 E0.17197
G1 X119.188 Y126.666 E0.18359
G1 X119.474 Y125.811 E0.21357
G1 X119.677 Y125.276 E0.2326
G1 X119.809 Y124.952 E0.24424
G1 X119.982 Y124.559 E0.25852
G1 X120.281 Y123.927 E0.28178
G1 X120.452 Y123.588 E0.2944
G1 X120.751 Y123.038 E0.31523
G1 X121.068 Y122.503 E0.33591
G1 X121.385 Y122.005 E0.35554
G1 X121.736 Y121.491 E0.37625
G1 X121.941 Y121.208 E0.38787
G1 X122.32 Y120.715 E0.40855
G1 X122.575 Y120.403 E0.42195
G1 X123.032 Y119.875 E0.44518
G1 X123.271 Y119.612 E0.457
G1 X123.733 Y119.134 E0.47911
G1 X123.984 Y118.89 E0.49075
G1 X124.629 Y118.304 E0.51974
G1 X125.089 Y117.918 E0.53971
G1 X125.578 Y117.535 E0.56037
G1 X126.181 Y117.101 E0.58508
G1 X126.763 Y116.714 E0.60832
G1 X127.219 Y116.433 E0.62614
G1 X127.826 Y116.087 E0.64938
G1 X128.156 Y115.909 E0.66185
G1 X128.722 Y115.627 E0.68288
G1 X129.037 Y115.481 E0.69443
G1 X129.614 Y115.233 E0.71532
G1 X130.425 Y114.922 E0.74421
G1 X131.018 Y114.723 E0.76501
G1 X131.352 Y114.621 E0.77663
G1 X131.947 Y114.457 E0.79715
G1 X132.787 Y114.26 E0.82585
G1 X133.404 Y114.142 E0.84674
G1 X133.75 Y114.086 E0.8584
G1 X134.336 Y114.006 E0.87807
G1 X134.954 Y113.943 E0.89873
G1 X135.573 Y113.901 E0.91937
G1 X136.456 Y113.878 E0.94875
G1 X137.052 Y113.887 E0.96857
G1 X137.4 Y113.901 E0.98016
G1 X138.036 Y113.945 E1.00136
G1 X138.634 Y114.007 E1.02136
G1 X139.513 Y114.134 E1.0509
G1 X140.101 Y114.244 E1.07079
G1 X140.728 Y114.383 E1.09215
G1 X141.068 Y114.469 E1.10382
G1 X141.889 Y114.705 E1.13223
G1 X142.467 Y114.896 E1.15248
G1 X142.797 Y115.015 E1.16415
G1 X143.373 Y115.241 E1.18472
G1 X143.956 Y115.493 E1.20585
G1 X144.499 Y115.751 E1.22584
G1 X145.049 Y116.035 E1.24643
G1 X145.598 Y116.343 E1.26737
G1 X146.095 Y116.644 E1.2867
G1 X146.607 Y116.976 E1.30699
G1 X146.909 Y117.185 E1.31921
G1 X147.288 Y116.774 E1.3378
G1 X147.533 Y116.522 E1.34949
G1 X148.183 Y115.899 E1.37944
G1 X148.625 Y115.509 E1.39904
G1 X148.892 Y115.285 E1.41063
G1 X149.386 Y114.894 E1.43159
G1 X149.892 Y114.521 E1.4525
G1 X150.371 Y114.192 E1.47182
G1 X150.9 Y113.854 E1.4927
G1 X151.651 Y113.416 E1.52162
G1 X152.217 Y113.117 E1.54291
G1 X152.745 Y112.861 E1.56243
G1 X153.064 Y112.716 E1.57408
G1 X153.636 Y112.475 E1.59473
G1 X154.206 Y112.257 E1.61502
G1 X154.806 Y112.051 E1.63612
G1 X155.377 Y111.877 E1.65598
G1 X156.228 Y111.655 E1.68523
G1 X156.835 Y111.522 E1.7059
G1 X157.178 Y111.457 E1.71751
G1 X157.778 Y111.36 E1.73772
G1 X158.405 Y111.28 E1.75875
G1 X159.001 Y111.225 E1.77865
G1 X159.618 Y111.188 E1.79921
G1 X160.236 Y111.173 E1.81977
G1 X160.831 Y111.178 E1.83956
G1 X161.47 Y111.205 E1.86084
G1 X162.334 Y111.278 E1.88967
G1 X162.94 Y111.354 E1.90999
G1 X163.287 Y111.407 E1.92166
G1 X163.904 Y111.519 E1.94252
G1 X164.49 Y111.646 E1.96246
G1 X165.108 Y111.802 E1.98366
G1 X165.663 Y111.962 E2.00287
G1 X166.284 Y112.164 E2.02459
G1 X166.838 Y112.366 E2.04421
G1 X167.412 Y112.596 E2.06477
G1 X167.974 Y112.845 E2.08522
G1 X168.754 Y113.229 E2.11413
G1 X169.309 Y113.532 E2.13516
G1 X169.83 Y113.839 E2.15528
G1 X170.127 Y114.025 E2.16693
G1 X170.623 Y114.354 E2.18673
G1 X171.336 Y114.87 E2.216
G1 X171.859 Y115.283 E2.23817
G1 X172.393 Y115.743 E2.26161
G1 X172.903 Y116.213 E2.28468
G1 X173.21 Y116.512 E2.29893
G1 X173.617 Y116.936 E2.31848
G1 X174.121 Y117.503 E2.34371
G1 X174.565 Y118.043 E2.36696
G1 X175.017 Y118.637 E2.39179
G1 X175.243 Y118.959 E2.40487
G1 X175.63 Y119.541 E2.42812
G1 X175.911 Y119.997 E2.44593
G1 X176.257 Y120.604 E2.46917
G1 X176.435 Y120.934 E2.48164
G1 X176.717 Y121.5 E2.50268
G1 X176.863 Y121.815 E2.51422
G1 X177.111 Y122.392 E2.53511
G1 X177.424 Y123.21 E2.56424
G1 X177.616 Y123.781 E2.58428
G1 X177.795 Y124.38 E2.60507
G1 X177.947 Y124.959 E2.62498
G1 X178.027 Y125.299 E2.6366
G1 X178.152 Y125.907 E2.65724
G1 X178.258 Y126.528 E2.6782
G1 X178.338 Y127.114 E2.69787
G1 X178.401 Y127.735 E2.71863
G1 X178.443 Y128.347 E2.73903
G1 X178.466 Y129.234 E2.76854
G1 X178.463 Y129.582 E2.78012
G1 X178.443 Y130.177 E2.79992
G1 X178.376 Y131.057 E2.82927
G1 X178.303 Y131.681 E2.85017
G1 X178.211 Y132.287 E2.87056
G1 X178.104 Y132.863 E2.89004
G1 X177.961 Y133.511 E2.91211
G1 X177.775 Y134.207 E2.93607
G1 X177.571 Y134.876 E2.95934
G1 X177.442 Y135.261 E2.97284
G1 X177.225 Y135.845 E2.99356
G1 X176.991 Y136.416 E3.01409
G1 X176.85 Y136.734 E3.02566
G1 X176.602 Y137.259 E3.04497
G1 X176.314 Y137.818 E3.06588
G1 X175.873 Y138.593 E3.09554
G1 X175.69 Y138.89 E3.10715
G1 X175.363 Y139.391 E3.12704
G1 X174.847 Y140.116 E3.15664
G1 X174.391 Y140.696 E3.18118
G1 X173.94 Y141.228 E3.20438
G1 X173.67 Y141.53 E3.21785
G1 X173.243 Y141.977 E3.23841
G1 X172.813 Y142.398 E3.25843
G1 X172.557 Y142.636 E3.27005
G1 X172.248 Y142.908 E3.28374
G1 X171.712 Y143.356 E3.30698
G1 X171.415 Y143.592 E3.3196
G1 X170.901 Y143.974 E3.3409
G1 X170.415 Y144.31 E3.36055
G1 X169.882 Y144.652 E3.38161
G1 X169.36 Y144.962 E3.4018
G1 X168.826 Y145.256 E3.42208
G1 X168.514 Y145.417 E3.43376
G1 X168.007 Y145.662 E3.45248
G1 X168.236 Y146.418 E3.47876
G1 X168.453 Y147.277 E3.50822
G1 X168.527 Y147.619 E3.51986
G1 X168.638 Y148.208 E3.5398
G1 X168.736 Y148.843 E3.56117
G1 X168.806 Y149.435 E3.581
G1 X168.875 Y150.319 E3.61049
G1 X168.897 Y150.936 E3.63102
G1 X168.9 Y151.285 E3.64263
G1 X168.888 Y151.903 E3.66319
G1 X168.858 Y152.498 E3.683
G1 X168.776 Y153.38 E3.71247
G1 X168.693 Y153.996 E3.73314
G1 X168.598 Y154.561 E3.75219
G1 X168.463 Y155.226 E3.77476
G1 X168.322 Y155.807 E3.79465
G1 X168.163 Y156.383 E3.81452
G1 X167.971 Y156.993 E3.83579
G1 X167.781 Y157.534 E3.85486
G1 X167.542 Y158.15 E3.87684
G1 X167.405 Y158.473 E3.88851
G1 X167.042 Y159.257 E3.91725
G1 X166.77 Y159.788 E3.93709
G1 X166.462 Y160.341 E3.95814
G1 X166.154 Y160.853 E3.97801
G1 X165.808 Y161.385 E3.99912
G1 X165.475 Y161.862 E4.01847
G1 X165.099 Y162.366 E4.03938
G1 X164.709 Y162.851 E4.06008
G1 X164.328 Y163.294 E4.07952
G1 X164.095 Y163.552 E4.09108
G1 X163.643 Y164.023 E4.11279
G1 X163.004 Y164.635 E4.14222
G1 X162.562 Y165.025 E4.16183
G1 X162.295 Y165.249 E4.17342
G1 X161.801 Y165.64 E4.19437
G1 X161.295 Y166.013 E4.21528
G1 X160.816 Y166.342 E4.23461
G1 X160.287 Y166.68 E4.25549
G1 X159.536 Y167.118 E4.2844
G1 X159.228 Y167.284 E4.29604
G1 X158.675 Y167.563 E4.31664
G1 X157.873 Y167.926 E4.34592
G1 X157.307 Y168.155 E4.36623
G1 X156.714 Y168.372 E4.38723
G1 X156.381 Y168.483 E4.39891
G1 X155.81 Y168.657 E4.41876
G1 X154.959 Y168.879 E4.44801
G1 X154.352 Y169.012 E4.46868
G1 X154.009 Y169.077 E4.48029
G1 X153.409 Y169.174 E4.50051
G1 X152.782 Y169.254 E4.52153
G1 X152.186 Y169.309 E4.54144
G1 X151.569 Y169.346 E4.562
G1 X150.683 Y169.362 E4.59147
G1 X150.065 Y169.347 E4.61203
G1 X149.717 Y169.329 E4.62362
G1 X148.853 Y169.256 E4.65246
G1 X148.247 Y169.18 E4.67277
G1 X147.9 Y169.127 E4.68445
G1 X147.283 Y169.015 E4.7053
G1 X146.697 Y168.888 E4.72525
G1 X146.079 Y168.732 E4.74645
G1 X145.524 Y168.572 E4.76566
G1 X144.903 Y168.37 E4.78738
G1 X144.349 Y168.168 E4.80699
G1 X143.775 Y167.938 E4.82756
G1 X143.213 Y167.689 E4.848
G1 X142.433 Y167.305 E4.87692
G1 X141.88 Y167.004 E4.89786
G1 X141.577 Y166.828 E4.90951
G1 X141.056 Y166.506 E4.92989
G1 X140.558 Y166.176 E4.94976
G1 X139.848 Y165.661 E4.97893
G1 X139.329 Y165.252 E5.00091
G1 X138.794 Y164.791 E5.0244
G1 X138.284 Y164.321 E5.04746
G1 X137.977 Y164.022 E5.06172
G1 X137.57 Y163.598 E5.08126
G1 X137.147 Y163.127 E5.10232
G1 X136.761 Y162.667 E5.12229
G1 X136.378 Y162.178 E5.14295
G1 X135.949 Y161.583 E5.16735
G1 X135.561 Y161.001 E5.19061
G1 X135.275 Y160.537 E5.20874
G1 X134.929 Y159.93 E5.23198
G1 X134.737 Y159.573 E5.24546
G1 X134.58 Y159.261 E5.25708
G1 X134.325 Y158.719 E5.277
G1 X134.083 Y158.16 E5.29726
G1 X133.755 Y157.303 E5.32778
G1 X133.573 Y156.759 E5.34686
G1 X133.47 Y156.425 E5.35849
G1 X133.301 Y155.816 E5.37951
G1 X133.106 Y154.983 E5.40796
G1 X133.037 Y154.639 E5.41963
G1 X132.929 Y154.005 E5.44102
G1 X132.849 Y153.419 E5.46069
G1 X132.765 Y152.535 E5.49023
G1 X132.733 Y151.918 E5.51078
G1 X132.721 Y151.301 E5.5313
G1 X132.73 Y150.705 E5.55113
G1 X132.761 Y150.067 E5.57237
G1 X132.792 Y149.676 E5.58542
G1 X132.224 Y149.549 E5.60478
G1 X131.605 Y149.387 E5.62606
G1 X131.032 Y149.216 E5.64595
G1 X130.439 Y149.017 E5.66675
G1 X129.617 Y148.703 E5.69602
G1 X129.05 Y148.459 E5.71655
G1 X128.735 Y148.313 E5.7281
G1 X128.205 Y148.051 E5.74776
G1 X127.659 Y147.759 E5.76835
G1 X126.912 Y147.317 E5.79722
G1 X126.369 Y146.965 E5.81875
G1 X125.87 Y146.616 E5.839
G1 X125.387 Y146.254 E5.85907
G1 X124.904 Y145.865 E5.8797
G1 X124.461 Y145.484 E5.89914
G1 X124.203 Y145.251 E5.9107
G1 X123.732 Y144.799 E5.93241
G1 X123.313 Y144.368 E5.9524
G1 X122.887 Y143.9 E5.97345
G1 X122.495 Y143.437 E5.99363
G1 X122.123 Y142.968 E6.01354
G1 X121.609 Y142.262 E6.04258
G1 X121.256 Y141.733 E6.06374
G1 X120.925 Y141.195 E6.08475
G1 X120.638 Y140.692 E6.10401
G1 X120.357 Y140.162 E6.12396
G1 X120.072 Y139.577 E6.1456
G1 X119.782 Y138.911 E6.16976
G1 X119.526 Y138.261 E6.193
G1 X119.383 Y137.87 E6.20685
G1 X119.272 Y137.537 E6.21852
G1 X119.026 Y136.707 E6.24731
G1 X118.875 Y136.112 E6.26773
G1 X118.798 Y135.77 E6.27939
G1 X118.632 Y134.895 E6.30901
G1 X118.545 Y134.303 E6.32891
G1 X118.503 Y133.955 E6.34057
G1 X118.446 Y133.345 E6.36095
G1 X118.409 Y132.728 E6.38151
G1 X118.394 Y132.107 E6.40217
G0 F6000 X118.794 Y131.846
G1 F1200 X118.8 Y131.498 E6.41374
G1 X118.825 Y130.917 E6.43309
G1 X118.873 Y130.292 E6.45394
G1 X118.938 Y129.713 E6.47331
G1 X119.026 Y129.112 E6.49352
G1 X119.177 Y128.307 E6.52076
G1 X119.324 Y127.666 E6.54263
G1 X119.472 Y127.115 E6.56161
G1 X119.65 Y126.531 E6.58191
G1 X119.848 Y125.951 E6.6023
G1 X119.97 Y125.625 E6.61387
G1 X120.18 Y125.103 E6.63259
G1 X120.344 Y124.73 E6.64614
G1 X120.643 Y124.098 E6.66939
G1 X120.805 Y123.776 E6.68138
G1 X121.097 Y123.239 E6.70171
G1 X121.406 Y122.716 E6.72192
G1 X121.717 Y122.228 E6.74117
G1 X122.06 Y121.726 E6.76139
G1 X122.42 Y121.236 E6.78161
G1 X122.878 Y120.665 E6.80596
G1 X123.561 Y119.887 E6.84039
G1 X124.012 Y119.421 E6.86196
G1 X124.438 Y119.012 E6.8816
G1 X124.888 Y118.609 E6.90169
G1 X125.338 Y118.231 E6.92124
G1 X125.816 Y117.856 E6.94145
G1 X126.403 Y117.434 E6.96549
G1 X126.985 Y117.047 E6.98874
G1 X127.417 Y116.78 E7.00563
G1 X128.024 Y116.434 E7.02887
G1 X128.338 Y116.265 E7.04073
G1 X128.89 Y115.99 E7.06124
G1 X129.448 Y115.737 E7.08162
G1 X129.977 Y115.518 E7.10066
G1 X130.555 Y115.3 E7.12121
G1 X130.886 Y115.186 E7.13285
G1 X131.469 Y115.004 E7.15316
G1 X132.05 Y114.843 E7.17322
G1 X132.608 Y114.708 E7.19231
G1 X133.207 Y114.584 E7.21266
G1 X133.814 Y114.481 E7.23313
G1 X134.643 Y114.374 E7.26093
G1 X135.247 Y114.321 E7.2811
G1 X135.849 Y114.289 E7.30115
G1 X136.198 Y114.28 E7.31276
G1 X136.802 Y114.281 E7.33285
G1 X137.655 Y114.317 E7.36125
G1 X138.244 Y114.366 E7.38091
G1 X138.59 Y114.404 E7.39248
G1 X139.184 Y114.486 E7.41243
G1 X139.786 Y114.589 E7.43274
G1 X140.36 Y114.708 E7.45224
G1 X141.194 Y114.917 E7.48083
G1 X141.529 Y115.013 E7.49243
G1 X142.097 Y115.193 E7.51224
G1 X142.661 Y115.392 E7.53214
G1 X143.476 Y115.718 E7.56133
G1 X144.01 Y115.959 E7.58082
G1 X144.553 Y116.226 E7.60094
G1 X145.095 Y116.517 E7.6214
G1 X145.589 Y116.803 E7.64039
G1 X145.886 Y116.985 E7.65197
G1 X146.386 Y117.31 E7.67181
G1 X146.969 Y117.723 E7.69557
G1 X147.575 Y117.053 E7.72562
G1 X148.001 Y116.621 E7.7458
G1 X148.449 Y116.198 E7.76629
G1 X148.882 Y115.816 E7.7855
G1 X149.355 Y115.425 E7.80591
G1 X149.845 Y115.049 E7.82645
G1 X150.127 Y114.845 E7.83803
G1 X150.596 Y114.523 E7.85695
G1 X151.113 Y114.192 E7.87737
G1 X151.626 Y113.889 E7.89718
G1 X152.393 Y113.476 E7.92616
G1 X152.911 Y113.225 E7.9453
G1 X153.467 Y112.977 E7.96555
G1 X154.02 Y112.753 E7.98539
G1 X154.6 Y112.542 E8.00592
G1 X155.156 Y112.36 E8.02538
G1 X155.491 Y112.26 E8.03701
G1 X156.316 Y112.045 E8.06536
G1 X156.909 Y111.915 E8.08556
G1 X157.252 Y111.85 E8.09717
G1 X157.839 Y111.755 E8.11694
G1 X158.452 Y111.677 E8.1375
G1 X159.035 Y111.623 E8.15697
G1 X159.639 Y111.588 E8.17709
G1 X160.243 Y111.573 E8.19719
G1 X161.101 Y111.587 E8.22573
G1 X161.68 Y111.62 E8.24502
G1 X162.287 Y111.675 E8.26529
G1 X162.633 Y111.716 E8.27688
G1 X163.226 Y111.803 E8.29681
G1 X163.83 Y111.912 E8.31723
G1 X164.403 Y112.036 E8.33673
G1 X165.216 Y112.247 E8.36466
G1 X165.826 Y112.432 E8.38586
G1 X166.156 Y112.543 E8.39744
G1 X166.699 Y112.741 E8.41667
G1 X167.26 Y112.966 E8.43677
G1 X167.81 Y113.21 E8.45678
G1 X168.566 Y113.582 E8.48481
G1 X169.108 Y113.878 E8.50535
G1 X169.618 Y114.178 E8.52503
G1 X169.915 Y114.364 E8.53668
G1 X170.4 Y114.686 E8.55605
G1 X170.919 Y115.057 E8.57726
G1 X171.366 Y115.4 E8.596
G1 X171.873 Y115.818 E8.61786
G1 X172.122 Y116.037 E8.62889
G1 X172.632 Y116.507 E8.65196
G1 X172.923 Y116.791 E8.66548
G1 X173.322 Y117.206 E8.68463
G1 X173.812 Y117.757 E8.70915
G1 X174.256 Y118.297 E8.7324
G1 X174.696 Y118.875 E8.75657
G1 X174.91 Y119.181 E8.76898
G1 X175.297 Y119.763 E8.79223
G1 X175.564 Y120.195 E8.80912
G1 X175.91 Y120.802 E8.83236
G1 X176.079 Y121.116 E8.84422
G1 X176.354 Y121.668 E8.86473
G1 X176.607 Y122.226 E8.88511
G1 X176.829 Y122.762 E8.90441
G1 X177.046 Y123.34 E8.92494
G1 X177.159 Y123.669 E8.93651
G1 X177.336 Y124.233 E8.95617
G1 X177.5 Y124.822 E8.97651
G1 X177.637 Y125.391 E8.99597
G1 X177.76 Y125.985 E9.01615
G1 X177.863 Y126.592 E9.03663
G1 X177.97 Y127.423 E9.06449
G1 X178.023 Y128.023 E9.08453
G1 X178.055 Y128.627 E9.10464
G1 X178.064 Y128.977 E9.11629
G1 X178.063 Y129.579 E9.13631
G1 X178.027 Y130.44 E9.16497
G1 X177.979 Y131.014 E9.18413
G1 X177.941 Y131.363 E9.19581
G1 X177.817 Y132.216 E9.22448
G1 X177.712 Y132.781 E9.24359
G1 X177.573 Y133.413 E9.26511
G1 X177.392 Y134.09 E9.28842
G1 X177.188 Y134.759 E9.31168
G1 X177.066 Y135.125 E9.32452
G1 X176.854 Y135.695 E9.34474
G1 X176.625 Y136.254 E9.36484
G1 X176.484 Y136.572 E9.37641
G1 X176.241 Y137.086 E9.39532
G1 X175.96 Y137.632 E9.41574
G1 X175.66 Y138.168 E9.43617
G1 X175.349 Y138.68 E9.45609
G1 X175.029 Y139.17 E9.47556
G1 X174.68 Y139.668 E9.49578
G1 X174.317 Y140.149 E9.51583
G1 X174.086 Y140.437 E9.52811
G1 X173.635 Y140.969 E9.5513
G1 X173.379 Y141.256 E9.5641
G1 X172.961 Y141.693 E9.58421
G1 X172.541 Y142.105 E9.60378
G1 X171.992 Y142.601 E9.62839
G1 X171.456 Y143.049 E9.65162
G1 X171.174 Y143.273 E9.6636
G1 X170.672 Y143.646 E9.6844
G1 X170.196 Y143.975 E9.70364
G1 X169.676 Y144.309 E9.7242
G1 X169.165 Y144.613 E9.74398
G1 X168.861 Y144.783 E9.75556
G1 X168.33 Y145.061 E9.7755
G1 X167.804 Y145.316 E9.79494
G1 X167.513 Y145.447 E9.80555
G1 X167.686 Y145.969 E9.82384
G1 X167.923 Y146.792 E9.85233
G1 X168.062 Y147.362 E9.87184
G1 X168.136 Y147.704 E9.88348
G1 X168.29 Y148.555 E9.91224
G1 X168.37 Y149.133 E9.93165
G1 X168.433 Y149.732 E9.95168
G1 X168.475 Y150.336 E9.97182
G1 X168.497 Y150.939 E9.99189
G1 X168.498 Y151.542 E10.01195
G1 X168.489 Y151.892 E10.02359
G1 X168.459 Y152.475 E10.04301
