;FLAVOR:Marlin
;TIME:2644
;Filament used: 1.68093m
;Layer height: 0.2
;MINX:124.872
;MINY:126.903
;MINZ:0.24
;MAXX:176.217
;MAXY:175.011
;MAXZ:27.89
;Generated with Cura_SteamEngine main
M140 S50
M105
M190 S50
M104 S200
M105
M109 S200
M82 ;absolute extrusion mode
M201 X500.00 Y500.00 Z100.00 E5000.00 ;Setup machine max acceleration
M203 X500.00 Y500.00 Z10.00 E50.00 ;Setup machine max feedrate
M204 P500.00 R1000.00 T500.00 ;Setup Print/Retract/Travel acceleration
M205 X8.00 Y8.00 Z0.40 E5.00 ;Setup Jerk
M220 S100 ;Reset Feedrate
M221 S100 ;Reset Flowrate

G28 ;Home
G29 ;Auto bed Level

G92 E0 ;Reset Extruder
G1 Z2.0 F3000 ;Move Z Axis up
G1 X10.1 Y20 Z0.28 F5000.0 ;Move to start position
G1 X10.1 Y200.0 Z0.28 F1500.0 E15 ;Draw the first line
G1 X10.4 Y200.0 Z0.28 F5000.0 ;Move to side a little
G1 X10.4 Y20 Z0.28 F1500.0 E30 ;Draw the second line
G92 E0 ;Reset Extruder
G1 Z2.0 F3000 ;Move Z Axis up

G92 E0
G92 E0
G1 F2700 E-5
;LAYER_COUNT:134
;LAYER:-6
M107
G0 F9000 X129.678 Y137.466 Z0.24
;TYPE:SUPPORT-INTERFACE
G1 F2700 E0
G1 F1125 X128.957 Y138.369 E0.09224
G1 X128.403 Y139.165 E0.16965
G1 X127.824 Y140.164 E0.26182
G1 X127.389 Y141.039 E0.33983
G1 X126.981 Y142.042 E0.42626
G1 X126.684 Y142.96 E0.50328
G1 X126.401 Y144.085 E0.59588
G1 X126.21 Y145.005 E0.67088
G1 X126.065 Y145.842 E0.73869
G1 X125.951 Y146.821 E0.81737
G1 X125.905 Y147.875 E0.90158
G1 X125.938 Y148.954 E0.98775
G1 X126.046 Y150.001 E1.07177
G1 X126.222 Y150.988 E1.1518
G1 X126.429 Y151.825 E1.22063
G1 X126.606 Y152.607 E1.28463
G1 X126.948 Y153.71 E1.37681
G1 X127.269 Y154.54 E1.44785
G1 X127.384 Y154.809 E1.4712
G1 X127.374 Y154.83 E1.47306
G1 X127.631 Y155.494 E1.52989
G1 X127.775 Y156.173 E1.5853
G1 X127.83 Y156.83 E1.63793
G1 X127.84 Y157.371 E1.68112
G1 X127.939 Y158.513 E1.77262
G1 X128.132 Y159.646 E1.86436
G1 X128.332 Y160.469 E1.93197
G1 X128.498 Y161.033 E1.9789
G1 X128.68 Y161.723 E2.03586
G1 X129.184 Y163.383 E2.17434
G1 X129.511 Y164.244 E2.24786
G1 X129.95 Y165.204 E2.33213
G1 X130.496 Y166.198 E2.42265
G1 X131.089 Y167.102 E2.50896
G1 X131.739 Y167.953 E2.59443
G1 X132.499 Y168.805 E2.68557
G1 X132.699 Y169.014 E2.70866
G1 X133.225 Y169.532 E2.76759
G1 X133.89 Y170.124 E2.83866
G1 X134.766 Y170.802 E2.92709
G1 X135.013 Y170.981 E2.95144
G1 X136.088 Y171.682 E3.05388
G1 X137.033 Y172.195 E3.13971
G1 X138.085 Y172.666 E3.23172
G1 X139.006 Y173.003 E3.31
G1 X140.041 Y173.296 E3.39587
G1 X141.162 Y173.524 E3.48718
G1 X142.124 Y173.651 E3.56464
G1 X144.533 Y173.883 E3.75783
G1 X145.657 Y173.945 E3.84769
G1 X146.659 Y173.935 E3.92768
G1 X147.794 Y173.832 E4.01865
G1 X148.528 Y173.716 E4.07797
G1 X149.228 Y173.645 E4.13413
G1 X150.577 Y173.471 E4.2427
G1 X151.312 Y173.346 E4.30222
G1 X151.694 Y173.289 E4.33305
G1 X152.573 Y173.13 E4.40435
G1 X152.91 Y173.05 E4.432
G1 X153.425 Y172.945 E4.47396
G1 X154.572 Y172.771 E4.56656
G1 X155.352 Y172.631 E4.62982
G1 X156.331 Y172.399 E4.71013
G1 X157.412 Y172.05 E4.80081
G1 X158.299 Y171.696 E4.87704
G1 X159.357 Y171.23 E4.96933
G1 X160.721 Y170.714 E5.08574
G1 X162.09 Y170.133 E5.20445
G1 X163.475 Y169.477 E5.32678
G1 X163.49 Y169.483 E5.32807
G1 X164.458 Y168.97 E5.41552
G1 X164.772 Y168.812 E5.44358
G1 X165.096 Y168.622 E5.47356
G1 X165.459 Y168.424 E5.50657
G1 X166.135 Y168.081 E5.56708
G1 X166.924 Y167.624 E5.63986
G1 X167.813 Y167.026 E5.72539
G1 X168.188 Y166.737 E5.76318
G1 X168.735 Y166.346 E5.81685
G1 X169.533 Y165.732 E5.89723
G1 X170.269 Y165.073 E5.97608
G1 X171.072 Y164.251 E6.06781
G1 X171.793 Y163.376 E6.15832
G1 X172.378 Y162.558 E6.23859
G1 X172.959 Y161.602 E6.32789
G1 X173.441 Y160.697 E6.40974
G1 X173.875 Y159.739 E6.49369
G1 X174.187 Y158.943 E6.56194
G1 X174.524 Y157.888 E6.65035
G1 X174.77 Y156.866 E6.73426
G1 X174.861 Y156.421 E6.77051
G1 X174.998 Y155.623 E6.83515
G1 X175.123 Y154.478 E6.92709
G1 X175.14 Y153.916 E6.97197
G1 X175.155 Y153.405 E7.01278
G1 X175.11 Y152.352 E7.09691
G1 X174.97 Y151.207 E7.18899
G1 X174.784 Y150.242 E7.26744
G1 X174.507 Y149.207 E7.35296
G1 X174.404 Y148.872 E7.38094
G1 X174.307 Y148.508 E7.41101
G1 X174.075 Y147.526 E7.49156
G1 X173.76 Y146.511 E7.57639
G1 X173.432 Y145.67 E7.64845
G1 X172.945 Y144.637 E7.73961
G1 X172.409 Y143.697 E7.82599
G1 X171.997 Y142.871 E7.89967
G1 X171.779 Y142.199 E7.95606
G1 X171.659 Y141.544 E8.00922
G1 X171.491 Y140.424 E8.09962
G1 X171.226 Y139.29 E8.19258
G1 X170.941 Y138.365 E8.26984
G1 X170.576 Y137.43 E8.34996
G1 X170.091 Y136.401 E8.44077
G1 X169.607 Y135.548 E8.51906
G1 X169.009 Y134.651 E8.60511
G1 X168.313 Y133.752 E8.69587
G1 X167.569 Y132.933 E8.78419
G1 X167.051 Y132.404 E8.84329
G1 X166.179 Y131.586 E8.93873
G1 X165.359 Y130.928 E9.02265
G1 X164.469 Y130.315 E9.10892
G1 X163.481 Y129.745 E9.19997
G1 X162.675 Y129.348 E9.27169
G1 X161.594 Y128.906 E9.36491
G1 X160.603 Y128.588 E9.44799
G1 X159.474 Y128.319 E9.54064
G1 X158.584 Y128.171 E9.61266
G1 X157.46 Y128.063 E9.70279
G1 X156.195 Y127.967 E9.80406
G1 X155.152 Y127.975 E9.88732
G1 X153.806 Y128.034 E9.99487
G1 X153.292 Y128.072 E10.03601
G1 X152.511 Y128.116 E10.09845
G1 X151.868 Y128.186 E10.15008
G1 X151.395 Y128.225 E10.18796
G1 X150.857 Y128.316 E10.23152
G1 X150.5 Y128.364 E10.26027
G1 X149.994 Y128.413 E10.30085
G1 X149.019 Y128.584 E10.37987
G1 X148.633 Y128.661 E10.41129
G1 X148.292 Y128.719 E10.4389
G1 X147.61 Y128.867 E10.49461
G1 X147.172 Y128.941 E10.53007
G1 X146.107 Y129.2 E10.61756
G1 X142.258 Y130.3 E10.9371
G1 X141.147 Y130.67 E11.03058
G1 X140.762 Y130.825 E11.06371
G1 X140.151 Y131.054 E11.11579
G1 X138.765 Y131.625 E11.23545
G1 X137.339 Y132.267 E11.36028
G1 X136.423 Y132.719 E11.44182
G1 X135.089 Y133.436 E11.56271
G1 X133.452 Y134.366 E11.713
G1 X132.977 Y134.652 E11.75726
G1 X132.101 Y135.247 E11.84179
G1 X131.195 Y135.958 E11.93372
G1 X130.404 Y136.69 E12.01975
G1 X129.678 Y137.466 E12.10458
G0 F9000 X130.443 Y137.231
G1 F1125 X162.64 Y169.428 E15.73925
G0 F9000 X164.155 Y168.681
G1 F1125 X131.613 Y136.138 E19.41293
G0 F9000 X132.914 Y135.177
G1 F1125 X165.627 Y167.889 E23.1058
G0 F9000 X167.053 Y167.053
G1 F1125 X134.328 Y134.328 E26.80008
G0 F9000 X135.781 Y133.518
G1 F1125 X168.374 Y166.111 E30.47946
G0 F9000 X169.631 Y165.105
G1 F1125 X137.272 Y132.746 E34.13242
G0 F9000 X138.824 Y132.036
G1 F1125 X170.773 Y163.985 E37.7391
G0 F9000 X171.77 Y162.719
G1 F1125 X140.427 Y131.376 E41.27737
G0 F9000 X142.09 Y130.777
G1 F1125 X172.647 Y161.334 E44.72691
G0 F9000 X173.398 Y159.821
G1 F1125 X143.84 Y130.263 E48.06367
G0 F9000 X145.6 Y129.761
G1 F1125 X174.012 Y158.173 E51.27106
G0 F9000 X174.464 Y156.362
G1 F1125 X147.408 Y129.306 E54.32538
G0 F9000 X149.307 Y128.943
G1 F1125 X174.726 Y154.361 E57.19484
G0 F9000 X174.668 Y152.04
G1 F1125 X151.277 Y128.65 E59.83536
G0 F9000 X153.358 Y128.467
G1 F1125 X174.084 Y149.193 E62.17509
G0 F9000 X173.116 Y145.963
G1 F1125 X155.525 Y128.372 E64.16092
G0 F9000 X157.925 Y128.51
G1 F1125 X171.318 Y141.902 E65.67278
G0 F9000 X170.735 Y139.056
G1 F1125 X160.727 Y129.049 E66.80251
G1 F2700 E61.80251
G0 F9000 X161.85 Y127.87
G0 X163.119 Y128.379
G0 X164.585 Y129.164
G0 X166.077 Y130.139
G0 X165.475 Y131.534
G1 F2700 E66.80251
G1 F1125 X168.194 Y134.253 E67.10945
G1 F2700 E62.10945
G0 F9000 X169.35 Y133.348
G0 X170.519 Y134.999
G0 X171.488 Y136.857
G0 X171.975 Y138.105
G0 X175.098 Y147.223
G0 X175.843 Y150.095
G0 X176.159 Y152.162
G0 X176.217 Y153.513
G0 X176.077 Y155.594
G0 X175.578 Y158.064
G0 X174.854 Y160.154
G0 X173.884 Y162.131
G0 X172.644 Y164.015
G0 X171.788 Y165.041
G0 X170.31 Y166.467
G0 X167.671 Y168.412
G0 X164.564 Y170.136
G0 X161.644 Y171.475
G0 X161.076 Y170.127
G1 F2700 E67.10945
G1 F1125 X129.401 Y138.452 E70.6852
G0 F9000 X128.492 Y139.806
G1 F1125 X159.452 Y170.766 E74.18023
G0 F9000 X157.862 Y171.438
G1 F1125 X127.716 Y141.293 E77.58332
G0 F9000 X127.108 Y142.947
G1 F1125 X156.182 Y172.021 E80.86544
G0 F9000 X154.304 Y172.406
G1 F1125 X126.666 Y144.768 E83.98546
G0 F9000 X126.364 Y146.728
G1 F1125 X152.389 Y172.754 E86.92344
G0 F9000 X150.454 Y173.082
G1 F1125 X126.341 Y148.969 E89.64553
G0 F9000 X126.809 Y151.699
G1 F1125 X148.433 Y173.323 E92.08663
G0 F9000 X146.383 Y173.536
G1 F1125 X127.881 Y155.034 E94.1753
G0 F9000 X128.268 Y157.684
G1 F1125 X144.015 Y173.43 E95.9529
G0 F9000 X141.483 Y173.161
G1 F1125 X128.731 Y160.41 E97.3924
G0 F9000 X129.715 Y163.656
G1 F1125 X138.42 Y172.361 E98.37509
G1 F2700 E93.37509
G0 F300 X138.42 Y172.361 Z0.54
G0 F9000 X138.58 Y173.979
G0 X139.892 Y174.354
G0 X142.05 Y174.714
G0 X145.642 Y175.011
G0 X147.731 Y174.912
G0 X151.866 Y174.34
G0 X155.589 Y173.67
G0 X157.619 Y173.106
G0 X162.78 Y170.984
G0 X164.636 Y170.074
G0 X167.481 Y168.533
G0 X166.787 Y167.241
;TIME_ELAPSED:76.819734
;LAYER:-5
;TYPE:SUPPORT
G1 F2700 E98.37509
G1 F1125 X167.693 Y166.619 E98.48475
G1 X167.938 Y166.425 E98.51593
G1 X168.423 Y166.08 E98.57532
G1 X169.267 Y165.433 E98.68143
G1 X170.057 Y164.726 E98.78721
G1 X170.819 Y163.927 E98.89738
G1 X171.384 Y163.249 E98.98544
G1 X172.035 Y162.349 E99.09628
G1 X172.617 Y161.395 E99.20778
G1 X172.918 Y160.835 E99.27122
G1 X166.106 Y167.647 E100.23247
G1 X165.267 Y168.072 E100.32631
G1 X164.903 Y168.272 E100.36775
G1 X164.582 Y168.46 E100.40487
G1 X164.272 Y168.615 E100.43945
G1 X163.62 Y168.963 E100.5132
G1 X163.155 Y169.184 E100.56457
G1 X173.939 Y158.4 E102.08631
G1 X174.117 Y157.849 E102.14408
G1 X174.382 Y156.765 E102.25543
G1 X174.439 Y156.486 E102.28384
G1 X160.588 Y170.337 E104.23837
G1 X159.194 Y170.863 E104.38704
G1 X158.217 Y171.293 E104.49355
G1 X174.682 Y154.828 E106.81694
G1 X174.724 Y154.449 E106.85498
G1 X174.756 Y153.34 E106.96569
G1 X156.048 Y172.048 E109.60559
G1 X155.274 Y172.237 E109.68509
G1 X154.27 Y172.412 E109.78678
G1 X174.663 Y152.019 E112.66445
G1 X174.597 Y151.414 E112.72517
G1 X174.48 Y150.788 E112.78872
G1 X152.543 Y172.725 E115.88427
G1 X151.622 Y172.894 E115.9777
G1 X150.83 Y173.024 E116.05778
G1 X174.209 Y149.645 E119.35681
G1 X174.12 Y149.309 E119.39149
G1 X174.023 Y148.99 E119.42476
G1 X173.903 Y148.537 E119.47152
G1 X149.195 Y173.245 E122.95809
G1 X148.191 Y173.338 E123.0587
G1 X148.19 Y173.366 E123.06149
G1 X147.562 Y173.463 E123.1249
G1 X173.619 Y147.407 E126.80175
G1 X173.385 Y146.655 E126.88033
G1 X173.263 Y146.348 E126.9133
G1 X146.071 Y173.54 E130.75038
G1 X145.656 Y173.545 E130.79179
G1 X144.705 Y173.492 E130.88683
G1 X172.843 Y145.354 E134.85741
G1 X172.585 Y144.811 E134.91739
G1 X172.361 Y144.422 E134.96218
G1 X143.41 Y173.373 E139.04748
G1 X142.122 Y173.246 E139.17662
G1 X171.864 Y143.505 E143.37347
G1 X171.618 Y143.011 E143.42853
G1 X171.454 Y142.501 E143.48199
G1 X140.893 Y173.061 E147.79441
G1 X140.109 Y172.901 E147.87425
G1 X139.746 Y172.794 E147.91201
G1 X171.219 Y141.321 E152.35319
G1 X171.097 Y140.493 E152.4367
G1 X171.01 Y140.116 E152.4753
G1 X138.673 Y172.453 E157.0384
G1 X138.211 Y172.283 E157.08752
G1 X137.67 Y172.042 E157.14662
G1 X170.716 Y138.995 E161.80984
G1 X170.564 Y138.499 E161.8616
G1 X170.349 Y137.949 E161.92052
G1 X136.724 Y171.574 E166.66537
G1 X136.302 Y171.345 E166.71328
G1 X135.839 Y171.044 E166.76838
G1 X169.915 Y136.968 E171.57688
G1 X169.767 Y136.654 E171.61151
G1 X169.422 Y136.047 E171.68118
G1 X134.995 Y170.474 E176.5392
G1 X134.196 Y169.859 E176.63981
G1 X168.88 Y135.175 E181.53409
G1 X168.677 Y134.872 E181.57049
G1 X168.28 Y134.361 E181.63505
G1 X133.448 Y169.192 E186.55015
G1 X132.99 Y168.736 E186.61464
G1 X132.747 Y168.479 E186.64993
G1 X167.63 Y133.596 E191.5723
G1 X167.274 Y133.203 E191.62521
G1 X166.945 Y132.868 E191.67206
G1 X132.08 Y167.732 E196.59182
G1 X131.464 Y166.934 E196.69241
G1 X166.223 Y132.175 E201.59728
G1 X165.913 Y131.886 E201.63957
G1 X165.462 Y131.522 E201.6974
G1 X130.894 Y166.09 E206.57531
G1 X130.392 Y165.178 E206.67919
G1 X164.646 Y130.923 E211.51287
G1 X164.242 Y130.646 E211.56175
G1 X163.78 Y130.375 E211.61519
G1 X129.929 Y164.226 E216.39193
G1 X129.545 Y163.196 E216.50162
G1 X162.857 Y129.884 E221.2023
G1 X162.498 Y129.706 E221.24228
G1 X161.876 Y129.451 E221.30936
G1 X129.215 Y162.112 E225.91818
G1 X129.061 Y161.605 E225.97105
G1 X128.904 Y161.008 E226.03264
G1 X160.832 Y129.08 E230.53803
G1 X160.484 Y128.968 E230.57451
G1 X159.714 Y128.785 E230.65348
G1 X128.603 Y159.895 E235.0435
G1 X128.519 Y159.547 E235.07923
G1 X128.377 Y158.707 E235.16423
G1 X158.524 Y128.56 E239.4183
G1 X157.225 Y128.445 E239.54842
G1 X128.244 Y157.426 E243.63795
G1 X128.23 Y156.818 E243.69863
G1 X128.167 Y156.089 E243.77164
G1 X155.888 Y128.368 E247.68338
G1 X155.168 Y128.374 E247.75522
G1 X154.436 Y128.406 E247.82833
G1 X127.884 Y154.958 E251.5751
G1 X127.634 Y154.374 E251.63849
G1 X127.472 Y153.956 E251.68322
G1 X152.939 Y128.489 E255.27689
G1 X152.546 Y128.513 E255.31618
G1 X151.907 Y128.583 E255.38032
G1 X151.383 Y128.631 E255.43282
G1 X127.114 Y152.899 E258.85737
G1 X127.009 Y152.561 E258.89269
G1 X126.824 Y151.775 E258.97326
G1 X149.737 Y128.862 E262.20653
G1 X149.094 Y128.975 E262.27167
G1 X148.707 Y129.052 E262.31104
G1 X148.371 Y129.109 E262.34505
G1 X147.993 Y129.191 E262.38364
G1 X126.565 Y150.62 E265.40743
G1 X126.439 Y149.934 E265.47703
G1 X126.384 Y149.387 E265.53188
G1 X146.177 Y129.594 E268.32489
G1 X144.196 Y130.161 E268.53049
G1 X126.297 Y148.059 E271.05616
G1 X126.35 Y146.842 E271.17771
G1 X126.382 Y146.56 E271.20603
G1 X142.204 Y130.738 E273.43869
G1 X141.289 Y131.043 E273.53492
G1 X140.913 Y131.195 E273.57539
G1 X140.282 Y131.43 E273.64258
G1 X139.968 Y131.56 E273.67649
G1 X126.644 Y144.884 E275.55665
G1 X126.794 Y144.155 E275.63091
G1 X127.076 Y143.038 E275.74586
G1 X137.454 Y132.66 E277.21031
G1 X136.592 Y133.079 E277.30594
G1 X135.608 Y133.608 E277.41742
G1 X134.437 Y134.262 E277.55125
G1 X128.004 Y140.695 E278.45901
G1 X128.178 Y140.345 E278.49801
G1 X128.706 Y139.44 E278.60256
G1 X129.334 Y138.525 E278.71329
G1 X129.919 Y137.799 E278.80633
G1 X130.679 Y136.978 E278.91796
G1 X131.465 Y136.252 E279.02472
G1 X132.332 Y135.57 E279.13479
G1 X133.071 Y135.065 E279.2241
G1 X133.655 Y134.709 E279.29234
G1 F2700 E274.29234
G0 F300 X133.655 Y134.709 Z0.74
G0 F9000 X132.928 Y133.44
G0 X136.326 Y131.555
G0 X140.005 Y129.973
G0 X142.042 Y129.252
G0 X146.965 Y127.896
G0 X149.956 Y127.347
G0 X152.429 Y127.055
G0 X156.097 Y126.903
G0 X158.731 Y127.116
G0 X160.771 Y127.532
G0 X162.078 Y127.951
G0 X163.974 Y128.8
G0 X165.145 Y129.488
G0 X166.793 Y130.714
G0 X167.697 Y131.584
G0 X169.05 Y132.978
G0 X168.005 Y134.007
;TIME_ELAPSED:175.911412
;LAYER:-4
;TYPE:SUPPORT-INTERFACE
G1 F2700 E279.29234
G1 F1500 X167.274 Y133.203 E279.32848
G1 X166.77 Y132.689 E279.35243
G1 X165.913 Y131.886 E279.39149
G1 X165.474 Y131.533 E279.41023
G1 X168.203 Y134.261 E279.53857
G1 X168.677 Y134.872 E279.56429
G1 X169.178 Y135.618 E279.59417
G1 X169.423 Y136.048 E279.61063
G1 X163.709 Y130.333 E279.87943
G1 X163.428 Y130.169 E279.89025
G1 X162.534 Y129.725 E279.92345
G1 X170.04 Y137.231 E280.27651
G1 X170.201 Y137.571 E280.28902
G1 X170.449 Y138.205 E280.31166
G1 X161.559 Y129.315 E280.72982
G1 X160.724 Y129.046 E280.759
G1 X170.736 Y139.058 E281.22993
G1 X170.862 Y139.466 E281.24413
G1 X170.946 Y139.833 E281.25666
G1 X159.956 Y128.843 E281.77359
G1 X159.413 Y128.713 E281.79216
G1 X159.232 Y128.685 E281.79825
G1 X171.107 Y140.56 E282.35682
G1 X171.206 Y141.224 E282.37915
G1 X158.543 Y128.562 E282.97475
G1 X157.922 Y128.506 E282.99549
G1 X171.317 Y141.901 E283.62555
G1 X171.391 Y142.303 E283.63915
G1 X171.503 Y142.653 E283.65137
G1 X157.302 Y128.453 E284.31932
G1 X156.69 Y128.406 E284.33973
G1 X171.94 Y143.655 E285.05702
G1 X172.063 Y143.904 E285.06626
G1 X172.585 Y144.811 E285.10106
G1 X172.636 Y144.917 E285.10498
G1 X156.085 Y128.366 E285.88349
G1 X155.524 Y128.371 E285.90214
G1 X173.11 Y145.957 E286.72934
G1 X173.385 Y146.655 E286.75429
G1 X173.45 Y146.863 E286.76154
G1 X154.97 Y128.383 E287.63078
G1 X154.428 Y128.407 E287.64882
G1 X173.707 Y147.685 E288.55563
G1 X173.876 Y148.421 E288.58074
G1 X153.886 Y128.431 E289.52101
G1 X153.353 Y128.463 E289.53877
G1 X174.086 Y149.195 E290.51396
G1 X174.296 Y149.971 E290.5407
G1 X152.821 Y128.496 E291.55082
G1 X152.288 Y128.529 E291.56858
G1 X174.466 Y150.707 E292.61177
