;FLAVOR:Marlin
;TIME:2159
;Filament used: 1.42323m
;Layer height: 0.2
;MINX:105.671
;MINY:108.183
;MINZ:0.2
;MAXX:183.577
;MAXY:171.307
;MAXZ:6.8
;Generated with Cura_SteamEngine main
M140 S65
M105
M190 S65
M104 S212
M105
M109 S212
M82 ;absolute extrusion mode
M201 X500.00 Y500.00 Z100.00 E5000.00 ;Setup machine max acceleration
M203 X500.00 Y500.00 Z10.00 E50.00 ;Setup machine max feedrate
M204 P500.00 R1000.00 T500.00 ;Setup Print/Retract/Travel acceleration
M205 X8.00 Y8.00 Z0.40 E5.00 ;Setup Jerk
M220 S100 ;Reset Feedrate
M221 S100 ;Reset Flowrate

G28 ;Home
G29 ;Auto bed Level

G92 E0 ;Reset Extruder
G1 Z2.0 F3000 ;Move Z Axis up
G1 X10.1 Y20 Z0.28 F5000.0 ;Move to start position
G1 X10.1 Y200.0 Z0.28 F1500.0 E15 ;Draw the first line
G1 X10.4 Y200.0 Z0.28 F5000.0 ;Move to side a little
G1 X10.4 Y20 Z0.28 F1500.0 E30 ;Draw the second line
G92 E0 ;Reset Extruder
G1 Z2.0 F3000 ;Move Z Axis up

G92 E0
G92 E0
G1 F2700 E-5
;LAYER_COUNT:34
;LAYER:0
M107
G0 F6000 X112.838 Y127.762 Z0.2
G0 X105.671 Y143.398
;TYPE:SKIRT
G1 F2700 E0
G1 F1200 X105.686 Y142.826 E0.01903
G1 X105.729 Y142.098 E0.04329
G1 X105.801 Y141.322 E0.06921
G1 X105.882 Y140.663 E0.09129
G1 X106.002 Y139.927 E0.11609
G1 X106.083 Y139.498 E0.13061
G1 X106.221 Y138.867 E0.1521
G1 X106.383 Y138.22 E0.17428
G1 X106.503 Y137.781 E0.18942
G1 X106.693 Y137.163 E0.21092
G1 X106.885 Y136.59 E0.23102
G1 X107.143 Y135.898 E0.25559
G1 X107.376 Y135.332 E0.27594
G1 X107.626 Y134.771 E0.29637
G1 X107.86 Y134.282 E0.3144
G1 X108.092 Y133.824 E0.33148
G1 X108.337 Y133.368 E0.34869
G1 X108.671 Y132.789 E0.37093
G1 X108.995 Y132.265 E0.39142
G1 X109.454 Y131.571 E0.41909
G1 X109.739 Y131.17 E0.43545
G1 X110.127 Y130.649 E0.45706
G1 X110.605 Y130.051 E0.48252
G1 X110.977 Y129.618 E0.50151
G1 X111.383 Y129.171 E0.52159
G1 X111.714 Y128.826 E0.5375
G1 X112.195 Y128.355 E0.55989
G1 X112.838 Y127.762 E0.58898
G1 X113.423 Y127.258 E0.61466
G1 X113.833 Y126.93 E0.63213
G1 X114.21 Y126.642 E0.6479
G1 X114.631 Y126.334 E0.66525
G1 X115.191 Y125.951 E0.68782
G1 X115.72 Y125.612 E0.70872
G1 X116.344 Y125.24 E0.73288
G1 X116.997 Y124.88 E0.75768
G1 X117.682 Y124.533 E0.78322
G1 X118.245 Y124.272 E0.80386
G1 X118.897 Y123.989 E0.8275
G1 X119.646 Y123.698 E0.85423
G1 X120.499 Y123.407 E0.8842
G1 X121.082 Y123.233 E0.90444
G1 X121.991 Y122.995 E0.93569
G1 X123.067 Y122.744 E0.97244
G1 X123.742 Y122.598 E0.99541
G1 X126.22 Y122.001 E1.08019
G1 X128.627 Y121.346 E1.16315
G1 X131.052 Y120.612 E1.24742
G1 X133.441 Y119.815 E1.33119
G1 X135.801 Y118.953 E1.41475
G1 X138.173 Y118.01 E1.49965
G1 X140.45 Y117.028 E1.58213
G1 X142.757 Y115.956 E1.66674
G1 X144.985 Y114.842 E1.74959
G1 X147.202 Y113.655 E1.83323
G1 X149.404 Y112.394 E1.91763
G1 X151.028 Y111.404 E1.98089
G1 X151.713 Y111.004 E2.00727
G1 X152.416 Y110.619 E2.03393
G1 X153.021 Y110.312 E2.0565
G1 X153.426 Y110.122 E2.07137
G1 X153.955 Y109.887 E2.09063
G1 X154.6 Y109.625 E2.11378
G1 X155.202 Y109.402 E2.13513
G1 X155.893 Y109.172 E2.15936
G1 X156.604 Y108.961 E2.18402
G1 X157.29 Y108.781 E2.20761
G1 X158.243 Y108.573 E2.24006
G1 X158.862 Y108.462 E2.26097
G1 X159.237 Y108.404 E2.27359
G1 X159.737 Y108.339 E2.29036
G1 X160.339 Y108.274 E2.3105
G1 X160.959 Y108.224 E2.33119
G1 X161.409 Y108.201 E2.34618
G1 X162.1 Y108.183 E2.36917
G1 X162.499 Y108.183 E2.38244
G1 X163.197 Y108.202 E2.40566
G1 X163.624 Y108.224 E2.41988
G1 X164.21 Y108.269 E2.43943
G1 X164.818 Y108.333 E2.45976
G1 X165.691 Y108.455 E2.48908
G1 X166.435 Y108.589 E2.51423
G1 X167.244 Y108.764 E2.54176
G1 X167.903 Y108.933 E2.56438
G1 X168.467 Y109.097 E2.58392
G1 X168.98 Y109.26 E2.60182
G1 X169.543 Y109.454 E2.62163
G1 X170.137 Y109.678 E2.64274
G1 X170.629 Y109.88 E2.66043
G1 X171.189 Y110.129 E2.68082
G1 X171.694 Y110.37 E2.69943
G1 X172.177 Y110.615 E2.71744
G1 X173.006 Y111.073 E2.74894
G1 X173.419 Y111.319 E2.76493
G1 X173.94 Y111.65 E2.78546
G1 X174.462 Y112.002 E2.8064
G1 X174.957 Y112.356 E2.82664
G1 X175.457 Y112.735 E2.84751
G1 X175.987 Y113.163 E2.87017
G1 X176.367 Y113.49 E2.88684
G1 X176.811 Y113.894 E2.90681
G1 X177.164 Y114.233 E2.92309
G1 X177.626 Y114.704 E2.94503
G1 X178.218 Y115.345 E2.97405
G1 X178.683 Y115.882 E2.99768
G1 X179.251 Y116.6 E3.02813
G1 X179.556 Y117.013 E3.0452
G1 X179.918 Y117.531 E3.06622
G1 X180.503 Y118.447 E3.10237
G1 X180.835 Y119.011 E3.12414
G1 X181.051 Y119.405 E3.13908
G1 X181.364 Y120.013 E3.16183
G1 X181.559 Y120.424 E3.17696
G1 X181.832 Y121.029 E3.19903
G1 X182.074 Y121.607 E3.21988
G1 X182.265 Y122.104 E3.23758
G1 X182.504 Y122.795 E3.2619
G1 X182.71 Y123.46 E3.28506
G1 X182.88 Y124.071 E3.30615
G1 X183.013 Y124.608 E3.32455
G1 X183.121 Y125.089 E3.34095
G1 X183.198 Y125.473 E3.35397
G1 X183.289 Y125.989 E3.3714
G1 X183.382 Y126.603 E3.39206
G1 X183.458 Y127.224 E3.41287
G1 X183.529 Y128.092 E3.44183
G1 X183.563 Y128.767 E3.46431
G1 X183.577 Y129.415 E3.48587
G1 X183.573 Y129.876 E3.5012
G1 X183.546 Y130.555 E3.5238
G1 X183.492 Y131.321 E3.54934
G1 X183.422 Y132.003 E3.57215
G1 X183.348 Y132.557 E3.59074
G1 X183.269 Y133.061 E3.6077
G1 X183.204 Y133.42 E3.61984
G1 X183.047 Y134.172 E3.64539
G1 X182.935 Y134.639 E3.66136
G1 X182.798 Y135.158 E3.67922
G1 X182.62 Y135.762 E3.70016
G1 X182.422 Y136.369 E3.72139
G1 X182.177 Y137.043 E3.74525
G1 X181.961 Y137.583 E3.76459
G1 X181.756 Y138.064 E3.78198
G1 X181.516 Y138.59 E3.80121
G1 X181.257 Y139.119 E3.8208
G1 X181.072 Y139.473 E3.83409
G1 X180.687 Y140.161 E3.86031
G1 X180.424 Y140.596 E3.87722
G1 X180.066 Y141.159 E3.89941
G1 X179.735 Y141.651 E3.91913
G1 X179.23 Y142.358 E3.94803
G1 X178.177 Y143.777 E4.0068
G1 X176.717 Y145.863 E4.09148
G1 X175.344 Y147.942 E4.17435
G1 X173.995 Y150.121 E4.25959
G1 X172.756 Y152.252 E4.34158
G1 X171.548 Y154.471 E4.42561
G1 X170.395 Y156.743 E4.51035
G1 X169.289 Y159.078 E4.59628
G1 X168.971 Y159.724 E4.62023
G1 X168.638 Y160.346 E4.6437
G1 X168.136 Y161.204 E4.67676
G1 X167.759 Y161.793 E4.70002
G1 X167.388 Y162.334 E4.72184
G1 X166.971 Y162.902 E4.74527
G1 X166.578 Y163.403 E4.76645
G1 X166.124 Y163.945 E4.78997
G1 X165.618 Y164.511 E4.81522
G1 X165.039 Y165.112 E4.84297
G1 X164.553 Y165.579 E4.86539
G1 X164.23 Y165.877 E4.88001
G1 X163.773 Y166.273 E4.90012
G1 X163.357 Y166.617 E4.91808
G1 X162.812 Y167.04 E4.94102
G1 X162.304 Y167.409 E4.9619
G1 X161.827 Y167.737 E4.98116
G1 X161.377 Y168.029 E4.999
G1 X160.912 Y168.314 E5.01714
G1 X160.521 Y168.541 E5.03218
G1 X160.099 Y168.774 E5.04821
G1 X159.671 Y168.998 E5.06428
G1 X159.114 Y169.269 E5.08488
G1 X158.51 Y169.543 E5.10694
G1 X157.893 Y169.801 E5.12918
G1 X157.354 Y170.007 E5.14838
G1 X156.722 Y170.227 E5.17063
G1 X156.12 Y170.416 E5.19162
G1 X155.508 Y170.589 E5.21277
G1 X154.86 Y170.752 E5.235
G1 X154.113 Y170.912 E5.2604
G1 X153.481 Y171.025 E5.28176
G1 X152.839 Y171.121 E5.30335
G1 X152.231 Y171.193 E5.32371
G1 X151.602 Y171.249 E5.34472
G1 X151.041 Y171.283 E5.36341
G1 X150.567 Y171.301 E5.37919
G1 X149.84 Y171.307 E5.40337
G1 X149.019 Y171.283 E5.43068
G1 X148.457 Y171.249 E5.44941
G1 X147.825 Y171.192 E5.47052
G1 X147.218 Y171.12 E5.49085
G1 X146.566 Y171.023 E5.51277
G1 X145.827 Y170.89 E5.53775
G1 X144.878 Y170.676 E5.5701
G1 X144.072 Y170.456 E5.59789
G1 X143.482 Y170.277 E5.6184
G1 X142.775 Y170.034 E5.64326
G1 X141.444 Y169.538 E5.69051
G1 X140.804 Y169.288 E5.71336
G1 X138.403 Y168.42 E5.79827
G1 X136.015 Y167.634 E5.88189
G1 X133.617 Y166.919 E5.96512
G1 X131.214 Y166.275 E6.04786
G1 X128.719 Y165.682 E6.13316
G1 X126.276 Y165.175 E6.21614
G1 X123.217 Y164.635 E6.31946
G1 X122.607 Y164.517 E6.34013
G1 X121.995 Y164.378 E6.361
G1 X121.327 Y164.206 E6.38394
G1 X120.833 Y164.066 E6.40102
G1 X120.101 Y163.831 E6.42659
G1 X119.592 Y163.651 E6.44455
G1 X118.981 Y163.414 E6.46634
G1 X118.339 Y163.143 E6.48952
G1 X117.814 Y162.905 E6.50869
G1 X117.041 Y162.516 E6.53747
G1 X116.171 Y162.033 E6.57057
G1 X115.597 Y161.685 E6.5929
G1 X114.994 Y161.29 E6.61687
G1 X114.496 Y160.939 E6.63714
G1 X114.063 Y160.619 E6.65505
G1 X113.618 Y160.272 E6.67381
G1 X113.276 Y159.991 E6.68854
G1 X112.862 Y159.634 E6.70672
G1 X112.381 Y159.197 E6.72833
G1 X111.906 Y158.738 E6.7503
G1 X111.581 Y158.405 E6.76578
G1 X111.245 Y158.045 E6.78216
G1 X110.856 Y157.609 E6.80159
G1 X110.427 Y157.098 E6.82378
G1 X110.061 Y156.634 E6.84344
G1 X109.663 Y156.096 E6.8657
G1 X109.313 Y155.592 E6.88611
G1 X109.027 Y155.159 E6.90337
G1 X108.792 Y154.784 E6.91808
G1 X108.46 Y154.225 E6.93971
G1 X108.27 Y153.885 E6.95266
G1 X107.97 Y153.313 E6.97415
G1 X107.774 Y152.918 E6.98881
G1 X107.485 Y152.286 E7.01193
G1 X107.161 Y151.514 E7.03977
G1 X106.87 Y150.741 E7.06724
G1 X106.679 Y150.169 E7.0873
G1 X106.492 Y149.547 E7.1089
G1 X106.312 Y148.879 E7.13191
G1 X106.145 Y148.167 E7.15624
G1 X106.023 Y147.555 E7.17699
G1 X105.882 Y146.71 E7.20549
G1 X105.801 Y146.053 E7.2275
G1 X105.729 Y145.278 E7.25339
G1 X105.686 Y144.547 E7.27775
G1 X105.671 Y143.973 E7.29685
G1 X105.671 Y143.398 E7.31597
G0 F6000 X106.071 Y143.408
G1 F1200 X106.086 Y142.836 E7.335
G1 X106.127 Y142.135 E7.35836
G1 X106.199 Y141.359 E7.38428
G1 X106.278 Y140.724 E7.40556
G1 X106.395 Y140.001 E7.42992
G1 X106.476 Y139.572 E7.44444
G1 X106.609 Y138.964 E7.46514
G1 X106.771 Y138.317 E7.48732
G1 X106.887 Y137.894 E7.50191
G1 X107.072 Y137.29 E7.52292
G1 X107.264 Y136.717 E7.54302
G1 X107.513 Y136.05 E7.5667
G1 X107.746 Y135.484 E7.58706
G1 X107.986 Y134.943 E7.60675
G1 X108.22 Y134.454 E7.62478
G1 X108.444 Y134.013 E7.64123
G1 X108.689 Y133.557 E7.65844
G1 X109.011 Y132.999 E7.67987
G1 X109.335 Y132.475 E7.70036
G1 X109.785 Y131.795 E7.72748
G1 X110.06 Y131.409 E7.74325
G1 X110.448 Y130.888 E7.76485
G1 X110.909 Y130.311 E7.78942
G1 X111.281 Y129.878 E7.8084
G1 X111.672 Y129.447 E7.82776
G1 X112.003 Y129.102 E7.84366
G1 X112.466 Y128.649 E7.8652
G1 X113.109 Y128.056 E7.8943
G1 X113.673 Y127.571 E7.91904
G1 X114.083 Y127.243 E7.9365
G1 X114.446 Y126.965 E7.95171
G1 X114.867 Y126.657 E7.96906
G1 X115.407 Y126.287 E7.99083
G1 X115.936 Y125.948 E8.01173
G1 X116.537 Y125.59 E8.035
G1 X117.19 Y125.23 E8.0598
G1 X117.85 Y124.896 E8.0844
G1 X118.413 Y124.635 E8.10504
G1 X119.053 Y124.358 E8.12823
G1 X119.786 Y124.073 E8.15439
G1 X120.624 Y123.787 E8.18384
G1 X121.186 Y123.619 E8.20335
G1 X122.082 Y123.384 E8.23416
G1 X123.158 Y123.133 E8.27091
G1 X123.849 Y122.984 E8.29442
G1 X126.314 Y122.39 E8.37875
G1 X128.733 Y121.732 E8.46213
G1 X131.2 Y120.985 E8.54786
G1 X133.575 Y120.193 E8.63113
G1 X135.938 Y119.329 E8.71482
G1 X138.313 Y118.385 E8.79982
G1 X140.615 Y117.393 E8.88319
G1 X142.939 Y116.312 E8.96844
G1 X145.146 Y115.209 E9.0505
G1 X147.41 Y113.997 E9.13591
G1 X149.617 Y112.733 E9.22051
G1 X151.236 Y111.746 E9.28357
G1 X152.184 Y111.199 E9.31997
G1 X152.606 Y110.971 E9.33593
G1 X153.198 Y110.671 E9.358
G1 X154.118 Y110.253 E9.39161
G1 X154.739 Y110 E9.41391
G1 X155.341 Y109.777 E9.43527
G1 X156.007 Y109.555 E9.45862
G1 X156.718 Y109.344 E9.48328
G1 X157.379 Y109.171 E9.50601
G1 X158.316 Y108.966 E9.53791
G1 X158.923 Y108.858 E9.55842
G1 X159.78 Y108.736 E9.58721
G1 X160.382 Y108.671 E9.60735
G1 X160.979 Y108.624 E9.62726
G1 X161.429 Y108.601 E9.64225
G1 X162.107 Y108.583 E9.66481
G1 X162.492 Y108.583 E9.67761
G1 X163.176 Y108.601 E9.70037
G1 X163.603 Y108.623 E9.71459
G1 X164.168 Y108.667 E9.73344
G1 X164.776 Y108.731 E9.75378
G1 X165.63 Y108.85 E9.78246
G1 X166.361 Y108.982 E9.80716
G1 X167.157 Y109.154 E9.83425
G1 X167.792 Y109.318 E9.85606
G1 X168.356 Y109.482 E9.8756
G1 X168.849 Y109.638 E9.89279
G1 X169.412 Y109.832 E9.9126
G1 X169.985 Y110.048 E9.93297
G1 X170.477 Y110.25 E9.95066
G1 X171.016 Y110.49 E9.97028
G1 X171.521 Y110.731 E9.98889
G1 X171.987 Y110.967 E10.00627
G1 X172.408 Y111.194 E10.02217
G1 X173.214 Y111.663 E10.05319
G1 X173.716 Y111.981 E10.07296
G1 X174.238 Y112.333 E10.0939
G1 X174.715 Y112.675 E10.11342
G1 X175.215 Y113.054 E10.13428
G1 X175.726 Y113.466 E10.15612
G1 X176.106 Y113.793 E10.17279
G1 X176.534 Y114.183 E10.19205
G1 X176.887 Y114.522 E10.20833
G1 X177.332 Y114.975 E10.22945
G1 X177.924 Y115.616 E10.25847
G1 X178.372 Y116.134 E10.28125
G1 X178.929 Y116.838 E10.31111
G1 X179.234 Y117.251 E10.32818
G1 X179.588 Y117.757 E10.34872
G1 X180.164 Y118.66 E10.38434
G1 X180.484 Y119.203 E10.40531
G1 X180.7 Y119.597 E10.42025
G1 X181.006 Y120.193 E10.44254
G1 X181.195 Y120.588 E10.4571
G1 X181.468 Y121.193 E10.47918
G1 X181.7 Y121.75 E10.49924
G1 X181.891 Y122.247 E10.51695
G1 X182.122 Y122.913 E10.5404
G1 X182.328 Y123.578 E10.56355
G1 X182.492 Y124.167 E10.58389
G1 X182.625 Y124.704 E10.60229
G1 X182.806 Y125.552 E10.63113
G1 X182.893 Y126.049 E10.64791
G1 X182.986 Y126.663 E10.66857
G1 X183.06 Y127.261 E10.68861
G1 X183.13 Y128.112 E10.71701
G1 X183.164 Y128.787 E10.73949
G1 X183.177 Y129.412 E10.76028
G1 X183.173 Y129.873 E10.77561
G1 X183.147 Y130.526 E10.79735
G1 X183.093 Y131.292 E10.82289
G1 X183.026 Y131.95 E10.84489
G1 X182.952 Y132.504 E10.86348
G1 X182.875 Y132.99 E10.87984
G1 X182.737 Y133.715 E10.90439
G1 X182.548 Y134.537 E10.93244
G1 X182.411 Y135.056 E10.9503
G1 X182.239 Y135.638 E10.97048
G1 X182.041 Y136.245 E10.99172
G1 X181.806 Y136.895 E11.01471
G1 X181.59 Y137.435 E11.03405
G1 X181.392 Y137.898 E11.0508
G1 X181.152 Y138.424 E11.07003
G1 X180.902 Y138.934 E11.08892
G1 X180.717 Y139.288 E11.1022
G1 X180.34 Y139.962 E11.12789
G1 X180.087 Y140.382 E11.1442
G1 X179.729 Y140.945 E11.16639
G1 X179.41 Y141.418 E11.18536
G1 X178.786 Y142.288 E11.22097
G1 X177.844 Y143.555 E11.27349
G1 X176.388 Y145.635 E11.35793
G1 X174.997 Y147.742 E11.4419
G1 X173.674 Y149.878 E11.52547
G1 X172.402 Y152.066 E11.60965
G1 X171.18 Y154.31 E11.69463
G1 X170.043 Y156.552 E11.77824
G1 X168.926 Y158.91 E11.86503
G1 X168.613 Y159.545 E11.88857
G1 X168.287 Y160.155 E11.91158
G1 X167.792 Y160.999 E11.94412
G1 X167.429 Y161.567 E11.96654
G1 X167.058 Y162.108 E11.98836
G1 X166.656 Y162.655 E12.01094
G1 X166.263 Y163.156 E12.03212
G1 X165.825 Y163.679 E12.0548
G1 X165.319 Y164.245 E12.08006
G1 X164.761 Y164.823 E12.10678
G1 X164.275 Y165.29 E12.12919
G1 X163.964 Y165.577 E12.14327
G1 X163.518 Y165.965 E12.16293
G1 X163.102 Y166.309 E12.18089
G1 X162.577 Y166.716 E12.20298
G1 X162.069 Y167.085 E12.22386
G1 X161.609 Y167.401 E12.24243
G1 X161.159 Y167.693 E12.26027
G1 X160.711 Y167.968 E12.27775
G1 X159.913 Y168.42 E12.30825
G1 X159.485 Y168.644 E12.32432
G1 X158.949 Y168.905 E12.34415
G1 X158.345 Y169.179 E12.36621
G1 X157.75 Y169.427 E12.38765
G1 X157.211 Y169.633 E12.40684
G1 X156.602 Y169.845 E12.42829
G1 X156 Y170.034 E12.44928
G1 X155.411 Y170.201 E12.46964
G1 X154.763 Y170.364 E12.49186
G1 X154.043 Y170.519 E12.51636
G1 X153.411 Y170.632 E12.53771
G1 X152.792 Y170.723 E12.55852
G1 X152.184 Y170.795 E12.57888
G1 X151.578 Y170.85 E12.59912
G1 X151.017 Y170.884 E12.61782
G1 X150.56 Y170.901 E12.63303
G1 X149.847 Y170.907 E12.65674
G1 X149.043 Y170.884 E12.68349
G1 X148.481 Y170.85 E12.70222
G1 X147.872 Y170.795 E12.72256
G1 X147.265 Y170.723 E12.74289
G1 X146.636 Y170.629 E12.76404
G1 X145.897 Y170.496 E12.78902
G1 X144.984 Y170.29 E12.82015
G1 X144.178 Y170.07 E12.84793
G1 X143.608 Y169.897 E12.86775
G1 X142.915 Y169.659 E12.89212
G1 X141.584 Y169.163 E12.93936
G1 X140.919 Y168.903 E12.96311
G1 X138.558 Y168.05 E13.0466
G1 X136.149 Y167.257 E13.13096
G1 X133.72 Y166.533 E13.21526
G1 X131.272 Y165.877 E13.29955
G1 X128.855 Y165.302 E13.38218
G1 X126.33 Y164.778 E13.46796
G1 X123.287 Y164.241 E13.57073
G1 X122.685 Y164.124 E13.59113
G1 X122.095 Y163.99 E13.61125
G1 X121.427 Y163.818 E13.63419
G1 X120.95 Y163.684 E13.65067
G1 X120.234 Y163.454 E13.67569
G1 X119.725 Y163.274 E13.69364
G1 X119.137 Y163.046 E13.71462
G1 X118.495 Y162.775 E13.7378
G1 X117.989 Y162.545 E13.75628
G1 X117.233 Y162.165 E13.78442
G1 X116.376 Y161.689 E13.81703
G1 X115.813 Y161.348 E13.83892
G1 X115.221 Y160.961 E13.86245
G1 X114.734 Y160.618 E13.88226
G1 X114.301 Y160.298 E13.90017
G1 X113.872 Y159.963 E13.91827
G1 X113.53 Y159.682 E13.93299
G1 X113.131 Y159.338 E13.95051
G1 X112.65 Y158.901 E13.97213
G1 X112.192 Y158.459 E13.9933
G1 X111.867 Y158.126 E14.00877
G1 X111.543 Y157.779 E14.02456
G1 X111.154 Y157.343 E14.044
G1 X110.741 Y156.851 E14.06536
