;FLAVOR:Marlin
;TIME:1963
;Filament used: 1.18934m
;Layer height: 0.2
;MINX:126.821
;MINY:129.569
;MINZ:0.24
;MAXX:173.179
;MAXY:173.369
;MAXZ:21.89
;Generated with Cura_SteamEngine main
M140 S50
M105
M190 S50
M104 S200
M105
M109 S200
M82 ;absolute extrusion mode
M201 X500.00 Y500.00 Z100.00 E5000.00 ;Setup machine max acceleration
M203 X500.00 Y500.00 Z10.00 E50.00 ;Setup machine max feedrate
M204 P500.00 R1000.00 T500.00 ;Setup Print/Retract/Travel acceleration
M205 X8.00 Y8.00 Z0.40 E5.00 ;Setup Jerk
M220 S100 ;Reset Feedrate
M221 S100 ;Reset Flowrate

G28 ;Home
G29 ;Auto bed Level

G92 E0 ;Reset Extruder
G1 Z2.0 F3000 ;Move Z Axis up
G1 X10.1 Y20 Z0.28 F5000.0 ;Move to start position
G1 X10.1 Y200.0 Z0.28 F1500.0 E15 ;Draw the first line
G1 X10.4 Y200.0 Z0.28 F5000.0 ;Move to side a little
G1 X10.4 Y20 Z0.28 F1500.0 E30 ;Draw the second line
G92 E0 ;Reset Extruder
G1 Z2.0 F3000 ;Move Z Axis up

G92 E0
G92 E0
G1 F2700 E-5
;LAYER_COUNT:104
;LAYER:-6
M107
G0 F9000 X132.601 Y135.405 Z0.24
;TYPE:SUPPORT-INTERFACE
G1 F2700 E0
G1 F1125 X131.914 Y136.223 E0.08527
G1 X131.252 Y137.153 E0.17639
G1 X130.733 Y138 E0.25569
G1 X130.283 Y138.865 E0.33352
G1 X129.852 Y139.855 E0.41971
G1 X129.479 Y140.923 E0.51001
G1 X129.191 Y142.032 E0.60148
G1 X129.008 Y143 E0.68011
G1 X128.895 Y143.987 E0.75941
G1 X128.844 Y145.123 E0.85019
G1 X128.876 Y146.111 E0.92909
G1 X128.917 Y146.572 E0.96604
G1 X128.935 Y147.456 E1.03662
G1 X128.844 Y148.152 E1.09265
G1 X128.675 Y148.794 E1.14564
G1 X128.475 Y149.405 E1.19696
G1 X128.208 Y150.455 E1.28344
G1 X128.026 Y151.48 E1.36654
G1 X127.906 Y152.633 E1.45908
G1 X127.881 Y153.694 E1.5438
G1 X127.932 Y154.76 E1.62899
G1 X128.062 Y155.82 E1.71423
G1 X128.283 Y156.914 E1.80332
G1 X128.548 Y157.887 E1.88382
G1 X128.913 Y158.916 E1.97098
G1 X129.068 Y159.391 E2.01086
G1 X129.241 Y160.043 E2.06471
G1 X129.591 Y161.048 E2.14966
G1 X130.015 Y162.03 E2.23504
G1 X130.508 Y162.976 E2.32019
G1 X131.041 Y163.839 E2.40116
G1 X131.325 Y164.267 E2.44216
G1 X131.819 Y164.958 E2.50997
G1 X132.424 Y165.741 E2.58895
G1 X133.177 Y166.595 E2.67984
G1 X133.95 Y167.352 E2.7662
G1 X134.148 Y167.532 E2.78756
G1 X135.38 Y168.54 E2.91463
G1 X136.199 Y169.097 E2.99369
G1 X137.272 Y169.715 E3.09253
G1 X138.154 Y170.139 E3.17065
G1 X139.19 Y170.556 E3.2598
G1 X140.03 Y170.85 E3.33084
G1 X140.403 Y170.962 E3.36192
G1 X140.413 Y170.982 E3.36371
G1 X141.451 Y171.288 E3.45009
G1 X142.334 Y171.515 E3.52287
G1 X143.095 Y171.69 E3.5852
G1 X144.543 Y171.961 E3.70279
G1 X145.403 Y172.083 E3.77213
G1 X145.914 Y172.14 E3.81317
G1 X146.543 Y172.228 E3.86387
G1 X147.521 Y172.305 E3.94218
G1 X148.432 Y172.309 E4.0149
G1 X149.435 Y172.337 E4.095
G1 X150.078 Y172.341 E4.14633
G1 X150.545 Y172.335 E4.18361
G1 X151.391 Y172.303 E4.25119
G1 X151.88 Y172.298 E4.29022
G1 X152.949 Y172.263 E4.3756
G1 X153.767 Y172.181 E4.44122
G1 X154.507 Y172.14 E4.50038
G1 X155.487 Y172.039 E4.57903
G1 X156.517 Y171.857 E4.66252
G1 X157.575 Y171.59 E4.74962
G1 X158.161 Y171.395 E4.79892
G1 X159.759 Y170.947 E4.9314
G1 X160.679 Y170.634 E5.00897
G1 X161.595 Y170.244 E5.08844
G1 X162.044 Y170.021 E5.12846
G1 X162.613 Y169.76 E5.17843
G1 X163.455 Y169.337 E5.25365
G1 X164.442 Y168.751 E5.34527
G1 X165.246 Y168.188 E5.42362
G1 X166.131 Y167.471 E5.51454
G1 X166.969 Y166.672 E5.60697
G1 X167.632 Y165.944 E5.68557
G1 X167.829 Y165.712 E5.70986
G1 X168.276 Y165.155 E5.76687
G1 X168.917 Y164.252 E5.85527
G1 X169.136 Y163.914 E5.88742
G1 X169.475 Y163.361 E5.93919
G1 X169.961 Y162.464 E6.02063
G1 X170.43 Y161.411 E6.11264
G1 X170.759 Y160.507 E6.18944
G1 X171.067 Y159.41 E6.28039
G1 X171.207 Y158.741 E6.33495
G1 X171.361 Y158.179 E6.38146
G1 X171.656 Y157.189 E6.46392
G1 X171.882 Y156.169 E6.54732
G1 X172.044 Y155.025 E6.63955
G1 X172.115 Y154.044 E6.71806
G1 X172.115 Y153.534 E6.75877
G1 X172.115 Y152.968 E6.80395
G1 X172.023 Y151.833 E6.89485
G1 X171.892 Y150.944 E6.96658
G1 X171.647 Y149.826 E7.05794
G1 X171.323 Y148.76 E7.14688
G1 X171.114 Y147.896 E7.21784
G1 X171.053 Y147.218 E7.27218
G1 X171.078 Y146.505 E7.32912
G1 X171.12 Y146.033 E7.36695
G1 X171.146 Y145.065 E7.44425
G1 X171.099 Y144.014 E7.52823
G1 X170.983 Y143.028 E7.60748
G1 X170.788 Y141.995 E7.69139
G1 X170.496 Y140.88 E7.7834
G1 X170.169 Y139.948 E7.86224
G1 X169.72 Y138.9 E7.95325
G1 X169.223 Y137.95 E8.03883
G1 X168.659 Y137.044 E8.12402
G1 X168.025 Y136.175 E8.20989
G1 X167.287 Y135.311 E8.30059
G1 X166.649 Y134.66 E8.37335
G1 X165.861 Y133.958 E8.4576
G1 X164.969 Y133.269 E8.54757
G1 X164.117 Y132.715 E8.62869
G1 X163.123 Y132.162 E8.71949
G1 X162.08 Y131.687 E8.81097
G1 X161.117 Y131.329 E8.89298
G1 X160.12 Y131.002 E8.97674
G1 X159.289 Y130.751 E9.04603
G1 X156.976 Y130.146 E9.23688
G1 X155.934 Y129.955 E9.32144
G1 X155.346 Y129.89 E9.36866
G1 X154.944 Y129.832 E9.40109
G1 X154.562 Y129.79 E9.43176
G1 X154.035 Y129.713 E9.47428
G1 X153.067 Y129.608 E9.552
G1 X152.013 Y129.57 E9.63619
G1 X148.04 Y129.569 E9.95333
G1 X147.378 Y129.584 E10.00619
G1 X146.328 Y129.669 E10.09028
G1 X145.62 Y129.772 E10.14739
G1 X143.997 Y129.969 E10.27789
G1 X142.985 Y130.16 E10.3601
G1 X140.696 Y130.755 E10.54889
G1 X140.038 Y130.947 E10.60361
G1 X139.028 Y131.266 E10.68816
G1 X137.782 Y131.724 E10.79412
G1 X136.811 Y132.176 E10.87962
G1 X135.811 Y132.739 E10.97122
G1 X135.061 Y133.231 E11.04283
G1 X134.146 Y133.923 E11.1344
G1 X133.348 Y134.634 E11.21972
G1 X132.601 Y135.405 E11.30541
G0 F9000 X133.149 Y135.412
G1 F1125 X165.335 Y167.598 E14.93884
G0 F9000 X166.533 Y166.533
G1 F1125 X134.311 Y134.311 E18.57634
G0 F9000 X135.611 Y133.348
G1 F1125 X167.609 Y165.346 E22.18855
G0 F9000 X168.571 Y164.045
G1 F1125 X137.037 Y132.511 E25.74838
G0 F9000 X138.628 Y131.84
G1 F1125 X169.416 Y162.628 E29.224
G0 F9000 X170.126 Y161.075
G1 F1125 X140.33 Y131.279 E32.58763
G0 F9000 X142.114 Y130.8
G1 F1125 X170.667 Y159.353 E35.81094
G0 F9000 X171.13 Y157.553
G1 F1125 X143.96 Y130.384 E38.87807
G0 F9000 X145.965 Y130.126
G1 F1125 X171.543 Y155.704 E41.76553
G0 F9000 X171.714 Y153.612
G1 F1125 X148.071 Y129.969 E44.43456
G0 F9000 X150.335 Y129.97
G1 F1125 X171.517 Y151.152 E46.82576
G0 F9000 X170.758 Y148.131
G1 F1125 X152.619 Y129.992 E48.87345
G0 F9000 X155.156 Y130.266
G1 F1125 X170.723 Y145.833 E50.63079
G0 F9000 X170.632 Y143.479
G1 F1125 X157.974 Y130.821 E52.05973
G0 F9000 X161.204 Y131.789
G1 F1125 X169.95 Y140.535 E53.04706
G1 F2700 E48.04706
G0 F9000 X171.474 Y140.454
G0 X171.83 Y141.768
G0 X172.148 Y143.819
G0 X173.172 Y152.843
G0 X173.171 Y154.193
G0 X172.945 Y156.259
G0 X172.063 Y159.819
G0 X171.414 Y161.816
G0 X170.861 Y163.04
G0 X169.796 Y164.852
G0 X168.45 Y166.627
G0 X166.918 Y168.194
G0 X166.624 Y168.434
G0 X165.115 Y169.582
G0 X164.013 Y168.538
G1 F2700 E53.04706
G1 F1125 X132.11 Y136.635 E56.64854
G0 F9000 X131.205 Y137.993
G1 F1125 X162.552 Y169.34 E60.18726
G0 F9000 X161.007 Y170.058
G1 F1125 X130.444 Y139.495 E63.63748
G0 F9000 X129.833 Y141.146
G1 F1125 X159.335 Y170.649 E66.96798
G0 F9000 X157.587 Y171.163
G1 F1125 X129.416 Y142.992 E70.14816
G0 F9000 X129.244 Y145.084
G1 F1125 X155.746 Y171.585 E73.13988
G0 F9000 X153.684 Y171.786
G1 F1125 X129.331 Y147.433 E75.88906
G0 F9000 X128.93 Y149.294
G1 F1125 X151.535 Y171.899 E78.44091
G0 F9000 X149.304 Y171.932
G1 F1125 X128.494 Y151.122 E80.79012
G0 F9000 X128.292 Y153.182
G1 F1125 X146.969 Y171.859 E82.89854
G0 F9000 X144.367 Y171.52
G1 F1125 X128.436 Y155.588 E84.69702
G0 F9000 X129.247 Y158.662
G1 F1125 X141.456 Y170.871 E86.07528
G0 F9000 X137.889 Y169.567
G1 F1125 X130.589 Y162.268 E86.89931
G1 F2700 E81.89931
G0 F300 X130.589 Y162.268 Z0.54
G0 F9000 X129.109 Y162.594
G0 X128.564 Y161.339
G0 X127.253 Y157.187
G0 X126.996 Y155.882
G0 X126.821 Y153.821
G0 X126.855 Y152.45
G0 X127.974 Y142.738
G0 X128.43 Y140.723
G0 X128.869 Y139.446
G0 X129.76 Y137.562
G0 X130.467 Y136.412
G0 X131.735 Y134.78
G0 X132.003 Y134.503
G0 X133.379 Y133.181
G0 X134.41 Y134.223
;TIME_ELAPSED:68.065559
;LAYER:-5
;TYPE:SUPPORT
G1 F2700 E86.89931
G1 F1125 X133.625 Y134.922 E87.00419
G1 X132.894 Y135.676 E87.10898
G1 X132.226 Y136.474 E87.21282
G1 X134.693 Y134.006 E87.56101
G1 X135.218 Y133.604 E87.62699
G1 X136.016 Y133.081 E87.72219
G1 X136.971 Y132.542 E87.83161
G1 X137.939 Y132.091 E87.93817
G1 X138.071 Y132.042 E87.95222
G1 X130.285 Y139.828 E89.05091
G1 X129.889 Y140.956 E89.17019
G1 X129.635 Y141.893 E89.26706
G1 X140.216 Y131.312 E90.76015
G1 X140.796 Y131.14 E90.82052
G1 X142.157 Y130.785 E90.96086
G1 X129.345 Y143.597 E92.76877
G1 X129.282 Y144.171 E92.82639
G1 X129.249 Y145.107 E92.91984
G1 X143.979 Y130.377 E94.99841
G1 X145.593 Y130.177 E95.16068
G1 X129.315 Y146.455 E97.45769
G1 X129.336 Y147.474 E97.55938
G1 X129.28 Y147.905 E97.60275
G1 X147.196 Y129.988 E100.13096
G1 X148.048 Y129.969 E100.216
G1 X148.631 Y129.969 E100.27417
G1 X128.776 Y149.823 E103.07585
G1 X128.596 Y150.549 E103.15049
G1 X128.415 Y151.598 E103.2567
G1 X150.045 Y129.969 E106.30886
G1 X151.459 Y129.969 E106.44995
G1 X128.293 Y153.134 E109.71885
G1 X128.279 Y153.679 E109.77325
G1 X128.322 Y154.52 E109.85727
G1 X152.849 Y129.993 E113.3183
G1 X154.132 Y130.124 E113.44698
G1 X128.463 Y155.793 E117.06915
G1 X128.641 Y156.694 E117.16079
G1 X128.712 Y156.958 E117.18807
G1 X155.377 Y130.293 E120.95079
G1 X155.804 Y130.343 E120.99369
G1 X156.6 Y130.485 E121.07437
G1 X129.034 Y158.05 E124.96416
G1 X129.401 Y159.098 E125.07495
G1 X157.741 Y130.758 E129.07404
G1 X158.862 Y131.05 E129.18962
G1 X129.718 Y160.195 E133.30223
G1 X129.963 Y160.902 E133.37689
G1 X130.103 Y161.224 E133.41192
G1 X159.958 Y131.369 E137.62478
G1 X161.021 Y131.72 E137.73648
G1 X130.552 Y162.189 E142.03599
G1 X130.904 Y162.857 E142.11133
G1 X131.055 Y163.1 E142.13988
G1 X162.048 Y132.108 E146.51325
G1 X163.018 Y132.551 E146.61965
G1 X131.606 Y163.964 E151.0523
G1 X132.195 Y164.789 E151.15344
G1 X163.921 Y133.063 E155.63032
G1 X164.775 Y133.623 E155.73222
G1 X132.815 Y165.583 E160.24212
G1 X133.477 Y166.335 E160.34209
G1 X165.573 Y134.239 E164.87118
G1 X166.323 Y134.903 E164.97113
G1 X134.184 Y167.043 E169.50636
G1 X134.96 Y167.681 E169.6066
G1 X167.024 Y135.617 E174.13118
G1 X167.675 Y136.38 E174.23126
G1 X135.747 Y168.308 E178.73664
G1 X136.591 Y168.879 E178.83832
G1 X168.279 Y137.19 E183.30991
G1 X168.82 Y138.064 E183.41247
G1 X137.506 Y169.378 E187.83122
G1 X138.236 Y169.735 E187.9123
G1 X138.468 Y169.83 E187.93732
G1 X169.318 Y138.98 E192.29058
G1 X169.743 Y139.968 E192.3979
G1 X139.478 Y170.233 E196.66862
G1 X140.112 Y170.454 E196.73561
G1 X140.539 Y170.587 E196.78024
G1 X170.115 Y141.011 E200.95373
G1 X170.407 Y142.133 E201.06941
G1 X141.62 Y170.92 E205.13157
G1 X142.409 Y171.122 E205.21284
G1 X142.756 Y171.199 E205.2483
G1 X170.614 Y143.34 E209.17944
G1 X170.701 Y144.099 E209.25567
G1 X170.725 Y144.644 E209.3101
G1 X143.932 Y171.437 E213.09088
G1 X144.58 Y171.557 E213.15664
G1 X145.143 Y171.64 E213.21342
G1 X170.715 Y146.068 E216.82191
G1 X170.677 Y146.509 E216.86607
G1 X170.65 Y147.215 E216.93657
G1 X170.677 Y147.52 E216.96712
G1 X146.431 Y171.766 E220.3885
G1 X146.431 Y171.817 E220.39358
G1 X147.696 Y171.915 E220.52018
G1 X170.891 Y148.721 E223.79318
G1 X171.218 Y149.807 E223.90635
G1 X149.099 Y171.926 E227.02758
G1 X150.072 Y171.94 E227.12467
G1 X150.506 Y171.934 E227.16798
G1 X171.484 Y150.955 E230.12827
G1 X171.623 Y151.861 E230.21973
G1 X171.65 Y152.204 E230.25406
G1 X151.96 Y171.894 E233.03254
G1 X152.913 Y171.864 E233.12767
G1 X153.459 Y171.809 E233.18243
G1 X171.713 Y153.555 E235.75827
G1 X171.714 Y154.032 E235.80586
G1 X171.633 Y155.049 E235.90766
G1 X154.994 Y171.688 E238.2556
G1 X155.429 Y171.643 E238.29924
G1 X156.676 Y171.42 E238.42564
G1 X171.336 Y156.76 E240.49432
G1 X171.237 Y157.194 E240.53874
G1 X170.841 Y158.513 E240.67615
G1 X170.8 Y158.711 E240.69633
G1 X158.674 Y170.836 E242.40737
G1 X159.047 Y170.727 E242.44614
G1 X159.516 Y170.602 E242.49457
G1 X160.734 Y170.191 E242.62284
G1 X170.281 Y160.644 E243.97002
G1 X170.051 Y161.274 E244.03694
G1 X169.628 Y162.226 E244.14089
G1 X169.125 Y163.164 E244.24709
G1 X168.762 Y163.757 E244.31647
G1 X168.58 Y164.035 E244.34962
G1 X167.966 Y164.901 E244.45555
G1 X167.522 Y165.455 E244.52639
G1 X167.338 Y165.67 E244.55462
G1 X166.622 Y166.457 E244.66079
G1 X165.818 Y167.21 E244.7707
G1 X165.011 Y167.865 E244.87441
G1 X164.223 Y168.419 E244.97052
G0 F9000 X163.482 Y168.857
G1 F1125 X169.046 Y163.293 E245.75566
G1 F2700 E240.75566
G0 F300 X169.046 Y163.293 Z0.74
G0 F9000 X170.401 Y163.887
G0 X171.336 Y162.005
G0 X171.801 Y160.74
G0 X172.909 Y156.459
G0 X173.103 Y155.128
G0 X173.179 Y153.038
G0 X173.08 Y151.702
G0 X172.009 Y142.699
G0 X171.542 Y140.671
G0 X171.096 Y139.395
G0 X170.205 Y137.53
G0 X169.479 Y136.362
G0 X168.191 Y134.721
G0 X167.256 Y133.768
G0 X165.663 Y132.46
G0 X164.649 Y133.537
;TIME_ELAPSED:155.333296
;LAYER:-4
;TYPE:SUPPORT-INTERFACE
G1 F2700 E245.75566
G1 F1500 X168.164 Y137.052 E245.921
G1 X167.709 Y136.418 E245.94695
G1 X167.003 Y135.591 E245.98312
G1 X166.363 Y134.94 E246.01348
G1 X165.6 Y134.261 E246.04745
G1 X164.729 Y133.588 E246.08406
G1 X163.904 Y133.053 E246.11677
G1 X163.221 Y132.674 E246.14275
G1 X169.072 Y138.525 E246.41796
G1 X169.351 Y139.056 E246.43791
G1 X169.588 Y139.607 E246.45786
G1 X162.123 Y132.141 E246.80901
G1 X161.206 Y131.79 E246.84167
G1 X169.95 Y140.535 E247.25299
G1 X170.111 Y140.994 E247.26916
G1 X170.207 Y141.357 E247.28165
G1 X160.348 Y131.498 E247.74539
G1 X159.994 Y131.381 E247.75779
G1 X159.522 Y131.238 E247.77419
G1 X170.405 Y142.121 E248.2861
G1 X170.536 Y142.817 E248.30965
G1 X158.737 Y131.019 E248.86462
G1 X157.971 Y130.818 E248.89096
G1 X170.631 Y143.478 E249.48645
G1 X170.701 Y144.114 E249.50773
G1 X157.206 Y130.618 E250.14251
G1 X156.905 Y130.54 E250.15286
G1 X156.486 Y130.465 E250.16701
G1 X170.729 Y144.707 E250.83694
G1 X170.742 Y145.002 E250.84676
G1 X170.736 Y145.28 E250.85601
G1 X155.798 Y130.342 E251.55864
G1 X155.158 Y130.268 E251.58007
G1 X170.734 Y145.844 E252.31272
G1 X170.689 Y146.365 E252.33011
G1 X154.511 Y130.186 E253.0911
G1 X153.848 Y130.089 E253.11339
G1 X170.662 Y146.903 E253.90426
G1 X170.65 Y147.215 E253.91465
G1 X170.674 Y147.481 E253.92353
G1 X153.225 Y130.031 E254.7443
G1 X152.964 Y130.005 E254.75303
G1 X152.619 Y129.992 E254.76451
G1 X170.759 Y148.132 E255.61776
G1 X170.94 Y148.878 E255.64329
G1 X152.032 Y129.971 E256.53264
G1 X151.465 Y129.969 E256.5515
G1 X171.183 Y149.687 E257.47898
G1 X171.28 Y150.01 E257.49019
G1 X171.377 Y150.447 E257.50508
G1 X150.899 Y129.969 E258.4683
G1 X150.333 Y129.969 E258.48713
G1 X171.515 Y151.15 E259.48344
G1 X171.616 Y151.817 E259.50588
G1 X149.768 Y129.969 E260.53354
G1 X149.202 Y129.969 E260.55237
G1 X171.669 Y152.436 E261.60915
G1 X171.714 Y153.046 E261.62949
G1 X148.636 Y129.969 E262.71498
G1 X148.07 Y129.969 E262.73381
G1 X171.714 Y153.612 E263.84593
G1 X171.714 Y154.178 E263.86475
G1 X147.511 Y129.974 E265.00321
G1 X146.987 Y130.017 E265.0207
G1 X171.662 Y154.692 E266.18133
G1 X171.616 Y155.212 E266.1987
G1 X146.457 Y130.052 E267.38212
G1 X145.964 Y130.125 E267.3987
G1 X171.542 Y155.703 E268.60181
G1 X171.467 Y156.194 E268.61833
G1 X145.466 Y130.193 E269.84134
G1 X144.962 Y130.254 E269.85822
G1 X171.362 Y156.654 E271.1
G1 X171.257 Y157.114 E271.11569
G1 X144.457 Y130.315 E272.37626
G1 X143.952 Y130.376 E272.39318
G1 X171.13 Y157.553 E273.67152
G1 X170.999 Y157.988 E273.68663
G1 X143.482 Y130.471 E274.98095
G1 X143.01 Y130.565 E274.99695
G1 X170.861 Y158.416 E276.30698
G1 X170.765 Y158.886 E276.32294
G1 X142.561 Y130.681 E277.64959
G1 X142.112 Y130.798 E277.66502
G1 X170.667 Y159.354 E279.00818
G1 X170.543 Y159.795 E279.02342
G1 X141.663 Y130.915 E280.38185
G1 X141.214 Y131.031 E280.39727
G1 X170.427 Y160.245 E281.77138
G1 X170.276 Y160.66 E281.78607
G1 X140.765 Y131.149 E283.17418
G1 X140.33 Y131.279 E283.18928
G1 X170.124 Y161.073 E284.5907
G1 X169.962 Y161.477 E284.60518
G1 X139.896 Y131.411 E286.01939
G1 X139.466 Y131.546 E286.03438
G1 X169.788 Y161.868 E287.46063
G1 X169.612 Y162.258 E287.47486
G1 X139.041 Y131.687 E288.91283
G1 X138.627 Y131.839 E288.9275
G1 X169.415 Y162.626 E290.37565
G1 X169.217 Y162.995 E290.38958
