;FLAVOR:Marlin
;TIME:4597
;Filament used: 3.04959m
;Layer height: 0.2
;MINX:119.083
;MINY:115.691
;MINZ:0.24
;MAXX:180.916
;MAXY:184.309
;MAXZ:8.09
;Generated with Cura_SteamEngine main
M140 S65
M105
M190 S65
M104 S212
M105
M109 S212
M82 ;absolute extrusion mode
M201 X500.00 Y500.00 Z100.00 E5000.00 ;Setup machine max acceleration
M203 X500.00 Y500.00 Z10.00 E50.00 ;Setup machine max feedrate
M204 P500.00 R1000.00 T500.00 ;Setup Print/Retract/Travel acceleration
M205 X8.00 Y8.00 Z0.40 E5.00 ;Setup Jerk
M220 S100 ;Reset Feedrate
M221 S100 ;Reset Flowrate

G28 ;Home
G29 ;Auto bed Level

G92 E0 ;Reset Extruder
G1 Z2.0 F3000 ;Move Z Axis up
G1 X10.1 Y20 Z0.28 F5000.0 ;Move to start position
G1 X10.1 Y200.0 Z0.28 F1500.0 E15 ;Draw the first line
G1 X10.4 Y200.0 Z0.28 F5000.0 ;Move to side a little
G1 X10.4 Y20 Z0.28 F1500.0 E30 ;Draw the second line
G92 E0 ;Reset Extruder
G1 Z2.0 F3000 ;Move Z Axis up

G92 E0
G92 E0
G1 F2700 E-5
;LAYER_COUNT:35
;LAYER:-6
M107
G0 F9000 X124.947 Y122.891 Z0.24
;TYPE:SUPPORT-INTERFACE
G1 F2700 E0
G1 F1125 X124.281 Y123.675 E0.08211
G1 X124.046 Y123.975 E0.11253
G1 X123.437 Y124.808 E0.1949
G1 X123.187 Y125.176 E0.23042
G1 X122.803 Y125.783 E0.28775
G1 X122.338 Y126.616 E0.3639
G1 X122.092 Y127.092 E0.40667
G1 X121.774 Y127.762 E0.46587
G1 X121.395 Y128.678 E0.54501
G1 X121.249 Y129.076 E0.57885
G1 X120.927 Y130.069 E0.66217
G1 X120.832 Y130.394 E0.6892
G1 X120.539 Y131.608 E0.78889
G1 X120.491 Y131.854 E0.8089
G1 X120.32 Y132.918 E0.89492
G1 X120.274 Y133.28 E0.92405
G1 X120.207 Y133.953 E0.97804
G1 X120.16 Y135.115 E1.07087
G1 X120.159 Y139.076 E1.38705
G1 X120.172 Y139.652 E1.43304
G1 X120.255 Y140.725 E1.51895
G1 X120.309 Y141.2 E1.55711
G1 X120.471 Y142.23 E1.64034
G1 X120.539 Y142.586 E1.66927
G1 X120.72 Y143.395 E1.73545
G1 X120.978 Y144.3 E1.81057
G1 X121.124 Y144.76 E1.84909
G1 X121.541 Y145.891 E1.94531
G1 X121.533 Y145.909 E1.94689
G1 X121.755 Y146.569 E2.00247
G1 X121.876 Y147.258 E2.05831
G1 X121.905 Y147.91 E2.11041
G1 X121.904 Y152.08 E2.44328
G1 X121.859 Y152.836 E2.50373
G1 X121.732 Y153.499 E2.55762
G1 X121.502 Y154.182 E2.61514
G1 X121.141 Y155.156 E2.69806
G1 X121.011 Y155.554 E2.73148
G1 X120.687 Y156.704 E2.82686
G1 X120.614 Y157.012 E2.85212
G1 X120.413 Y158.02 E2.93417
G1 X120.368 Y158.291 E2.9561
G1 X120.216 Y159.553 E3.05756
G1 X120.192 Y159.874 E3.08326
G1 X120.15 Y160.941 E3.1685
G1 X120.148 Y164.878 E3.48277
G1 X120.16 Y165.457 E3.52899
G1 X120.258 Y166.678 E3.62677
G1 X120.31 Y167.11 E3.66151
G1 X120.404 Y167.75 E3.71314
G1 X120.602 Y168.736 E3.79342
G1 X120.684 Y169.076 E3.82134
G1 X121.016 Y170.267 E3.92003
G1 X121.306 Y171.124 E3.99225
G1 X121.769 Y172.245 E4.08907
G1 X121.934 Y172.604 E4.12061
G1 X122.244 Y173.238 E4.17694
G1 X122.713 Y174.074 E4.25346
G1 X122.995 Y174.541 E4.29701
G1 X123.421 Y175.195 E4.35931
G1 X124.033 Y176.026 E4.44169
G1 X124.277 Y176.336 E4.47318
G1 X124.681 Y176.821 E4.52357
G1 X125.428 Y177.632 E4.61158
G1 X125.668 Y177.875 E4.63885
G1 X126.16 Y178.348 E4.69333
G1 X127.004 Y179.073 E4.78214
G1 X127.293 Y179.304 E4.81168
G1 X128.322 Y180.052 E4.91322
G1 X128.585 Y180.225 E4.93835
G1 X129.501 Y180.786 E5.02409
G1 X129.745 Y180.924 E5.04647
G1 X130.886 Y181.505 E5.14868
G1 X131.17 Y181.632 E5.17351
G1 X132.202 Y182.057 E5.2626
G1 X132.481 Y182.158 E5.28629
G1 X133.472 Y182.481 E5.36949
G1 X133.922 Y182.61 E5.40686
G1 X134.563 Y182.774 E5.45967
G1 X135.61 Y182.981 E5.54487
G1 X136.005 Y183.042 E5.57677
G1 X137.053 Y183.168 E5.66103
G1 X137.348 Y183.194 E5.68467
G1 X138.543 Y183.245 E5.78015
G1 X138.934 Y183.245 E5.81136
G1 X140.131 Y183.194 E5.90699
G1 X140.415 Y183.17 E5.92975
G1 X141.425 Y183.052 E6.01092
G1 X141.805 Y182.994 E6.0416
G1 X142.469 Y182.875 E6.09545
G1 X143.521 Y182.622 E6.18182
G1 X144 Y182.489 E6.2215
G1 X144.701 Y182.27 E6.28012
G1 X145.623 Y181.926 E6.35868
G1 X146.02 Y181.763 E6.39294
G1 X146.984 Y181.321 E6.47759
G1 X147.383 Y181.114 E6.51347
G1 X148.009 Y180.819 E6.56871
G1 X148.65 Y180.609 E6.62255
G1 X149.312 Y180.482 E6.67636
G1 X150.003 Y180.438 E6.73163
G1 X150.696 Y180.484 E6.78707
G1 X151.346 Y180.609 E6.83991
G1 X152.013 Y180.829 E6.89597
G1 X152.614 Y181.113 E6.94903
G1 X152.905 Y181.266 E6.97528
G1 X153.902 Y181.727 E7.06296
G1 X154.173 Y181.843 E7.08649
G1 X155.252 Y182.246 E7.17843
G1 X155.649 Y182.376 E7.21178
G1 X156.797 Y182.7 E7.307
G1 X157.107 Y182.772 E7.3324
G1 X158.177 Y182.985 E7.41949
G1 X158.483 Y183.033 E7.44421
G1 X159.578 Y183.164 E7.53224
G1 X159.846 Y183.187 E7.55371
G1 X161.043 Y183.238 E7.64935
G1 X161.434 Y183.238 E7.68056
G1 X162.631 Y183.187 E7.7762
G1 X162.912 Y183.163 E7.79871
G1 X163.975 Y183.037 E7.88416
G1 X164.297 Y182.985 E7.91019
G1 X165.416 Y182.765 E8.00123
G1 X165.751 Y182.684 E8.02874
G1 X166.875 Y182.365 E8.12201
G1 X167.187 Y182.264 E8.14818
G1 X168.251 Y181.869 E8.23878
G1 X168.547 Y181.743 E8.26446
G1 X169.458 Y181.326 E8.34444
G1 X169.736 Y181.186 E8.36928
G1 X170.827 Y180.582 E8.46883
G1 X171.065 Y180.435 E8.49116
G1 X172.051 Y179.778 E8.58574
G1 X172.324 Y179.58 E8.61266
G1 X173.22 Y178.87 E8.70391
G1 X173.429 Y178.692 E8.72582
G1 X174.228 Y177.958 E8.81243
G1 X174.486 Y177.699 E8.84161
G1 X175.263 Y176.861 E8.93284
G1 X175.443 Y176.652 E8.95485
G1 X176.247 Y175.631 E9.05859
G1 X176.426 Y175.383 E9.083
G1 X177.004 Y174.517 E9.16612
G1 X177.136 Y174.301 E9.18632
G1 X177.712 Y173.279 E9.27997
G1 X177.907 Y172.903 E9.31378
G1 X178.22 Y172.244 E9.37201
G1 X178.581 Y171.37 E9.4475
G1 X178.711 Y171.027 E9.47678
G1 X179.083 Y169.893 E9.57204
G1 X179.183 Y169.548 E9.60072
G1 X179.359 Y168.865 E9.65702
G1 X179.546 Y167.941 E9.73227
G1 X179.626 Y167.457 E9.77143
G1 X179.782 Y166.128 E9.87825
G1 X179.801 Y165.835 E9.90168
G1 X179.841 Y164.741 E9.98907
G1 X179.841 Y161.051 E10.28362
G1 X179.798 Y159.9 E10.37556
G1 X179.778 Y159.609 E10.39885
G1 X179.629 Y158.341 E10.50076
G1 X179.472 Y157.43 E10.57455
G1 X179.216 Y156.369 E10.66168
G1 X179.083 Y155.888 E10.70151
G1 X178.869 Y155.194 E10.75948
G1 X178.473 Y154.132 E10.84996
G1 X178.481 Y154.116 E10.85139
G1 X178.242 Y153.414 E10.91058
G1 X178.124 Y152.726 E10.9663
G1 X178.095 Y152.055 E11.01992
G1 X178.096 Y147.921 E11.34991
G1 X178.137 Y147.201 E11.40748
G1 X178.259 Y146.544 E11.46082
G1 X178.47 Y145.896 E11.51522
G1 X178.877 Y144.801 E11.60847
G1 X178.978 Y144.488 E11.63472
G1 X179.284 Y143.409 E11.72425
G1 X179.366 Y143.083 E11.75108
G1 X179.602 Y141.899 E11.84745
G1 X179.646 Y141.616 E11.87031
G1 X179.776 Y140.534 E11.95731
G1 X179.8 Y140.253 E11.97982
G1 X179.852 Y139.029 E12.07761
G1 X179.852 Y135.622 E12.34957
G1 X179.852 Y135.257 E12.37871
G1 X179.804 Y134.009 E12.4784
G1 X179.776 Y133.684 E12.50444
G1 X179.664 Y132.734 E12.5808
G1 X179.623 Y132.448 E12.60386
G1 X179.385 Y131.216 E12.70402
G1 X179.297 Y130.854 E12.73376
G1 X178.988 Y129.752 E12.82512
G1 X178.687 Y128.865 E12.89989
G1 X178.257 Y127.819 E12.99017
G1 X178.068 Y127.406 E13.02642
G1 X177.744 Y126.748 E13.08497
G1 X177.287 Y125.932 E13.15963
G1 X177.008 Y125.471 E13.20264
G1 X176.577 Y124.81 E13.26563
G1 X175.966 Y123.979 E13.34796
G1 X175.709 Y123.654 E13.38104
G1 X175.315 Y123.181 E13.43018
G1 X174.601 Y122.405 E13.51435
G1 X174.395 Y122.197 E13.53772
G1 X173.333 Y121.21 E13.65345
G1 X172.234 Y120.34 E13.76534
G1 X171.169 Y119.625 E13.86774
G1 X170.911 Y119.464 E13.89201
G1 X169.782 Y118.831 E13.99533
G1 X169.533 Y118.705 E14.01761
G1 X168.6 Y118.274 E14.09965
G1 X168.206 Y118.11 E14.13371
G1 X167.249 Y117.754 E14.21522
G1 X166.851 Y117.624 E14.24864
G1 X165.701 Y117.3 E14.34401
G1 X165.393 Y117.227 E14.36928
G1 X164.383 Y117.025 E14.4515
G1 X164.015 Y116.967 E14.48124
G1 X162.923 Y116.836 E14.56903
G1 X162.653 Y116.813 E14.59066
G1 X161.457 Y116.763 E14.68621
G1 X161.066 Y116.763 E14.71743
G1 X159.87 Y116.813 E14.81298
G1 X159.587 Y116.837 E14.83565
G1 X158.525 Y116.963 E14.92102
G1 X158.209 Y117.014 E14.94657
G1 X157.086 Y117.234 E15.03792
G1 X156.763 Y117.313 E15.06446
G1 X155.616 Y117.636 E15.15958
G1 X155.314 Y117.736 E15.18497
G1 X154.25 Y118.131 E15.27557
G1 X153.957 Y118.256 E15.301
G1 X153.043 Y118.674 E15.38122
G1 X152.153 Y119.119 E15.46065
G1 X151.544 Y119.343 E15.51245
G1 X150.857 Y119.497 E15.56865
G1 X150.199 Y119.56 E15.62142
G1 X149.504 Y119.54 E15.67692
G1 X148.838 Y119.435 E15.73074
G1 X148.167 Y119.239 E15.78654
G1 X147.55 Y118.97 E15.84027
G1 X146.615 Y118.495 E15.92398
G1 X146.33 Y118.368 E15.94889
G1 X145.298 Y117.941 E16.03804
G1 X145.018 Y117.84 E16.0618
G1 X144.01 Y117.511 E16.14644
G1 X143.658 Y117.412 E16.17563
G1 X142.937 Y117.226 E16.23507
G1 X141.891 Y117.019 E16.32018
G1 X141.496 Y116.958 E16.35209
G1 X140.238 Y116.81 E16.4532
G1 X138.864 Y116.754 E16.56297
G1 X138.567 Y116.755 E16.58667
G1 X137.371 Y116.806 E16.68223
G1 X137.086 Y116.83 E16.70506
G1 X136.075 Y116.948 E16.78631
G1 X135.697 Y117.006 E16.81684
G1 X135.033 Y117.125 E16.87069
G1 X133.882 Y117.404 E16.96522
G1 X133.5 Y117.512 E16.99691
G1 X132.803 Y117.728 E17.05516
G1 X131.875 Y118.074 E17.13422
G1 X131.482 Y118.237 E17.16818
G1 X130.482 Y118.696 E17.25601
G1 X130.211 Y118.834 E17.28029
G1 X129.201 Y119.396 E17.37255
G1 X128.868 Y119.6 E17.40372
G1 X128.214 Y120.026 E17.46603
G1 X127.43 Y120.599 E17.54354
G1 X127.056 Y120.894 E17.58157
G1 X126.674 Y121.209 E17.62109
G1 X125.888 Y121.927 E17.70607
G1 X125.535 Y122.272 E17.74547
G1 X124.947 Y122.891 E17.81362
G0 F9000 X125.329 Y123.066
G1 F1125 X176.625 Y174.362 E23.60436
G0 F9000 X175.69 Y175.69
G1 F1125 X124.302 Y124.302 E29.40548
G0 F9000 X123.37 Y125.633
G1 F1125 X174.66 Y176.923 E35.19554
G0 F9000 X173.529 Y178.055
G1 F1125 X122.55 Y127.075 E40.95054
G0 F9000 X121.845 Y128.634
G1 F1125 X172.3 Y179.088 E46.64628
G0 F9000 X170.967 Y180.018
G1 F1125 X121.269 Y130.32 E52.25662
G0 F9000 X120.846 Y132.16
G1 F1125 X169.528 Y180.841 E57.75221
G0 F9000 X167.968 Y181.545
G1 F1125 X120.597 Y134.174 E63.09986
G0 F9000 X120.559 Y136.398
G1 F1125 X166.278 Y182.117 E68.26101
G0 F9000 X164.444 Y182.546
G1 F1125 X120.558 Y138.66 E73.21525
G0 F9000 X120.695 Y141.06
G1 F1125 X162.429 Y182.794 E77.92654
G0 F9000 X160.172 Y182.799
G1 F1125 X121.282 Y143.909 E82.31678
G0 F9000 X122.261 Y147.151
G1 F1125 X157.563 Y182.454 E86.30203
G0 F9000 X154.314 Y181.467
G1 F1125 X122.304 Y149.457 E89.9156
G0 F9000 X122.304 Y151.72
G1 F1125 X150.666 Y180.081 E93.11729
G0 F9000 X148.543 Y180.221
G1 F1125 X122.069 Y153.747 E96.1059
G0 F9000 X121.475 Y155.417
G1 F1125 X146.946 Y180.887 E98.98123
G0 F9000 X145.383 Y181.587
G1 F1125 X120.985 Y157.189 E101.73549
G0 F9000 X120.668 Y159.135
G1 F1125 X143.691 Y182.158 E104.33452
G0 F9000 X141.849 Y182.578
G1 F1125 X120.548 Y161.278 E106.73911
G0 F9000 X120.548 Y163.54
G1 F1125 X139.814 Y182.806 E108.91402
G0 F9000 X137.546 Y182.801
G1 F1125 X120.592 Y165.847 E110.82793
G0 F9000 X120.957 Y168.475
G1 F1125 X134.918 Y182.435 E112.40392
G0 F9000 X131.591 Y181.372
G1 F1125 X122.016 Y171.797 E113.48483
G1 F2700 E108.48483
G0 F9000 X120.37 Y171.655
G0 X119.653 Y169.35
G0 X119.244 Y167.164
G0 X119.083 Y164.892
G0 X119.134 Y134.045
G0 X119.444 Y131.659
G0 X119.909 Y129.752
G0 X120.404 Y128.289
G0 X120.885 Y127.14
G0 X121.547 Y125.81
G0 X122.569 Y124.192
G0 X123.545 Y122.894
G0 X123.961 Y122.439
G0 X125.158 Y121.151
G0 X126.466 Y121.94
G1 F2700 E113.48483
G1 F1125 X177.447 Y172.921 E119.24
G0 F9000 X178.15 Y171.362
G1 F1125 X127.691 Y120.903 E124.93625
G0 F9000 X129.025 Y119.974
G1 F1125 X178.728 Y169.677 E130.54715
G0 F9000 X179.156 Y167.842
G1 F1125 X130.466 Y119.152 E136.0437
G0 F9000 X132.022 Y118.446
G1 F1125 X179.4 Y165.823 E141.39208
G0 F9000 X179.44 Y163.601
G1 F1125 X133.708 Y117.869 E146.55471
G0 F9000 X135.542 Y117.44
G1 F1125 X179.44 Y161.338 E151.51029
G0 F9000 X179.295 Y158.93
G1 F1125 X137.562 Y117.197 E156.22147
G0 F9000 X139.821 Y117.193
G1 F1125 X178.725 Y156.098 E160.61335
G0 F9000 X177.74 Y152.85
G1 F1125 X142.422 Y117.532 E164.60035
G0 F9000 X145.689 Y118.536
G1 F1125 X177.695 Y150.542 E168.21346
G0 F9000 X177.695 Y148.279
G1 F1125 X149.333 Y119.918 E171.41516
G0 F9000 X151.452 Y119.773
G1 F1125 X177.933 Y146.255 E174.40462
G0 F9000 X178.526 Y144.584
G1 F1125 X153.056 Y119.114 E177.27989
G0 F9000 X154.623 Y118.419
G1 F1125 X179.012 Y142.808 E180.03313
G0 F9000 X179.332 Y140.866
G1 F1125 X156.32 Y117.853 E182.63098
G0 F9000 X158.16 Y117.431
G1 F1125 X179.451 Y138.722 E185.03449
G0 F9000 X179.451 Y136.459
G1 F1125 X160.191 Y117.199 E187.20873
G0 F9000 X162.46 Y117.205
G1 F1125 X179.409 Y134.154 E189.12208
G0 F9000 X179.035 Y131.518
G1 F1125 X165.093 Y117.575 E190.69603
G0 F9000 X168.407 Y118.627
G1 F1125 X177.981 Y128.201 E191.77682
G1 F2700 E186.77682
G0 F300 X177.981 Y128.201 Z0.54
G0 F9000 X179.233 Y127.393
G0 X178.208 Y125.399
G0 X177.447 Y124.195
G0 X176.111 Y122.473
G0 X175.053 Y121.352
G0 X173.873 Y120.278
G0 X172.645 Y119.332
G0 X171.364 Y118.495
G0 X169.993 Y117.744
G0 X168.605 Y117.123
G0 X167.156 Y116.602
G0 X165.615 Y116.185
G0 X164.158 Y115.911
G0 X162.581 Y115.743
G0 X161.036 Y115.698
G0 X138.536 Y115.691
G0 X136.975 Y115.771
G0 X134.674 Y116.111
G0 X132.452 Y116.724
G0 X131.05 Y117.263
G0 X129.841 Y117.831
G0 X127.755 Y119.05
G0 X128.436 Y120.358
;TIME_ELAPSED:140.750333
;LAYER:-5
;TYPE:SUPPORT
G1 F2700 E191.77682
G1 F1125 X127.67 Y120.918 E191.8715
G1 X126.923 Y121.519 E191.96717
G1 X126.161 Y122.216 E192.07021
G1 X125.811 Y122.559 E192.11911
G1 X125.355 Y123.033 E192.18474
G1 X124.665 Y123.834 E192.29023
G1 X124.418 Y124.143 E192.3297
G1 X123.755 Y125.048 E192.44164
G1 X123.552 Y125.349 E192.47786
G1 X128.747 Y120.153 E193.21101
G1 X129.01 Y119.981 E193.24236
G1 X129.411 Y119.736 E193.28925
G1 X130.394 Y119.187 E193.40159
G1 X130.676 Y119.045 E193.4331
G1 X131.765 Y118.55 E193.55246
G1 X121.962 Y128.353 E194.93577
G1 X121.762 Y128.836 E194.98793
G1 X121.628 Y129.202 E195.02682
G1 X121.302 Y130.198 E195.13139
G1 X121.212 Y130.517 E195.16446
G1 X133.92 Y117.809 E196.9577
G1 X135.001 Y117.54 E197.06885
G1 X135.741 Y117.403 E197.14394
G1 X120.82 Y132.323 E199.24939
G1 X120.713 Y132.984 E199.3162
G1 X120.662 Y133.401 E199.35812
G1 X120.607 Y133.95 E199.41317
G1 X137.351 Y117.207 E201.77586
G1 X138.827 Y117.144 E201.92327
G1 X120.558 Y135.413 E204.50122
G1 X120.558 Y136.827 E204.64231
G1 X140.177 Y117.209 E207.4107
G1 X141.446 Y117.354 E207.53814
G1 X120.558 Y138.242 E210.48566
G1 X120.558 Y139.082 E210.56948
G1 X120.575 Y139.64 E210.62518
G1 X142.64 Y117.574 E213.73886
G1 X142.958 Y117.639 E213.77125
G1 X143.768 Y117.86 E213.85502
G1 X120.675 Y140.954 E217.11377
G1 X120.867 Y142.176 E217.23719
G1 X144.84 Y118.202 E220.62011
G1 X145.146 Y118.313 E220.65259
G1 X145.854 Y118.603 E220.72893
G1 X121.118 Y143.339 E224.21945
G1 X121.36 Y144.186 E224.30735
G1 X121.439 Y144.432 E224.33313
G1 X146.822 Y119.049 E227.91494
G1 X147.389 Y119.336 E227.97835
G1 X147.779 Y119.506 E228.0208
G1 X121.813 Y145.473 E231.68496
G1 X122.183 Y146.44 E231.78827
G1 X122.14 Y146.459 E231.79296
G1 X122.156 Y146.544 E231.80159
G1 X148.858 Y119.841 E235.5696
G1 X149.465 Y119.939 E235.63095
G1 X150.154 Y119.96 E235.69973
G1 X122.3 Y147.814 E239.63023
G1 X122.304 Y149.224 E239.77092
G1 X151.888 Y119.64 E243.94554
G1 X152.329 Y119.479 E243.99239
G1 X153.202 Y119.04 E244.08989
G1 X154.12 Y118.619 E244.19066
G1 X154.466 Y118.477 E244.22798
G1 X122.304 Y150.639 E248.76639
G1 X122.304 Y152.052 E248.90738
G1 X156.578 Y117.778 E253.74381
G1 X157.167 Y117.625 E253.80453
G1 X158.382 Y117.389 E253.92803
G1 X122.091 Y153.679 E259.04901
G1 X121.904 Y154.253 E259.10925
G1 X121.512 Y155.304 E259.22117
G1 X121.33 Y155.855 E259.27907
G1 X159.979 Y117.206 E264.73286
G1 X161.087 Y117.161 E264.84351
G1 X161.437 Y117.162 E264.87844
G1 X120.88 Y157.719 E270.60147
G1 X120.804 Y158.097 E270.63994
G1 X120.747 Y158.453 E270.67591
G1 X120.638 Y159.375 E270.76855
G1 X162.79 Y117.224 E276.71658
G1 X164.051 Y117.376 E276.84332
G1 X120.552 Y160.875 E282.98149
G1 X120.548 Y162.294 E283.12308
G1 X165.238 Y117.604 E289.42933
G1 X165.508 Y117.659 E289.45682
G1 X166.358 Y117.898 E289.54492
G1 X120.547 Y163.709 E296.00935
G1 X120.546 Y165.124 E296.15054
G1 X167.425 Y118.245 E302.76567
G1 X168.454 Y118.631 E302.87533
