;FLAVOR:Marlin
;TIME:1902
;Filament used: 1.22286m
;Layer height: 0.2
;MINX:123.601
;MINY:125.325
;MINZ:0.24
;MAXX:176.437
;MAXY:179.818
;MAXZ:8.09
;Generated with Cura_SteamEngine main
M140 S65
M105
M190 S65
M104 S212
M105
M109 S212
M82 ;absolute extrusion mode
M201 X500.00 Y500.00 Z100.00 E5000.00 ;Setup machine max acceleration
M203 X500.00 Y500.00 Z10.00 E50.00 ;Setup machine max feedrate
M204 P500.00 R1000.00 T500.00 ;Setup Print/Retract/Travel acceleration
M205 X8.00 Y8.00 Z0.40 E5.00 ;Setup Jerk
M220 S100 ;Reset Feedrate
M221 S100 ;Reset Flowrate

G28 ;Home
G29 ;Auto bed Level

G92 E0 ;Reset Extruder
G1 Z2.0 F3000 ;Move Z Axis up
G1 X10.1 Y20 Z0.28 F5000.0 ;Move to start position
G1 X10.1 Y200.0 Z0.28 F1500.0 E15 ;Draw the first line
G1 X10.4 Y200.0 Z0.28 F5000.0 ;Move to side a little
G1 X10.4 Y20 Z0.28 F1500.0 E30 ;Draw the second line
G92 E0 ;Reset Extruder
G1 Z2.0 F3000 ;Move Z Axis up

G92 E0
G92 E0
G1 F2700 E-5
;LAYER_COUNT:35
;LAYER:-6
M107
G0 F9000 X129.104 Y136.766 Z0.24
;TYPE:SUPPORT-INTERFACE
G1 F2700 E0
G1 F1125 X128.083 Y137.992 E0.12736
G1 X127.434 Y138.936 E0.2188
G1 X127.227 Y139.267 E0.24996
G1 X126.526 Y140.493 E0.3627
G1 X126.059 Y141.507 E0.45181
G1 X125.853 Y142.007 E0.49498
G1 X125.413 Y143.215 E0.5976
G1 X125.125 Y144.268 E0.68475
G1 X124.915 Y145.352 E0.77288
G1 X124.838 Y145.862 E0.81406
G1 X124.706 Y147.006 E0.90598
G1 X124.666 Y148.079 E0.99169
G1 X124.668 Y151.892 E1.29606
G1 X124.751 Y153.404 E1.41694
G1 X124.797 Y153.827 E1.4509
G1 X124.907 Y154.61 E1.51402
G1 X124.978 Y155.39 E1.57654
G1 X124.943 Y156.098 E1.63312
G1 X124.85 Y156.901 E1.69765
G1 X124.811 Y157.979 E1.78376
G1 X124.813 Y161.794 E2.08829
G1 X124.895 Y163.305 E2.20908
G1 X124.933 Y163.665 E2.23798
G1 X125.056 Y164.528 E2.30756
G1 X125.263 Y165.54 E2.39002
G1 X125.346 Y165.88 E2.41795
G1 X125.658 Y166.978 E2.50907
G1 X126.013 Y167.926 E2.58988
G1 X126.228 Y168.443 E2.63457
G1 X126.82 Y169.694 E2.74505
G1 X127.336 Y170.581 E2.82696
G1 X127.611 Y171.011 E2.8677
G1 X128.476 Y172.23 E2.98702
G1 X129.147 Y173.019 E3.0697
G1 X129.456 Y173.358 E3.10631
G1 X130.236 Y174.146 E3.19482
G1 X131.183 Y174.968 E3.29492
G1 X132.257 Y175.764 E3.40163
G1 X133.166 Y176.335 E3.48732
G1 X133.549 Y176.556 E3.52261
G1 X134.582 Y177.101 E3.61584
G1 X135.626 Y177.55 E3.70656
G1 X135.994 Y177.69 E3.73799
G1 X137.241 Y178.109 E3.843
G1 X138.271 Y178.366 E3.92774
G1 X139.392 Y178.556 E4.0185
G1 X139.956 Y178.631 E4.06392
G1 X140.488 Y178.691 E4.10665
G1 X141.64 Y178.759 E4.19877
G1 X142.621 Y178.741 E4.27709
G1 X143.8 Y178.638 E4.37156
G1 X144.223 Y178.583 E4.40561
G1 X145.773 Y178.306 E4.5313
G1 X146.86 Y178.006 E4.62131
G1 X147.271 Y177.877 E4.6557
G1 X148.345 Y177.491 E4.7468
G1 X149.348 Y177.041 E4.83455
G1 X149.651 Y176.889 E4.86161
G1 X150.392 Y176.493 E4.92868
G1 X151.258 Y175.962 E5.00977
G1 X151.553 Y175.763 E5.03817
G1 X152.462 Y175.104 E5.12779
G1 X153.354 Y174.341 E5.22149
G1 X153.844 Y173.953 E5.27138
G1 X154.405 Y173.607 E5.324
G1 X155.032 Y173.322 E5.37898
G1 X155.674 Y173.123 E5.43263
G1 X155.979 Y173.046 E5.45774
G1 X157.088 Y172.731 E5.54977
G1 X158.028 Y172.381 E5.62983
G1 X158.543 Y172.166 E5.67438
G1 X159.796 Y171.573 E5.78504
G1 X160.682 Y171.057 E5.86688
G1 X161.024 Y170.842 E5.89913
G1 X162.332 Y169.918 E6.02696
G1 X163.136 Y169.233 E6.11128
G1 X163.485 Y168.91 E6.14923
G1 X164.12 Y168.269 E6.22126
G1 X164.504 Y167.917 E6.26284
G1 X165.068 Y167.51 E6.31836
G1 X165.646 Y167.194 E6.37094
G1 X166.602 Y166.703 E6.45673
G1 X167.556 Y166.116 E6.54615
G1 X167.837 Y165.928 E6.57313
G1 X168.824 Y165.215 E6.67033
G1 X169.588 Y164.566 E6.75035
G1 X169.989 Y164.199 E6.79374
G1 X170.76 Y163.439 E6.88016
G1 X171.411 Y162.692 E6.95925
G1 X171.758 Y162.265 E7.00317
G1 X172.429 Y161.367 E7.09266
G1 X172.955 Y160.534 E7.1713
G1 X173.471 Y159.589 E7.25724
G1 X173.715 Y159.094 E7.3013
G1 X174.176 Y158.061 E7.39159
G1 X174.517 Y157.129 E7.47081
G1 X174.798 Y156.135 E7.55327
G1 X174.888 Y155.779 E7.58258
G1 X175.193 Y154.194 E7.71142
G1 X175.25 Y153.777 E7.74502
G1 X175.336 Y152.904 E7.81504
G1 X175.373 Y151.9 E7.89524
G1 X175.373 Y148.713 E8.14964
G1 X175.373 Y148.334 E8.17989
G1 X175.316 Y147.015 E8.28528
G1 X175.266 Y146.454 E8.33024
G1 X175.137 Y145.441 E8.41175
G1 X174.913 Y144.351 E8.50058
G1 X174.81 Y143.93 E8.53518
G1 X174.534 Y142.944 E8.61691
G1 X174.173 Y141.948 E8.70148
G1 X173.751 Y141.001 E8.78424
G1 X173.567 Y140.624 E8.81772
G1 X173.157 Y139.84 E8.88835
G1 X172.597 Y138.932 E8.9735
G1 X172.39 Y138.619 E9.00346
G1 X171.536 Y137.451 E9.11896
G1 X170.784 Y136.598 E9.20973
G1 X170.113 Y135.932 E9.28519
G1 X169.655 Y135.508 E9.33502
G1 X169.163 Y135.073 E9.38744
G1 X168.264 Y134.365 E9.47878
G1 X167.431 Y133.81 E9.55868
G1 X166.41 Y133.227 E9.65253
G1 X165.346 Y132.681 E9.748
G1 X164.766 Y132.287 E9.80397
G1 X164.278 Y131.859 E9.85578
G1 X163.41 Y130.98 E9.95439
G1 X162.637 Y130.306 E10.03626
G1 X162.322 Y130.053 E10.06851
G1 X161.424 Y129.387 E10.15775
G1 X160.474 Y128.79 E10.24732
G1 X160.103 Y128.577 E10.28147
G1 X158.81 Y127.913 E10.39749
G1 X157.861 Y127.524 E10.47936
G1 X157.445 Y127.371 E10.51474
G1 X156.007 Y126.927 E10.63488
G1 X154.97 Y126.701 E10.7196
G1 X154.531 Y126.622 E10.75521
G1 X152.978 Y126.426 E10.88016
G1 X151.927 Y126.388 E10.96411
G1 X148.185 Y126.389 E11.26281
G1 X146.917 Y126.448 E11.36414
G1 X145.941 Y126.543 E11.44241
G1 X144.823 Y126.723 E11.53281
G1 X143.703 Y126.998 E11.62486
G1 X142.813 Y127.281 E11.69941
G1 X142.234 Y127.487 E11.74847
G1 X140.854 Y128.058 E11.86768
G1 X139.845 Y128.587 E11.95863
G1 X139.039 Y129.084 E12.03421
G1 X138.582 Y129.391 E12.07816
G1 X137.695 Y130.035 E12.16566
G1 X136.936 Y130.678 E12.24506
G1 X136.633 Y130.953 E12.27773
G1 X135.719 Y131.851 E12.38001
G1 X135.703 Y131.851 E12.38128
G1 X135.431 Y132.117 E12.41165
G1 X134.888 Y132.526 E12.46592
G1 X134.306 Y132.86 E12.51948
G1 X133.701 Y133.165 E12.57357
G1 X132.916 Y133.626 E12.64623
G1 X132.311 Y134.01 E12.70343
G1 X131.874 Y134.3 E12.7453
G1 X130.924 Y135.016 E12.84026
G1 X130.172 Y135.669 E12.91976
G1 X129.382 Y136.466 E13.00934
G1 X129.104 Y136.766 E13.04199
G0 F9000 X129.812 Y136.6
G1 F1125 X162.478 Y169.266 E16.72961
G0 F9000 X163.649 Y168.174
G1 F1125 X130.975 Y135.501 E20.41807
G0 F9000 X132.26 Y134.523
G1 F1125 X164.888 Y167.151 E24.1014
G0 F9000 X166.37 Y166.37
G1 F1125 X133.655 Y133.655 E27.79456
G0 F9000 X135.117 Y132.854
G1 F1125 X167.754 Y165.491 E31.4789
G0 F9000 X169.035 Y164.509
G1 F1125 X136.333 Y131.807 E35.17059
G0 F9000 X137.507 Y130.719
G1 F1125 X170.208 Y163.42 E38.86216
G0 F9000 X171.275 Y162.224
G1 F1125 X138.787 Y129.736 E42.52968
G0 F9000 X140.178 Y128.864
G1 F1125 X172.236 Y160.922 E46.14867
G0 F9000 X173.067 Y159.491
G1 F1125 X141.712 Y128.136 E49.68829
G0 F9000 X143.364 Y127.525
G1 F1125 X173.787 Y157.948 E53.1227
G0 F9000 X174.35 Y156.248
G1 F1125 X145.173 Y127.071 E56.41646
G0 F9000 X147.199 Y126.835
G1 F1125 X174.748 Y154.384 E59.52642
G0 F9000 X174.956 Y152.329
G1 F1125 X149.416 Y126.789 E62.4096
G0 F9000 X151.678 Y126.788
G1 F1125 X174.972 Y150.082 E65.03923
G0 F9000 X174.948 Y147.795
G1 F1125 X154.128 Y126.975 E67.38957
G0 F9000 X157.097 Y127.682
G1 F1125 X174.694 Y145.279 E69.37607
G0 F9000 X173.816 Y142.138
G1 F1125 X161.967 Y130.288 E70.71375
G1 F2700 E65.71375
G0 F9000 X162.84 Y129.112
G0 X161.019 Y127.874
G0 X159.137 Y126.897
G0 X157.72 Y126.341
G0 X156.154 Y125.868
G0 X154.57 Y125.552
G0 X152.947 Y125.359
G0 X148.153 Y125.325
G0 X145.652 Y125.508
G0 X143.606 Y125.92
G0 X141.74 Y126.537
G0 X140.318 Y127.137
G0 X138.469 Y128.185
G0 X130.244 Y134.196
G0 X128.839 Y135.512
G0 X127.63 Y136.873
G0 X128.756 Y137.807
G1 F2700 E70.71375
G1 F1125 X161.185 Y170.236 E74.37461
G0 F9000 X159.795 Y171.109
G1 F1125 X127.798 Y139.111 E77.98677
G0 F9000 X126.961 Y140.537
G1 F1125 X158.268 Y171.845 E81.52103
G0 F9000 X156.61 Y172.449
G1 F1125 X126.25 Y142.089 E84.94833
G0 F9000 X125.674 Y143.776
G1 F1125 X154.859 Y172.961 E88.24298
G0 F9000 X153.416 Y173.78
G1 F1125 X125.275 Y145.64 E91.41972
G0 F9000 X125.079 Y147.706
G1 F1125 X152.183 Y174.81 E94.47946
G0 F9000 X150.851 Y175.741
G1 F1125 X125.066 Y149.956 E97.39029
G0 F9000 X125.087 Y152.24
G1 F1125 X149.408 Y176.561 E100.13586
G0 F9000 X147.833 Y177.249
G1 F1125 X125.318 Y154.734 E102.67754
G0 F9000 X125.249 Y156.927
G1 F1125 X146.116 Y177.794 E105.03319
G0 F9000 X144.232 Y178.173
G1 F1125 X125.21 Y159.152 E107.1805
G0 F9000 X125.212 Y161.416
G1 F1125 X142.144 Y178.348 E109.09193
G0 F9000 X139.729 Y178.195
G1 F1125 X125.359 Y163.826 E110.71409
G0 F9000 X126.004 Y166.733
G1 F1125 X136.813 Y177.542 E111.9343
G1 F2700 E106.9343
G0 F9000 X135.638 Y178.694
G0 X134.02 Y178.008
G0 X133.602 Y177.781
G0 X131.748 Y176.702
G0 X132.318 Y175.31
G1 F2700 E111.9343
G1 F1125 X128.305 Y171.297 E112.38732
G1 F2700 E107.38732
G0 F300 X128.305 Y171.297 Z0.54
G0 F9000 X126.733 Y171.612
G0 X125.817 Y170.066
G0 X125.02 Y168.313
G0 X124.61 Y167.183
G0 X124.207 Y165.707
G0 X123.845 Y163.517
G0 X123.745 Y161.714
G0 X123.601 Y151.814
G0 X123.64 Y147.018
G0 X123.885 Y145.064
G0 X124.354 Y143.044
G0 X124.984 Y141.363
G0 X125.639 Y139.898
G0 X127.24 Y140.046
;TIME_ELAPSED:86.383057
;LAYER:-5
;TYPE:SUPPORT
G1 F2700 E112.38732
G1 F1125 X133.595 Y133.69 E113.28415
G1 X133.112 Y133.974 E113.34006
G1 X132.519 Y134.349 E113.41007
G1 X132.111 Y134.62 E113.45894
G1 X131.181 Y135.319 E113.57502
G1 X130.5 Y135.91 E113.66499
G1 X129.664 Y136.748 E113.7831
G1 X129.327 Y137.12 E113.83319
G1 X128.397 Y138.239 E113.97837
G1 X127.762 Y139.162 E114.09016
G1 X127.564 Y139.478 E114.12737
G1 X126.883 Y140.669 E114.26426
G1 X126.42 Y141.676 E114.37485
G1 X126.269 Y142.035 E114.41371
G1 X126.041 Y142.658 E114.47991
G1 X139.321 Y129.378 E116.35386
G1 X140.05 Y128.928 E116.43934
G1 X141.016 Y128.421 E116.5482
G1 X142.168 Y127.946 E116.67253
G1 X125.457 Y144.657 E119.03064
G1 X125.306 Y145.432 E119.10942
G1 X125.232 Y145.921 E119.15877
G1 X125.184 Y146.344 E119.20125
G1 X144.261 Y127.267 E121.89322
G1 X144.826 Y127.132 E121.95118
G1 X146.004 Y126.938 E122.0703
G1 X125.065 Y147.877 E125.02502
G1 X125.066 Y149.29 E125.16601
G1 X147.537 Y126.82 E128.33684
G1 X148.343 Y126.785 E128.41734
G1 X148.985 Y126.785 E128.4814
G1 X125.068 Y150.703 E131.85642
G1 X125.068 Y152.117 E131.99751
G1 X150.399 Y126.786 E135.57199
G1 X151.813 Y126.786 E135.71308
G1 X125.148 Y153.451 E139.47579
G1 X125.322 Y154.691 E139.60073
G1 X153.162 Y126.851 E143.52926
G1 X154.418 Y127.009 E143.65557
G1 X125.344 Y156.083 E147.75823
G1 X125.249 Y156.92 E147.84228
G1 X125.223 Y157.619 E147.91207
G1 X155.597 Y127.245 E152.19817
G1 X155.902 Y127.311 E152.22931
G1 X156.698 Y127.558 E152.31247
G1 X125.21 Y159.045 E156.7557
G1 X125.211 Y160.459 E156.89679
G1 X157.756 Y127.914 E161.48924
G1 X158.76 Y128.324 E161.59745
G1 X125.216 Y161.868 E166.33087
G1 X125.29 Y163.209 E166.46488
G1 X159.686 Y128.812 E171.3186
G1 X159.992 Y128.972 E171.35305
G1 X160.255 Y129.124 E171.38336
G1 X160.583 Y129.329 E171.42196
G1 X125.453 Y164.46 E176.37925
G1 X125.635 Y165.383 E176.47312
G1 X125.695 Y165.632 E176.49868
G1 X161.435 Y129.892 E181.54198
G1 X162.242 Y130.499 E181.64273
G1 X125.999 Y166.742 E186.75701
G1 X126.382 Y167.773 E186.86676
G1 X163.01 Y131.145 E192.03536
G1 X163.713 Y131.857 E192.1352
G1 X126.818 Y168.752 E197.34148
G1 X127.27 Y169.714 E197.44754
G1 X164.436 Y132.547 E202.69213
G1 X165.278 Y133.12 E202.79376
G1 X127.807 Y170.591 E208.08132
G1 X128.392 Y171.421 E208.18264
G1 X166.228 Y133.584 E213.52178
G1 X167.131 Y134.096 E213.62536
G1 X128.999 Y172.227 E219.00613
G1 X129.442 Y172.748 E219.07436
G1 X129.657 Y172.983 E219.10614
G1 X167.983 Y134.658 E224.51429
G1 X168.777 Y135.278 E224.6148
G1 X130.345 Y173.71 E230.03797
G1 X131.101 Y174.368 E230.13798
G1 X169.532 Y135.937 E235.56101
G1 X169.777 Y136.164 E235.59433
G1 X170.251 Y136.632 E235.6608
G1 X131.888 Y174.995 E241.07423
G1 X132.472 Y175.427 E241.14672
G1 X132.716 Y175.581 E241.17551
G1 X170.931 Y137.366 E246.56805
G1 X171.23 Y137.709 E246.61346
G1 X171.556 Y138.155 E246.66858
G1 X133.587 Y176.124 E252.02642
G1 X134.513 Y176.613 E252.1309
G1 X172.154 Y138.972 E257.44246
G1 X172.691 Y139.85 E257.54515
G1 X135.479 Y177.061 E262.7961
G1 X136.14 Y177.316 E262.86679
G1 X136.512 Y177.442 E262.90598
G1 X173.189 Y140.765 E268.0815
G1 X173.388 Y141.169 E268.12643
G1 X173.638 Y141.731 E268.18781
G1 X137.584 Y177.785 E273.27542
G1 X138.269 Y177.954 E273.34582
G1 X138.746 Y178.037 E273.39413
G1 X174.034 Y142.749 E278.37365
G1 X174.174 Y143.143 E278.41537
G1 X174.366 Y143.831 E278.48664
G1 X139.969 Y178.228 E283.34043
G1 X140.539 Y178.293 E283.39767
G1 X141.274 Y178.337 E283.47114
G1 X174.633 Y144.978 E288.17846
G1 X174.741 Y145.502 E288.23184
G1 X174.827 Y146.198 E288.30182
G1 X142.693 Y178.333 E292.83634
G1 X143.707 Y178.245 E292.9379
G1 X144.272 Y178.168 E292.99479
G1 X174.936 Y147.504 E297.32182
G1 X174.972 Y148.342 E297.40551
G1 X174.972 Y148.882 E297.45939
G1 X146.033 Y177.821 E301.543
G1 X146.644 Y177.654 E301.6062
G1 X147.145 Y177.497 E301.65859
G1 X148.122 Y177.146 E301.76217
G1 X174.972 Y150.296 E305.551
G1 X174.972 Y151.711 E305.69219
G1 X151.093 Y175.589 E309.0617
G1 X151.32 Y175.436 E309.08901
G1 X152.215 Y174.787 E309.19933
G1 X153.468 Y173.715 E309.36386
G1 X154.215 Y173.253 E309.4515
G1 X154.881 Y172.948 E309.52459
G1 X155.267 Y172.83 E309.56487
G1 X174.905 Y153.191 E312.33607
G1 X174.854 Y153.721 E312.3892
G1 X174.801 Y154.108 E312.42818
G1 X174.658 Y154.853 E312.50387
G1 X157.279 Y172.232 E314.95623
G1 X157.882 Y172.007 E315.02045
G1 X158.365 Y171.807 E315.07262
G1 X159.608 Y171.22 E315.20978
G1 X159.842 Y171.083 E315.23683
G1 X174.217 Y156.708 E317.2653
G1 X174.151 Y156.941 E317.28947
G1 X173.799 Y157.92 E317.39327
G1 X173.355 Y158.918 E317.50226
G1 X173.111 Y159.411 E317.55715
G1 X172.62 Y160.316 E317.65989
G1 X172.094 Y161.144 E317.75777
G1 X171.438 Y162.026 E317.86745
G1 X171.213 Y162.306 E317.90329
G1 X170.424 Y163.208 E318.02286
G1 X169.719 Y163.903 E318.12164
G1 X169.427 Y164.173 E318.16132
G1 X168.574 Y164.901 E318.27322
G1 X167.614 Y165.595 E318.39142
G1 X167.28 Y165.816 E318.43138
G1 X166.334 Y166.391 E318.54184
G0 F9000 X165.543 Y166.796
G1 F1125 X173.289 Y159.05 E319.63489
G1 F2700 E314.63489
G0 F300 X173.289 Y159.05 Z0.74
G0 F9000 X174.736 Y159.425
G0 X175.488 Y157.571
G0 X175.966 Y155.832
G0 X176.308 Y153.898
G0 X176.437 Y151.919
G0 X176.434 Y148.169
G0 X176.324 Y146.334
G0 X175.976 Y144.218
G0 X175.513 Y142.523
G0 X174.673 Y140.462
G0 X174.029 Y139.228
G0 X173.179 Y137.887
G0 X172.29 Y136.696
G0 X170.78 Y135.096
G0 X169.103 Y133.67
G0 X168.203 Y134.828
;TIME_ELAPSED:199.506422
;LAYER:-4
;TYPE:SUPPORT-INTERFACE
G1 F2700 E319.63489
G1 F1500 X171.628 Y138.252 E319.79596
G1 X171.23 Y137.709 E319.81836
G1 X170.548 Y136.926 E319.85289
G1 X169.777 Y136.164 E319.88895
G1 X169.387 Y135.805 E319.90658
G1 X168.898 Y135.372 E319.9283
G1 X168.013 Y134.679 E319.96569
G1 X167.195 Y134.133 E319.9984
G1 X166.609 Y133.799 E320.02083
G1 X172.761 Y139.951 E320.3102
G1 X173.205 Y140.794 E320.34189
G1 X173.364 Y141.12 E320.35396
G1 X165.407 Y133.163 E320.72823
G1 X165.133 Y133.022 E320.73848
G1 X164.531 Y132.612 E320.7627
G1 X163.998 Y132.144 E320.78629
G1 X163.145 Y131.282 E320.82663
G1 X162.315 Y130.558 E320.86326
G1 X161.964 Y130.285 E320.87805
G1 X173.818 Y142.14 E321.43565
G1 X174.129 Y143.017 E321.4666
G1 X160.212 Y129.099 E322.12124
G1 X159.992 Y128.972 E322.12969
G1 X159.013 Y128.466 E322.16634
G1 X174.377 Y143.83 E322.88901
G1 X174.55 Y144.569 E322.91426
G1 X157.993 Y128.011 E323.69307
G1 X157.642 Y127.868 E323.70568
G1 X157.082 Y127.666 E323.72548
G1 X174.716 Y145.3 E324.55493
G1 X174.797 Y145.947 E324.57662
G1 X156.278 Y127.428 E325.44769
G1 X155.902 Y127.311 E325.46079
G1 X155.511 Y127.227 E325.47409
G1 X174.878 Y146.593 E326.38503
G1 X174.924 Y147.205 E326.40544
G1 X154.794 Y127.075 E327.3523
G1 X154.464 Y127.016 E327.36345
G1 X154.126 Y126.973 E327.37478
G1 X174.948 Y147.795 E328.35418
G1 X174.972 Y148.384 E328.37379
G1 X153.479 Y126.892 E329.38473
G1 X152.832 Y126.81 E329.40642
G1 X174.972 Y148.95 E330.44782
G1 X174.972 Y149.516 E330.46665
